;FLAVOR:Marlin
;TIME:4608
;Filament used: 8.54184m
;Layer height: 0.2
;MINX:19.5
;MINY:42.35
;MINZ:0.3
;MAXX:200.5
;MAXY:174.239
;MAXZ:8.3
;Generated with Cura_SteamEngine 4.8.0
M140 S80
M105
M190 S80
M104 S230
M105
M109 S230
M82 ;absolute extrusion mode
G28 ;Home
G1 Z15.0 F2000 ;Move the platform
G92 E0
G92 E0
G1 F1500 E-6.5
;LAYER_COUNT:41
;LAYER:0
M107
M204 S1000
G0 F7500 X22.51 Y42.96 Z0.3
;TYPE:SKIRT
G1 F1500 E0
G1 X23.118 Y42.694 E0.16555
G1 X23.753 Y42.504 E0.33089
G1 X24.406 Y42.392 E0.49616
G1 X24.855 Y42.361 E0.60843
G1 X25.176 Y42.352 E0.68853
G1 X25.33 Y42.35 E0.72695
G1 X194.293 Y42.35 E42.87494
G1 X195.07 Y42.361 E43.06878
G1 X195.731 Y42.41 E43.23412
G1 X196.381 Y42.539 E43.39943
G1 X197.012 Y42.745 E43.56501
G1 X197.612 Y43.025 E43.73017
G1 X198.175 Y43.376 E43.89567
G1 X198.692 Y43.791 E44.06105
G1 X199.154 Y44.266 E44.22634
G1 X199.557 Y44.793 E44.39183
G1 X199.892 Y45.365 E44.55719
G1 X200.157 Y45.973 E44.72264
G1 X200.347 Y46.608 E44.88798
G1 X200.458 Y47.262 E45.05345
G1 X200.489 Y47.705 E45.16423
G1 X200.498 Y48.025 E45.24408
G1 X200.5 Y48.18 E45.28275
G1 X200.5 Y166.572 E74.81576
G1 X200.491 Y167.299 E74.99712
G1 X200.442 Y167.96 E75.16246
G1 X200.315 Y168.611 E75.32791
G1 X200.11 Y169.242 E75.49342
G1 X199.831 Y169.843 E75.6587
G1 X199.482 Y170.406 E75.82394
G1 X199.067 Y170.924 E75.98951
G1 X198.593 Y171.387 E76.1548
G1 X198.067 Y171.791 E76.32024
G1 X197.496 Y172.128 E76.48564
G1 X196.888 Y172.393 E76.65108
G1 X196.253 Y172.584 E76.8165
G1 X195.6 Y172.697 E76.98181
G1 X195.145 Y172.729 E77.09559
G1 X194.824 Y172.738 E77.17569
G1 X194.67 Y172.74 E77.21411
G1 X25.636 Y172.74 E119.37981
G1 X24.938 Y172.731 E119.55395
G1 X24.277 Y172.682 E119.71929
G1 X23.626 Y172.554 E119.88479
G1 X22.996 Y172.349 E120.05005
G1 X22.394 Y172.07 E120.21557
G1 X21.831 Y171.72 E120.38093
G1 X21.314 Y171.305 E120.54631
G1 X20.851 Y170.831 E120.7116
G1 X20.448 Y170.304 E120.87709
G1 X20.111 Y169.733 E121.04248
G1 X19.846 Y169.126 E121.2077
G1 X19.655 Y168.491 E121.37311
G1 X19.543 Y167.837 E121.53863
G1 X19.511 Y167.38 E121.65291
G1 X19.5 Y166.898 E121.77317
G1 X19.501 Y48.45 E151.32015
G1 X19.51 Y47.785 E151.48605
G1 X19.558 Y47.123 E151.65162
G1 X19.687 Y46.473 E151.81692
G1 X19.892 Y45.842 E151.98242
G1 X20.172 Y45.241 E152.14782
G1 X20.522 Y44.678 E152.31318
G1 X20.937 Y44.162 E152.47836
G1 X21.412 Y43.698 E152.644
G1 X21.939 Y43.296 E152.80935
G1 X22.51 Y42.96 E152.97461
G0 F7500 X22.89 Y43.889
G1 F1500 X23.436 Y43.643 E153.124
G1 X24.011 Y43.471 E153.27371
G1 X24.883 Y43.361 E153.49296
G1 X25.33 Y43.35 E153.6045
G1 X194.357 Y43.35 E195.76845
G1 X195.055 Y43.36 E195.94259
G1 X195.653 Y43.409 E196.09226
G1 X196.239 Y43.537 E196.24188
G1 X196.803 Y43.741 E196.3915
G1 X197.334 Y44.018 E196.54089
G1 X197.824 Y44.364 E196.69053
G1 X198.264 Y44.772 E196.84021
G1 X198.646 Y45.234 E196.98975
G1 X198.962 Y45.744 E197.13941
G1 X199.208 Y46.291 E197.28902
G1 X199.38 Y46.865 E197.4385
G1 X199.489 Y47.733 E197.65672
G1 X199.5 Y48.18 E197.76826
G1 X199.5 Y166.56 E227.29827
G1 X199.491 Y167.287 E227.47964
G1 X199.443 Y167.884 E227.62904
G1 X199.317 Y168.471 E227.7788
G1 X199.114 Y169.035 E227.92833
G1 X198.837 Y169.567 E228.07795
G1 X198.492 Y170.058 E228.22764
G1 X198.085 Y170.498 E228.37715
G1 X197.624 Y170.881 E228.52666
G1 X197.115 Y171.198 E228.67624
G1 X196.569 Y171.445 E228.82573
G1 X195.994 Y171.618 E228.97552
G1 X195.117 Y171.729 E229.19603
G1 X194.67 Y171.74 E229.30757
G1 X25.649 Y171.74 E271.47003
G1 X24.951 Y171.731 E271.64416
G1 X24.353 Y171.683 E271.79381
G1 X23.767 Y171.556 E271.94338
G1 X23.203 Y171.353 E272.09291
G1 X22.671 Y171.076 E272.24253
G1 X22.181 Y170.731 E272.39202
G1 X21.74 Y170.324 E272.54171
G1 X21.358 Y169.862 E272.69125
G1 X21.041 Y169.353 E272.84084
G1 X20.794 Y168.806 E272.99055
G1 X20.622 Y168.232 E273.14003
G1 X20.511 Y167.353 E273.36103
G1 X20.5 Y166.898 E273.47457
G1 X20.5 Y48.463 E303.0183
G1 X20.509 Y47.798 E303.1842
G1 X20.557 Y47.2 E303.33385
G1 X20.685 Y46.614 E303.48348
G1 X20.888 Y46.05 E303.633
G1 X21.166 Y45.519 E303.78252
G1 X21.511 Y45.028 E303.93221
G1 X21.918 Y44.588 E304.08172
G1 X22.381 Y44.206 E304.23145
G1 X22.89 Y43.889 E304.38103
G0 F7500 X23.335 Y44.785
G1 F1500 X23.817 Y44.568 E304.51289
G1 X24.326 Y44.426 E304.64471
G1 X24.911 Y44.36 E304.79157
G1 X25.33 Y44.35 E304.89612
G1 X194.343 Y44.35 E347.05658
G1 X195.041 Y44.36 E347.23072
G1 X195.568 Y44.408 E347.36272
G1 X196.081 Y44.534 E347.49449
G1 X196.57 Y44.736 E347.62647
G1 X197.022 Y45.01 E347.75832
G1 X197.429 Y45.348 E347.89029
G1 X197.779 Y45.744 E348.02213
G1 X198.066 Y46.188 E348.15401
G1 X198.283 Y46.671 E348.2861
G1 X198.424 Y47.18 E348.41785
G1 X198.49 Y47.762 E348.56396
G1 X198.5 Y48.18 E348.66826
G1 X198.5 Y166.547 E378.19503
G1 X198.491 Y167.274 E378.37639
G1 X198.444 Y167.801 E378.50838
G1 X198.319 Y168.315 E378.64033
G1 X198.118 Y168.804 E378.77221
G1 X197.845 Y169.257 E378.90415
G1 X197.507 Y169.664 E379.03612
G1 X197.112 Y170.015 E379.16794
G1 X196.669 Y170.303 E379.29974
G1 X196.187 Y170.52 E379.4316
G1 X195.677 Y170.663 E379.56373
G1 X195.089 Y170.73 E379.71135
G1 X194.67 Y170.74 E379.8159
G1 X25.662 Y170.74 E421.97512
G1 X24.964 Y170.731 E422.14925
G1 X24.437 Y170.684 E422.28123
G1 X23.924 Y170.558 E422.41301
G1 X23.435 Y170.357 E422.54489
G1 X22.982 Y170.084 E422.67683
G1 X22.575 Y169.746 E422.8088
G1 X22.224 Y169.351 E422.94061
G1 X21.936 Y168.907 E423.07263
G1 X21.719 Y168.425 E423.20449
G1 X21.577 Y167.916 E423.33631
G1 X21.51 Y167.326 E423.48443
G1 X21.5 Y166.898 E423.59122
G1 X21.5 Y48.477 E453.13146
G1 X21.509 Y47.812 E453.29736
G1 X21.556 Y47.285 E453.42934
G1 X21.682 Y46.771 E453.56136
G1 X21.884 Y46.283 E453.69311
G1 X22.157 Y45.83 E453.82504
G1 X22.495 Y45.423 E453.95701
G1 X22.891 Y45.073 E454.08885
G1 X23.335 Y44.785 E454.22086
G1 F1500 E447.72086
;MESH:main-case-top-connector.stl
G0 F7500 X26.014 Y48.864
G0 X29.678 Y49.153
G0 X33.851 Y51.35
;TYPE:WALL-INNER
G1 F1500 E454.22086
G1 X185.615 Y51.35 E492.07855
G1 X185.759 Y51.35 E492.11447
G1 X185.615 Y51.65 E492.15339
G1 X186.956 Y54.434 E492.92423
G1 X187.301 Y55.15 E493.12249
G1 X186.507 Y55.15 E493.23667
G1 X186.506 Y55.15 E493.23692
G1 X33.821 Y55.15 E531.32435
G1 X33.82 Y55.15 E531.3246
G1 X32.393 Y55.15 E531.68056
G1 X33.509 Y54.26 E531.86858
G1 X33.851 Y53.988 E531.97759
G1 X33.851 Y51.35 E532.63564
G0 F7500 X28.5 Y56.512
G1 F1500 X29.11 Y56.651 E532.7917
G1 X30.199 Y56.899 E533.07031
G1 X30.69 Y56.508 E533.22688
G1 X31.5 Y55.862 E533.48533
G1 X31.5 Y56.898 E533.62739
G1 X31.5 Y158.402 E558.94767
G1 X31.5 Y159.438 E559.2061
G1 X30.69 Y158.792 E559.34817
G1 X30.199 Y158.401 E559.50474
G1 X29.11 Y158.649 E559.78335
G1 X28.5 Y158.788 E559.93941
G1 X28.5 Y158.163 E560.03439
G1 X28.5 Y158.162 E560.03464
G1 X28.5 Y57.138 E585.23518
G1 X28.5 Y57.137 E585.23543
G1 X28.5 Y56.512 E585.33041
G1 F1500 E578.83041
G0 F7500 X33.851 Y162.15
G1 F1500 E585.33041
G1 X185.543 Y162.15 E623.17013
G1 X185.544 Y162.15 E623.17038
G1 X186.337 Y162.15 E623.3682
G1 X185.993 Y162.865 E623.48232
G1 X185.615 Y163.65 E623.69966
G1 X185.658 Y163.74 E623.72454
G1 X185.615 Y163.74
G1 X33.851 Y163.74 E661.58223
G1 X33.851 Y162.15 E661.97885
G1 F1500 E655.47885
G0 F7500 X186.028 Y159.678
G0 X188.5 Y56.056
G1 F1500 E661.97885
G1 X189.11 Y56.195 E662.13492
G1 X191.5 Y56.74 E662.74641
G1 X191.5 Y158.56 E688.14551
G1 X189.11 Y159.105 E688.757
G1 X188.5 Y159.244 E688.91307
G1 X188.5 Y158.619 E689.00805
G1 X188.5 Y158.618 E689.0083
G1 X188.5 Y56.682 E714.43634
G1 X188.5 Y56.681 E714.43659
G1 X188.5 Y56.056 E714.53156
G0 F7500 X191.59 Y54.232
G0 X193.396 Y52.774
G0 X193.5 Y49.996
G1 F1500 X193.186 Y49.745 E714.63184
G1 X192.69 Y49.35 E714.79001
G1 X193.5 Y49.35 E714.86485
G1 X193.5 Y49.996 E714.9374
G1 F1500 E708.4374
G0 F7500 X193.5 Y165.304
G1 F1500 E714.9374
G1 X193.5 Y165.74 E715.04616
G1 X192.953 Y165.74 E715.18261
G1 X193.287 Y165.474 E715.19368
G1 X193.5 Y165.304 E715.19509
G1 F1500 E708.69509
G0 F7500 X191.944 Y165.935
G0 X29.944 Y165.934
G0 X27.375 Y165.74
G0 X26.5 Y165.031
G1 F1500 E715.19509
G1 X26.777 Y165.606 E715.3543
G1 X26.842 Y165.74 E715.39145
G1 X26.5 Y165.74 E715.41665
G1 X26.5 Y165.031 E715.4549
G1 F1500 E708.9549
G0 F7500 X26.523 Y51.315
G0 X26.943 Y49.35
G1 F1500 E715.4549
G1 X26.86 Y49.523 E715.50277
G1 X26.5 Y50.269 E715.70939
G1 X26.5 Y49.35 E715.76865
G1 X26.943 Y49.35 E715.8184
G0 F7500 X26.523 Y51.315
G0 X26.524 Y51.986
G0 X28.11 Y55.397
G1 F1500 X29.952 Y55.817 E716.28968
G1 X32.851 Y53.506 E717.2145
G1 X32.851 Y50.35 E718.00177
G1 X186.557 Y50.35 E756.34389
G1 X186.558 Y50.35 E756.34414
G1 X187.351 Y50.35 E756.54195
G1 X187.007 Y51.065 E756.65608
G1 X186.725 Y51.65 E756.81808
G1 X188.335 Y54.993 E757.74366
G1 X191.952 Y55.817 E758.66904
G1 X192.5 Y55.38 E758.84389
G1 X192.5 Y55.817 E758.85957
G1 X192.5 Y159.483 E784.71916
G1 X192.5 Y159.92 E784.82817
G1 X191.952 Y159.483 E784.90957
G1 X188.434 Y160.285 E785.80966
G1 X188.335 Y160.307 E785.83495
G1 X187.849 Y161.317 E786.11455
G1 X187.638 Y161.755 E786.23583
G1 X186.725 Y163.65 E786.76054
G1 X186.905 Y164.024 E786.86408
G1 X187.25 Y164.74 E787.06234
G1 X186.456 Y164.74 E787.17652
G1 X186.455 Y164.74 E787.17677
G1 X32.851 Y164.74 E825.49345
G1 X32.851 Y161.794 E826.22833
G1 X32.323 Y161.373 E826.39678
G1 X31.743 Y160.911 E826.58175
G1 X29.952 Y159.483 E827.15315
G1 X28.11 Y159.903 E827.62443
G1 X27.5 Y160.042 E827.78049
G1 X27.5 Y159.417 E827.87547
G1 X27.5 Y159.416 E827.87572
G1 X27.5 Y55.884 E853.70188
G1 X27.5 Y55.883 E853.70213
G1 X27.5 Y55.258 E853.85804
G1 X28.11 Y55.397 E853.95312
G0 F7500 X27.314 Y54.19
G1 F1500 X29.705 Y54.735 E854.56485
G1 X31.851 Y53.024 E855.24949
G1 X31.851 Y50.276 E855.93499
G1 X30.69 Y49.35 E856.30544
G1 X31.851 Y49.35 E856.42782
G1 X188.148 Y49.35 E895.41626
G1 X188.149 Y49.35 E895.41651
G1 X188.943 Y49.35 E895.61457
G1 X188.598 Y50.066 E895.72887
G1 X187.835 Y51.65 E896.16745
G1 X189.027 Y54.125 E896.85272
G1 X191.705 Y54.735 E897.53786
G1 X192.689 Y53.95 E897.85186
G1 X193.5 Y53.304 E898.1105
G1 X193.5 Y54.34 E898.2525
G1 X193.5 Y54.341 E898.25275
G1 X193.5 Y160.959 E924.84872
G1 X193.5 Y160.96 E924.84897
G1 X193.5 Y161.996 E925.1074
G1 X192.689 Y161.35 E925.24951
G1 X191.705 Y160.565 E925.56351
G1 X189.027 Y161.175 E926.24865
G1 X187.835 Y163.65 E926.93392
G1 X188.497 Y165.024 E927.31437
G1 X188.842 Y165.74 E927.51263
G1 X188.048 Y165.74 E927.62682
G1 X188.047 Y165.74 E927.62707
G1 X31.851 Y165.74 E966.59032
G1 X30.953 Y165.74 E966.81432
G1 X31.851 Y165.024 E966.94605
G1 X31.851 Y162.276 E967.63155
G1 X29.705 Y160.565 E968.31619
G1 X27.314 Y161.11 E968.92793
G1 X27.027 Y161.175 E969.00133
G1 X26.5 Y162.269 E969.30424
G1 X26.5 Y161.175 E969.37053
G1 X26.5 Y160.88 E969.43057
G1 X26.5 Y54.42 E995.98712
G1 X26.5 Y54.125 E996.06071
G1 X26.5 Y53.031 E996.33361
G1 X27.027 Y54.125 E996.42985
G1 X27.314 Y54.19 E996.48969
G0 F7500 X29.589 Y54.232
G0 X29.831 Y54.122
G0 X29.458 Y53.653
;TYPE:WALL-OUTER
G1 F1500 X30.851 Y52.542 E996.93416
G1 X30.851 Y50.758 E997.37918
G1 X29.458 Y49.647 E997.82365
G1 X27.719 Y50.043 E998.26855
G1 X26.945 Y51.65 E998.71349
G1 X27.719 Y53.257 E999.15844
G1 X29.458 Y53.653 E999.60334
G0 F7500 X29.614 Y53.529
G0 X30.299 Y54.389
G1 F1500 E993.10334
G0 F7500 X32.5 Y160.408
;TYPE:WALL-INNER
G1 F1500 E999.60334
G1 X32.5 Y161.15 E999.7288
G1 X32.851 Y161.15 E999.7513
G1 X187.013 Y161.15 E1038.20716
G1 X187.5 Y161.15 E1038.29712
G1 X187.5 Y160.307 E1038.41452
G1 X187.5 Y160.205 E1038.43834
G1 X187.5 Y56.15 E1064.39497
G1 X32.5 Y56.15 E1103.05988
G1 X32.5 Y160.408 E1129.06714
G0 F7500 X33.5 Y160.15
G1 F1500 X186.5 Y160.15 E1167.23314
G1 X186.5 Y57.15 E1192.9266
G1 X33.5 Y57.15 E1231.0926
G1 X33.5 Y160.15 E1256.78606
G0 F7500 X33.9 Y159.15
G0 X34.5 Y159.15
;TYPE:WALL-OUTER
G1 F1500 X185.5 Y159.15 E1294.45316
G1 X185.5 Y58.15 E1319.64771
G1 X34.5 Y58.15 E1357.31482
G1 X34.5 Y159.15 E1382.50937
G0 F7500 X34.7 Y159.15
G0 X34.7 Y160.25
G1 F1500 E1376.00937
G0 F7500 X29.589 Y161.068
G0 X27.349 Y161.578
G0 X26.524 Y163.314
G0 X26.845 Y163.65
G0 X26.945 Y163.65
G1 F1500 E1382.50937
G1 X27.719 Y165.257 E1382.95431
G1 X29.458 Y165.653 E1383.39921
G1 X30.851 Y164.542 E1383.84368
G1 X30.851 Y162.758 E1384.2887
G1 X29.458 Y161.647 E1384.73317
G1 X27.719 Y162.043 E1385.17807
G1 X26.945 Y163.65 E1385.62301
G0 F7500 X27.031 Y163.83
G1 F1500 E1379.12301
G0 F7500 X26.941 Y163.872
G0 X26.523 Y163.985
G0 X27.375 Y165.74
G0 X29.687 Y165.914
G0 X191.48 Y165.75
G0 X191.458 Y165.653
G1 F1500 E1385.62301
G1 X192.851 Y164.542 E1386.06748
G1 X192.851 Y162.758 E1386.5125
G1 X191.458 Y161.647 E1386.95697
G1 X189.719 Y162.043 E1387.40187
G1 X188.945 Y163.65 E1387.84681
G1 X189.719 Y165.257 E1388.29175
G1 X191.458 Y165.653 E1388.73665
G0 F7500 X191.614 Y165.529
G1 F1500 E1382.23665
G0 F7500 X191.675 Y165.607
G0 X191.944 Y165.935
G0 X193.396 Y164.773
G0 X193.396 Y163.5
G0 X189.585 Y53.841
G0 X189.719 Y53.257
G1 F1500 E1388.73665
G1 X191.458 Y53.653 E1389.18155
G1 X192.851 Y52.542 E1389.62602
G1 X192.851 Y50.758 E1390.07104
G1 X191.458 Y49.647 E1390.51551
G1 X189.719 Y50.043 E1390.96041
G1 X188.945 Y51.65 E1391.40535
G1 X189.719 Y53.257 E1391.85029
G0 F7500 X189.914 Y53.301
G0 X189.669 Y54.373
G1 F1500 E1385.35029
G0 F7500 X191.59 Y54.232
G0 X193.396 Y52.774
G0 X193.93 Y48.92
G0 X194.5 Y48.35
G1 F1500 E1391.85029
G1 X194.5 Y166.74 E1421.3828
G1 X25.5 Y166.74 E1463.54002
G1 X25.5 Y48.35 E1493.07253
G1 X194.5 Y48.35 E1535.22975
G0 F7500 X194.5 Y48.55
G0 X193.4 Y49.45
G0 X193.396 Y52.774
G0 X190.51 Y57.529
;TYPE:SKIN
G1 F1500 X190.51 Y157.771 E1560.23522
G1 X189.49 Y158.003 E1560.49616
G1 X189.49 Y57.297 E1585.61737
G1 X190.51 Y57.529 E1585.87831
G0 F7500 X189.889 Y58.367
G1 F1500 X190.109 Y58.587 E1585.95592
G0 F7500 X189.889 Y59.781
G1 F1500 X190.109 Y60.001 E1586.03353
G0 F7500 X189.889 Y61.195
G1 F1500 X190.109 Y61.415 E1586.11114
G0 F7500 X189.889 Y62.61
G1 F1500 X190.109 Y62.829 E1586.18858
G0 F7500 X189.889 Y64.024
G1 F1500 X190.109 Y64.244 E1586.26619
G0 F7500 X189.889 Y65.438
G1 F1500 X190.109 Y65.658 E1586.3438
G0 F7500 X189.889 Y66.852
G1 F1500 X190.109 Y67.072 E1586.42141
G0 F7500 X189.889 Y68.266
G1 F1500 X190.109 Y68.486 E1586.49902
G0 F7500 X189.889 Y69.681
G1 F1500 X190.109 Y69.901 E1586.57663
G0 F7500 X189.889 Y71.095
G1 F1500 X190.109 Y71.315 E1586.65424
G0 F7500 X189.889 Y72.509
G1 F1500 X190.109 Y72.729 E1586.73185
G0 F7500 X189.889 Y73.923
G1 F1500 X190.109 Y74.143 E1586.80946
G0 F7500 X189.889 Y75.337
G1 F1500 X190.109 Y75.557 E1586.88707
G0 F7500 X189.889 Y76.752
G1 F1500 X190.109 Y76.972 E1586.96468
G0 F7500 X189.889 Y78.166
G1 F1500 X190.109 Y78.386 E1587.0423
G0 F7500 X189.889 Y79.58
G1 F1500 X190.109 Y79.8 E1587.11991
G0 F7500 X189.889 Y80.994
G1 F1500 X190.109 Y81.214 E1587.19752
G0 F7500 X189.889 Y82.409
G1 F1500 X190.109 Y82.628 E1587.27495
G0 F7500 X189.889 Y83.823
G1 F1500 X190.109 Y84.043 E1587.35256
G0 F7500 X189.889 Y85.237
G1 F1500 X190.109 Y85.457 E1587.43017
G0 F7500 X189.889 Y86.651
G1 F1500 X190.109 Y86.871 E1587.50778
G0 F7500 X189.889 Y88.065
G1 F1500 X190.109 Y88.285 E1587.5854
G0 F7500 X189.889 Y89.48
G1 F1500 X190.109 Y89.7 E1587.66301
G0 F7500 X189.889 Y90.894
G1 F1500 X190.109 Y91.114 E1587.74062
G0 F7500 X189.889 Y92.308
G1 F1500 X190.109 Y92.528 E1587.81823
G0 F7500 X189.889 Y93.722
G1 F1500 X190.109 Y93.942 E1587.89584
G0 F7500 X189.889 Y95.136
G1 F1500 X190.109 Y95.356 E1587.97345
G0 F7500 X189.889 Y96.551
G1 F1500 X190.109 Y96.771 E1588.05106
G0 F7500 X189.889 Y97.965
G1 F1500 X190.109 Y98.185 E1588.12867
G0 F7500 X189.889 Y99.379
G1 F1500 X190.109 Y99.599 E1588.20628
G0 F7500 X189.889 Y100.793
G1 F1500 X190.109 Y101.013 E1588.28389
G0 F7500 X189.889 Y102.208
G1 F1500 X190.109 Y102.427 E1588.36133
G0 F7500 X189.889 Y103.622
G1 F1500 X190.109 Y103.842 E1588.43894
G0 F7500 X189.889 Y105.036
G1 F1500 X190.109 Y105.256 E1588.51655
G0 F7500 X189.889 Y106.45
G1 F1500 X190.109 Y106.67 E1588.59416
G0 F7500 X189.889 Y107.864
G1 F1500 X190.109 Y108.084 E1588.67177
G0 F7500 X189.889 Y109.279
G1 F1500 X190.109 Y109.499 E1588.74938
G0 F7500 X189.889 Y110.693
G1 F1500 X190.109 Y110.913 E1588.82699
G0 F7500 X189.889 Y112.107
