;FLAVOR:Marlin
;TIME:2676
;Filament used: 1.61887m
;Layer height: 0.15
;MINX:96.005
;MINY:90.517
;MINZ:0.2
;MAXX:123
;MAXY:129.483
;MAXZ:11.6
;Generated with Cura_SteamEngine 4.8.0
M140 S80
M105
M190 S80
M104 S230
M105
M109 S230
M82 ;absolute extrusion mode
G28 ;Home
G1 Z15.0 F2000 ;Move the platform
G92 E0
G92 E0
G1 F1500 E-6.5
;LAYER_COUNT:79
;LAYER:0
M107
M204 S1000
G0 F7500 X98.409 Y93.396 Z0.2
;TYPE:SKIRT
G1 F1500 E0
G1 X98.882 Y92.922 E0.04454
G1 X99.242 Y92.617 E0.07593
G1 X99.744 Y92.216 E0.11867
G1 X100.301 Y91.845 E0.16319
G1 X100.788 Y91.578 E0.20013
G1 X101.261 Y91.334 E0.23554
G1 X101.864 Y91.083 E0.27898
G1 X102.272 Y90.951 E0.30751
G1 X102.914 Y90.764 E0.35199
G1 X103.566 Y90.633 E0.39623
G1 X104.062 Y90.576 E0.42944
G1 X104.667 Y90.524 E0.46983
G1 X105.234 Y90.517 E0.50755
G1 X105.406 Y90.528 E0.51902
G1 X105.782 Y90.56 E0.54412
G1 X106.415 Y90.63 E0.58648
G1 X107.074 Y90.76 E0.63117
G1 X107.527 Y90.89 E0.66252
G1 X107.649 Y90.927 E0.671
G1 X108.134 Y91.083 E0.70489
G1 X108.601 Y91.266 E0.73825
G1 X108.795 Y91.361 E0.75262
G1 X109.234 Y91.59 E0.78556
G1 X109.699 Y91.846 E0.82087
G1 X109.989 Y92.022 E0.84343
G1 X110.302 Y92.231 E0.86847
G1 X112.616 Y93.734 E1.05202
G1 X114.961 Y95.161 E1.23462
G1 X117.3 Y96.498 E1.41383
G1 X120.564 Y98.22 E1.65932
G1 X120.804 Y98.342 E1.67723
G1 X121.288 Y98.633 E1.7148
G1 X121.727 Y98.99 E1.75244
G1 X122.111 Y99.405 E1.79005
G1 X122.433 Y99.87 E1.82767
G1 X122.686 Y100.375 E1.86524
G1 X122.865 Y100.911 E1.90283
G1 X122.967 Y101.468 E1.9405
G1 X122.989 Y101.796 E1.96237
G1 X123 Y102.23 E1.99125
G1 X123 Y117.219 E2.98832
G1 X122.99 Y117.949 E3.03689
G1 X122.942 Y118.512 E3.07447
G1 X122.815 Y119.063 E3.11209
G1 X122.612 Y119.591 E3.14971
G1 X122.337 Y120.084 E3.18727
G1 X121.995 Y120.534 E3.22486
G1 X121.592 Y120.932 E3.26254
G1 X121.138 Y121.268 E3.30011
G1 X120.849 Y121.436 E3.32235
G1 X120.389 Y121.678 E3.35692
G1 X117.975 Y122.984 E3.5395
G1 X115.608 Y124.354 E3.72142
G1 X113.309 Y125.773 E3.90114
G1 X111.053 Y127.252 E4.08058
G1 X110.358 Y127.733 E4.13681
G1 X109.992 Y127.977 E4.16607
G1 X109.716 Y128.146 E4.1876
G1 X109.32 Y128.366 E4.21773
G1 X108.73 Y128.67 E4.26188
G1 X108.136 Y128.917 E4.30467
G1 X107.728 Y129.049 E4.3332
G1 X107.086 Y129.236 E4.37768
G1 X106.434 Y129.367 E4.42192
G1 X105.938 Y129.424 E4.45513
G1 X105.335 Y129.476 E4.49539
G1 X104.771 Y129.483 E4.53291
G1 X104.594 Y129.472 E4.54471
G1 X104.218 Y129.44 E4.56981
G1 X103.585 Y129.37 E4.61217
G1 X102.926 Y129.24 E4.65685
G1 X102.473 Y129.11 E4.6882
G1 X101.88 Y128.922 E4.72959
G1 X101.38 Y128.725 E4.76533
G1 X101.189 Y128.631 E4.7795
G1 X100.767 Y128.41 E4.81118
G1 X100.293 Y128.149 E4.84718
G1 X99.831 Y127.852 E4.88371
G1 X99.666 Y127.726 E4.89752
G1 X99.321 Y127.448 E4.927
G1 X98.894 Y127.088 E4.96415
G1 X98.419 Y126.614 E5.00879
G1 X98.116 Y126.256 E5.03998
G1 X97.717 Y125.756 E5.08254
G1 X97.352 Y125.21 E5.12623
G1 X97.129 Y124.808 E5.15681
G1 X96.83 Y124.231 E5.20003
G1 X96.576 Y123.619 E5.24411
G1 X96.447 Y123.216 E5.27226
G1 X96.411 Y123.097 E5.28053
G1 X96.262 Y122.576 E5.31658
G1 X96.175 Y122.203 E5.34205
G1 X96.118 Y121.788 E5.36992
G1 X96.044 Y120.901 E5.42913
G1 X96.031 Y120.648 E5.44598
G1 X96.005 Y119.312 E5.53487
G1 X96.006 Y99.847 E6.82968
G1 X96.01 Y99.499 E6.85284
G1 X96.024 Y99.169 E6.87481
G1 X96.072 Y98.604 E6.91253
G1 X96.131 Y98.08 E6.9476
G1 X96.26 Y97.43 E6.99168
G1 X96.389 Y96.978 E7.02295
G1 X96.425 Y96.859 E7.03122
G1 X96.578 Y96.38 E7.06467
G1 X96.782 Y95.866 E7.10146
G1 X96.861 Y95.706 E7.11333
G1 X97.091 Y95.264 E7.14647
G1 X97.353 Y94.789 E7.18256
G1 X97.643 Y94.339 E7.21817
G1 X97.773 Y94.167 E7.23251
G1 X98.05 Y93.822 E7.26194
G1 X98.409 Y93.396 E7.299
G0 F7500 X98.715 Y93.654
G1 F1500 X99.141 Y93.227 E7.33912
G1 X99.588 Y92.85 E7.37802
G1 X99.992 Y92.529 E7.41234
G1 X100.494 Y92.195 E7.45245
G1 X100.884 Y91.98 E7.48208
G1 X101.445 Y91.69 E7.52409
G1 X101.987 Y91.464 E7.56315
G1 X102.505 Y91.298 E7.59933
G1 X103.025 Y91.148 E7.63533
G1 X103.612 Y91.031 E7.67515
G1 X104.22 Y90.962 E7.71585
G1 X104.7 Y90.922 E7.74789
G1 X105.21 Y90.916 E7.78182
G1 X105.372 Y90.927 E7.79262
G1 X105.843 Y90.968 E7.82407
G1 X106.371 Y91.027 E7.85941
G1 X106.964 Y91.145 E7.89963
G1 X107.526 Y91.308 E7.93856
G1 X108.011 Y91.464 E7.97245
G1 X108.431 Y91.629 E8.00247
G1 X108.611 Y91.716 E8.01576
G1 X109.041 Y91.94 E8.04802
G1 X109.506 Y92.196 E8.08333
G1 X109.767 Y92.355 E8.10366
G1 X110.121 Y92.591 E8.13196
G1 X112.396 Y94.068 E8.31239
G1 X114.734 Y95.492 E8.49449
G1 X117.095 Y96.84 E8.67534
G1 X120.432 Y98.602 E8.92636
G1 X120.622 Y98.699 E8.94055
G1 X121.081 Y98.977 E8.97625
G1 X121.493 Y99.32 E9.01191
G1 X121.85 Y99.72 E9.04757
G1 X122.143 Y100.169 E9.08324
G1 X122.367 Y100.657 E9.11896
G1 X122.515 Y101.172 E9.1546
G1 X122.59 Y101.807 E9.19713
G1 X122.6 Y102.23 E9.22528
G1 X122.6 Y117.213 E10.22195
G1 X122.59 Y117.943 E10.27052
G1 X122.542 Y118.478 E10.30625
G1 X122.416 Y118.999 E10.34191
G1 X122.214 Y119.495 E10.37753
G1 X121.94 Y119.957 E10.41326
G1 X121.601 Y120.372 E10.44891
G1 X121.204 Y120.733 E10.4846
G1 X120.663 Y121.082 E10.52743
G1 X120.181 Y121.335 E10.56364
G1 X117.764 Y122.643 E10.74645
G1 X115.43 Y123.995 E10.92588
G1 X113.101 Y125.431 E11.10788
G1 X110.8 Y126.941 E11.29096
G1 X110.136 Y127.4 E11.34466
G1 X109.77 Y127.644 E11.37392
G1 X109.521 Y127.796 E11.39332
G1 X109.125 Y128.016 E11.42346
G1 X108.547 Y128.314 E11.46672
G1 X108.013 Y128.536 E11.50519
G1 X107.495 Y128.702 E11.54137
G1 X106.975 Y128.852 E11.57737
G1 X106.388 Y128.969 E11.61719
G1 X105.781 Y129.038 E11.65782
G1 X105.302 Y129.078 E11.6898
G1 X104.794 Y129.084 E11.72359
G1 X104.628 Y129.073 E11.73466
G1 X104.157 Y129.032 E11.76611
G1 X103.629 Y128.973 E11.80145
G1 X103.036 Y128.855 E11.84167
G1 X102.481 Y128.694 E11.88011
G1 X102.002 Y128.541 E11.91356
G1 X101.551 Y128.363 E11.94581
G1 X101.374 Y128.276 E11.95893
G1 X100.96 Y128.06 E11.98999
G1 X100.486 Y127.799 E12.02599
G1 X100.07 Y127.531 E12.05891
G1 X99.915 Y127.413 E12.07186
G1 X99.651 Y127.202 E12.09435
G1 X99.152 Y126.782 E12.13773
G1 X98.724 Y126.356 E12.1779
G1 X98.421 Y125.998 E12.2091
G1 X98.03 Y125.508 E12.2508
G1 X97.702 Y125.016 E12.29014
G1 X97.426 Y124.516 E12.32813
G1 X97.185 Y124.048 E12.36314
G1 X96.957 Y123.498 E12.40275
G1 X96.828 Y123.095 E12.4309
G1 X96.647 Y122.466 E12.47443
G1 X96.568 Y122.129 E12.49746
G1 X96.516 Y121.754 E12.52264
G1 X96.442 Y120.867 E12.58185
G1 X96.431 Y120.64 E12.59697
G1 X96.405 Y119.312 E12.68533
G1 X96.406 Y99.856 E13.97954
G1 X96.41 Y99.499 E14.00329
G1 X96.422 Y99.202 E14.02307
G1 X96.459 Y98.755 E14.0529
G1 X96.529 Y98.125 E14.09507
G1 X96.644 Y97.54 E14.13473
G1 X96.773 Y97.088 E14.16599
G1 X96.959 Y96.502 E14.20689
G1 X97.143 Y96.039 E14.24003
G1 X97.216 Y95.89 E14.25107
G1 X97.442 Y95.457 E14.28356
G1 X97.704 Y94.982 E14.31965
G1 X97.964 Y94.577 E14.35166
G1 X98.086 Y94.417 E14.36505
G1 X98.356 Y94.08 E14.39377
G1 X98.715 Y93.654 E14.43083
G0 F7500 X99.021 Y93.912
G1 F1500 X99.399 Y93.532 E14.46648
G1 X99.759 Y93.227 E14.49787
G1 X100.241 Y92.843 E14.53886
G1 X100.687 Y92.546 E14.57451
G1 X101.155 Y92.289 E14.61002
G1 X101.628 Y92.045 E14.64543
G1 X102.11 Y91.844 E14.68017
G1 X102.616 Y91.682 E14.71551
G1 X103.136 Y91.532 E14.75151
G1 X103.658 Y91.428 E14.78692
G1 X104.253 Y91.361 E14.82675
G1 X104.733 Y91.321 E14.85879
G1 X105.187 Y91.316 E14.88899
G1 X105.338 Y91.326 E14.89905
G1 X105.798 Y91.366 E14.92977
G1 X106.326 Y91.425 E14.96511
G1 X106.854 Y91.529 E15.00091
G1 X107.307 Y91.659 E15.03226
G1 X107.889 Y91.845 E15.0729
G1 X108.262 Y91.991 E15.09955
G1 X108.427 Y92.071 E15.11174
G1 X108.848 Y92.291 E15.14334
G1 X109.313 Y92.547 E15.17865
G1 X109.545 Y92.687 E15.19668
G1 X109.867 Y92.902 E15.22243
G1 X112.217 Y94.428 E15.40882
G1 X114.522 Y95.831 E15.58832
G1 X116.911 Y97.196 E15.77135
G1 X120.201 Y98.933 E16.01883
G1 X120.441 Y99.055 E16.03674
G1 X120.872 Y99.319 E16.07036
G1 X121.256 Y99.648 E16.104
G1 X121.584 Y100.033 E16.13764
G1 X121.847 Y100.465 E16.17129
G1 X122.039 Y100.933 E16.20494
G1 X122.154 Y101.425 E16.23855
G1 X122.19 Y101.819 E16.26486
G1 X122.2 Y102.23 E16.29221
G1 X122.2 Y117.208 E17.28855
G1 X122.19 Y117.938 E17.33712
G1 X122.143 Y118.441 E17.37072
G1 X122.017 Y118.931 E17.40438
G1 X121.816 Y119.395 E17.43801
G1 X121.545 Y119.821 E17.4716
G1 X121.209 Y120.199 E17.50524
G1 X120.818 Y120.52 E17.53889
G1 X120.477 Y120.727 E17.56543
G1 X120.031 Y120.961 E17.59893
G1 X117.579 Y122.288 E17.7844
G1 X115.241 Y123.642 E17.96412
G1 X112.877 Y125.1 E18.14887
G1 X110.585 Y126.604 E18.33123
G1 X109.914 Y127.068 E18.3855
G1 X109.548 Y127.312 E18.41476
G1 X109.327 Y127.446 E18.43195
G1 X108.837 Y127.717 E18.4692
G1 X108.365 Y127.959 E18.50449
G1 X107.89 Y128.156 E18.53869
G1 X107.384 Y128.318 E18.57403
G1 X106.864 Y128.468 E18.61004
G1 X106.342 Y128.572 E18.64544
G1 X105.747 Y128.639 E18.68527
G1 X105.268 Y128.679 E18.71725
G1 X104.817 Y128.685 E18.74725
G1 X104.662 Y128.674 E18.75759
G1 X104.202 Y128.634 E18.7883
G1 X103.674 Y128.575 E18.82364
G1 X103.146 Y128.471 E18.85944
G1 X102.693 Y128.341 E18.89079
G1 X102.123 Y128.16 E18.93057
G1 X101.723 Y128.002 E18.95918
G1 X101.558 Y127.921 E18.97141
G1 X101.152 Y127.709 E19.00187
G1 X100.678 Y127.448 E19.03787
G1 X100.309 Y127.21 E19.06708
G1 X100.165 Y127.101 E19.07909
G1 X99.836 Y126.837 E19.10715
G1 X99.409 Y126.477 E19.1443
G1 X99.029 Y126.097 E19.18005
G1 X98.662 Y125.661 E19.21796
G1 X98.343 Y125.259 E19.2521
G1 X98.052 Y124.822 E19.28702
G1 X97.782 Y124.333 E19.32418
G1 X97.541 Y123.865 E19.3592
G1 X97.338 Y123.376 E19.39442
G1 X97.18 Y122.877 E19.42924
G1 X97.031 Y122.356 E19.46528
G1 X96.961 Y122.054 E19.4859
G1 X96.915 Y121.721 E19.50827
G1 X96.841 Y120.834 E19.56747
G1 X96.831 Y120.632 E19.58093
G1 X96.805 Y119.312 E19.66875
G1 X96.806 Y99.866 E20.9623
G1 X96.81 Y99.499 E20.98672
G1 X96.821 Y99.235 E21.0043
G1 X96.867 Y98.694 E21.04041
G1 X96.926 Y98.17 E21.07549
G1 X97.029 Y97.65 E21.11075
G1 X97.187 Y97.102 E21.14869
G1 X97.34 Y96.623 E21.18214
G1 X97.503 Y96.212 E21.21155
G1 X97.571 Y96.074 E21.22178
G1 X97.792 Y95.65 E21.25359
G1 X98.054 Y95.175 E21.28968
G1 X98.285 Y94.815 E21.31813
G1 X98.398 Y94.666 E21.33057
G1 X98.662 Y94.338 E21.35858
G1 X99.021 Y93.912 E21.39563
G1 F1500 E14.89563
;MESH:laser-sensor-holder.stl
G0 F7500 X101.904 Y96.404
G0 X105.82 Y97.521
G0 X106.19 Y97.719
G0 X106.515 Y97.985
G0 X106.781 Y98.31
G0 X106.979 Y98.68
G0 X107.101 Y99.083
G0 X107.055 Y101.555
;TYPE:WALL-INNER
G1 F1500 E21.39563
G1 X107.416 Y101.114 E21.43355
G1 X107.685 Y100.613 E21.47137
G1 X107.85 Y100.066 E21.50938
G1 X107.907 Y99.5 E21.54722
G1 X107.85 Y98.934 E21.58506
G1 X107.685 Y98.387 E21.62307
G1 X107.416 Y97.886 E21.66089
G1 X107.055 Y97.445 E21.6988
G1 X106.614 Y97.084 E21.73671
G1 X106.113 Y96.815 E21.77454
G1 X105.566 Y96.65 E21.81255
G1 X105 Y96.593 E21.85039
G1 X104.434 Y96.65 E21.88823
G1 X103.887 Y96.815 E21.92623
G1 X103.386 Y97.084 E21.96406
G1 X102.945 Y97.445 E22.00197
G1 X102.584 Y97.886 E22.03988
G1 X102.315 Y98.387 E22.07771
G1 X102.15 Y98.934 E22.11572
G1 X102.093 Y99.5 E22.15356
G1 X102.15 Y100.066 E22.1914
G1 X102.315 Y100.613 E22.2294
G1 X102.584 Y101.114 E22.26723
G1 X102.945 Y101.555 E22.30514
G1 X103.386 Y101.916 E22.34305
G1 X103.887 Y102.185 E22.38088
G1 X104.434 Y102.35 E22.41888
G1 X105 Y102.407 E22.45673
G1 X105.566 Y102.35 E22.49457
G1 X106.113 Y102.185 E22.53257
G1 X106.614 Y101.916 E22.5704
G1 X107.055 Y101.555 E22.60831
G0 F7500 X106.771 Y101.271
G1 F1500 X107.082 Y100.891 E22.64097
G1 X107.314 Y100.459 E22.67359
G1 X107.456 Y99.988 E22.70632
G1 X107.505 Y99.5 E22.73894
G1 X107.456 Y99.012 E22.77157
G1 X107.314 Y98.541 E22.80429
G1 X107.082 Y98.109 E22.83691
G1 X106.771 Y97.729 E22.86957
G1 X106.391 Y97.418 E22.90224
G1 X105.959 Y97.186 E22.93486
G1 X105.488 Y97.044 E22.96758
G1 X105 Y96.995 E23.00021
G1 X104.512 Y97.044 E23.03283
G1 X104.041 Y97.186 E23.06555
G1 X103.609 Y97.418 E23.09817
G1 X103.229 Y97.729 E23.13084
G1 X102.918 Y98.109 E23.1635
G1 X102.686 Y98.541 E23.19612
G1 X102.544 Y99.012 E23.22884
G1 X102.495 Y99.5 E23.26147
G1 X102.544 Y99.988 E23.29409
G1 X102.686 Y100.459 E23.32682
G1 X102.918 Y100.891 E23.35944
G1 X103.229 Y101.271 E23.3921
G1 X103.609 Y101.582 E23.42477
G1 X104.041 Y101.814 E23.45738
G1 X104.512 Y101.956 E23.49011
G1 X105 Y102.005 E23.52273
G1 X105.488 Y101.956 E23.55536
G1 X105.959 Y101.814 E23.58808
G1 X106.391 Y101.582 E23.6207
G1 X106.771 Y101.271 E23.65336
G0 F7500 X106.487 Y100.987
G1 F1500 X106.748 Y100.668 E23.68078
G1 X106.943 Y100.305 E23.70819
G1 X107.062 Y99.91 E23.73563
G1 X107.103 Y99.5 E23.76304
G1 X107.062 Y99.09 E23.79045
G1 X106.943 Y98.695 E23.8179
G1 X106.748 Y98.332 E23.84531
G1 X106.487 Y98.013 E23.87272
G1 X106.168 Y97.752 E23.90014
G1 X105.805 Y97.557 E23.92755
G1 X105.41 Y97.438 E23.95499
G1 X105 Y97.397 E23.9824
G1 X104.59 Y97.438 E24.00981
G1 X104.195 Y97.557 E24.03725
G1 X103.832 Y97.752 E24.06466
G1 X103.513 Y98.013 E24.09208
G1 X103.252 Y98.332 E24.1195
G1 X103.057 Y98.695 E24.14691
G1 X102.938 Y99.09 E24.17435
G1 X102.897 Y99.5 E24.20176
G1 X102.938 Y99.91 E24.22917
G1 X103.057 Y100.305 E24.25661
G1 X103.252 Y100.668 E24.28402
G1 X103.513 Y100.987 E24.31144
G1 X103.832 Y101.248 E24.33886
G1 X104.195 Y101.443 E24.36627
G1 X104.59 Y101.562 E24.39371
G1 X105 Y101.603 E24.42112
G1 X105.41 Y101.562 E24.44853
G1 X105.805 Y101.443 E24.47597
G1 X106.168 Y101.248 E24.50338
G1 X106.487 Y100.987 E24.5308
G0 F7500 X106.203 Y100.703
;TYPE:WALL-OUTER
G1 F1500 X106.414 Y100.445 E24.55297
G1 X106.572 Y100.151 E24.57517
G1 X106.668 Y99.832 E24.59733
G1 X106.701 Y99.5 E24.61953
G1 X106.668 Y99.168 E24.64172
G1 X106.572 Y98.849 E24.66388
G1 X106.414 Y98.555 E24.68608
G1 X106.203 Y98.297 E24.70825
G1 X105.945 Y98.086 E24.73042
G1 X105.651 Y97.928 E24.75262
G1 X105.332 Y97.832 E24.77478
G1 X105 Y97.799 E24.79698
G1 X104.668 Y97.832 E24.81917
G1 X104.349 Y97.928 E24.84133
G1 X104.055 Y98.086 E24.86353
G1 X103.797 Y98.297 E24.8857
G1 X103.586 Y98.555 E24.90788
G1 X103.428 Y98.849 E24.93008
G1 X103.332 Y99.168 E24.95224
G1 X103.299 Y99.5 E24.97443
G1 X103.332 Y99.832 E24.99663
G1 X103.428 Y100.151 E25.01879
G1 X103.586 Y100.445 E25.04099
G1 X103.797 Y100.703 E25.06316
G1 X104.055 Y100.914 E25.08533
G1 X104.349 Y101.072 E25.10753
G1 X104.668 Y101.168 E25.12969
G1 X105 Y101.201 E25.15188
G1 X105.332 Y101.168 E25.17408
G1 X105.651 Y101.072 E25.19624
G1 X105.945 Y100.914 E25.21844
G1 X106.203 Y100.703 E25.24061
G0 F7500 X106.329 Y100.549
G0 X106.668 Y100.827
G0 X106.714 Y100.866
G0 X102.315 Y121.613
;TYPE:WALL-INNER
G1 F1500 X102.584 Y122.114 E25.27844
G1 X102.945 Y122.555 E25.31635
G1 X103.386 Y122.916 E25.35426
G1 X103.887 Y123.185 E25.39209
G1 X104.434 Y123.35 E25.43009
G1 X105 Y123.407 E25.46793
G1 X105.566 Y123.35 E25.50577
G1 X106.113 Y123.185 E25.54378
G1 X106.614 Y122.916 E25.58161
G1 X107.055 Y122.555 E25.61952
G1 X107.416 Y122.114 E25.65743
G1 X107.685 Y121.613 E25.69526
G1 X107.85 Y121.066 E25.73326
G1 X107.907 Y120.5 E25.7711
G1 X107.85 Y119.934 E25.80894
G1 X107.685 Y119.387 E25.84695
G1 X107.416 Y118.886 E25.88478
G1 X107.055 Y118.445 E25.92269
G1 X106.614 Y118.084 E25.9606
G1 X106.113 Y117.815 E25.99842
G1 X105.566 Y117.65 E26.03643
G1 X105 Y117.593 E26.07427
G1 X104.434 Y117.65 E26.11211
G1 X103.887 Y117.815 E26.15012
G1 X103.386 Y118.084 E26.18794
G1 X102.945 Y118.445 E26.22586
G1 X102.584 Y118.886 E26.26377
G1 X102.315 Y119.387 E26.30159
G1 X102.15 Y119.934 E26.3396
G1 X102.093 Y120.5 E26.37744
G1 X102.15 Y121.066 E26.41528
G1 X102.315 Y121.613 E26.45329
G0 F7500 X102.686 Y121.459
G1 F1500 X102.918 Y121.891 E26.48591
G1 X103.229 Y122.271 E26.51857
G1 X103.609 Y122.582 E26.55123
G1 X104.041 Y122.814 E26.58385
G1 X104.512 Y122.956 E26.61658
G1 X105 Y123.005 E26.6492
G1 X105.488 Y122.956 E26.68183
G1 X105.959 Y122.814 E26.71455
G1 X106.391 Y122.582 E26.74717
G1 X106.771 Y122.271 E26.77983
G1 X107.082 Y121.891 E26.8125
G1 X107.314 Y121.459 E26.84512
G1 X107.456 Y120.988 E26.87784
G1 X107.505 Y120.5 E26.91046
G1 X107.456 Y120.012 E26.94309
G1 X107.314 Y119.541 E26.97581
G1 X107.082 Y119.109 E27.00843
G1 X106.771 Y118.729 E27.0411
