;FLAVOR:Marlin
;TIME:7353
;Filament used: 17.7793m
;Layer height: 0.2
;MINX:19.5
;MINY:44.5
;MINZ:0.3
;MAXX:200.5
;MAXY:175.5
;MAXZ:1.9
;Generated with Cura_SteamEngine 4.8.0
M140 S80
M105
M190 S80
M104 S230
M105
M109 S230
M82 ;absolute extrusion mode
G28 ;Home
G1 Z15.0 F2000 ;Move the platform
G92 E0
G92 E0
G1 F1500 E-6.5
;LAYER_COUNT:9
;LAYER:0
M107
M204 S1000
G0 F7500 X22.51 Y45.11 Z0.3
;TYPE:SKIRT
G1 F1500 E0
G1 X23.118 Y44.844 E0.16555
G1 X23.753 Y44.654 E0.33089
G1 X24.406 Y44.542 E0.49616
G1 X24.855 Y44.511 E0.60843
G1 X25.176 Y44.502 E0.68853
G1 X25.33 Y44.5 E0.72695
G1 X194.293 Y44.5 E42.87494
G1 X195.07 Y44.511 E43.06878
G1 X195.731 Y44.56 E43.23412
G1 X196.381 Y44.689 E43.39943
G1 X197.012 Y44.895 E43.56501
G1 X197.612 Y45.175 E43.73017
G1 X198.175 Y45.526 E43.89567
G1 X198.692 Y45.941 E44.06105
G1 X199.154 Y46.416 E44.22634
G1 X199.557 Y46.943 E44.39183
G1 X199.892 Y47.515 E44.55719
G1 X200.157 Y48.123 E44.72264
G1 X200.347 Y48.758 E44.88798
G1 X200.458 Y49.412 E45.05345
G1 X200.489 Y49.855 E45.16423
G1 X200.498 Y50.175 E45.24408
G1 X200.5 Y50.33 E45.28275
G1 X200.5 Y169.332 E74.96792
G1 X200.491 Y170.059 E75.14929
G1 X200.442 Y170.72 E75.31463
G1 X200.315 Y171.371 E75.48008
G1 X200.11 Y172.002 E75.64558
G1 X199.831 Y172.603 E75.81087
G1 X199.482 Y173.166 E75.9761
G1 X199.067 Y173.684 E76.14167
G1 X198.593 Y174.147 E76.30696
G1 X198.067 Y174.551 E76.47241
G1 X197.496 Y174.888 E76.6378
G1 X196.888 Y175.153 E76.80325
G1 X196.253 Y175.344 E76.96866
G1 X195.6 Y175.457 E77.13397
G1 X195.145 Y175.489 E77.24775
G1 X194.824 Y175.498 E77.32786
G1 X194.67 Y175.5 E77.36628
G1 X25.636 Y175.5 E119.53198
G1 X24.938 Y175.491 E119.70611
G1 X24.277 Y175.442 E119.87145
G1 X23.626 Y175.314 E120.03695
G1 X22.996 Y175.109 E120.20222
G1 X22.394 Y174.83 E120.36773
G1 X21.831 Y174.48 E120.5331
G1 X21.314 Y174.065 E120.69847
G1 X20.851 Y173.591 E120.86376
G1 X20.448 Y173.064 E121.02925
G1 X20.111 Y172.493 E121.19465
G1 X19.846 Y171.886 E121.35987
G1 X19.655 Y171.251 E121.52528
G1 X19.543 Y170.597 E121.69079
G1 X19.511 Y170.14 E121.80507
G1 X19.5 Y169.658 E121.92534
G1 X19.501 Y50.6 E151.62448
G1 X19.51 Y49.935 E151.79038
G1 X19.558 Y49.273 E151.95595
G1 X19.687 Y48.623 E152.12125
G1 X19.892 Y47.992 E152.28675
G1 X20.172 Y47.391 E152.45215
G1 X20.522 Y46.828 E152.61751
G1 X20.937 Y46.312 E152.78269
G1 X21.412 Y45.848 E152.94833
G1 X21.939 Y45.446 E153.11368
G1 X22.51 Y45.11 E153.27894
G0 F7500 X22.89 Y46.039
G1 F1500 X23.436 Y45.793 E153.42833
G1 X24.011 Y45.621 E153.57804
G1 X24.883 Y45.511 E153.79729
G1 X25.33 Y45.5 E153.90883
G1 X194.357 Y45.5 E196.07278
G1 X195.055 Y45.51 E196.24692
G1 X195.653 Y45.559 E196.39659
G1 X196.239 Y45.687 E196.54621
G1 X196.803 Y45.891 E196.69583
G1 X197.334 Y46.168 E196.84522
G1 X197.824 Y46.514 E196.99486
G1 X198.264 Y46.922 E197.14454
G1 X198.646 Y47.384 E197.29408
G1 X198.962 Y47.894 E197.44374
G1 X199.208 Y48.441 E197.59335
G1 X199.38 Y49.015 E197.74283
G1 X199.489 Y49.883 E197.96105
G1 X199.5 Y50.33 E198.07259
G1 X199.5 Y169.32 E227.75477
G1 X199.491 Y170.047 E227.93613
G1 X199.443 Y170.644 E228.08553
G1 X199.317 Y171.231 E228.2353
G1 X199.114 Y171.795 E228.38482
G1 X198.837 Y172.327 E228.53444
G1 X198.492 Y172.818 E228.68414
G1 X198.085 Y173.258 E228.83365
G1 X197.624 Y173.641 E228.98316
G1 X197.115 Y173.958 E229.13274
G1 X196.569 Y174.205 E229.28223
G1 X195.994 Y174.378 E229.43201
G1 X195.117 Y174.489 E229.65253
G1 X194.67 Y174.5 E229.76406
G1 X25.649 Y174.5 E271.92652
G1 X24.951 Y174.491 E272.10066
G1 X24.353 Y174.443 E272.25031
G1 X23.767 Y174.316 E272.39988
G1 X23.203 Y174.113 E272.5494
G1 X22.671 Y173.836 E272.69902
G1 X22.181 Y173.491 E272.84851
G1 X21.74 Y173.084 E272.99821
G1 X21.358 Y172.622 E273.14775
G1 X21.041 Y172.113 E273.29733
G1 X20.794 Y171.566 E273.44705
G1 X20.622 Y170.992 E273.59652
G1 X20.511 Y170.113 E273.81753
G1 X20.5 Y169.658 E273.93106
G1 X20.5 Y50.613 E303.62696
G1 X20.509 Y49.948 E303.79286
G1 X20.557 Y49.35 E303.94251
G1 X20.685 Y48.764 E304.09214
G1 X20.888 Y48.2 E304.24166
G1 X21.166 Y47.669 E304.39118
G1 X21.511 Y47.178 E304.54087
G1 X21.918 Y46.738 E304.69038
G1 X22.381 Y46.356 E304.84011
G1 X22.89 Y46.039 E304.9897
G0 F7500 X23.335 Y46.935
G1 F1500 X23.817 Y46.718 E305.12155
G1 X24.326 Y46.576 E305.25337
G1 X24.911 Y46.51 E305.40023
G1 X25.33 Y46.5 E305.50478
G1 X194.343 Y46.5 E347.66524
G1 X195.041 Y46.51 E347.83938
G1 X195.568 Y46.558 E347.97138
G1 X196.081 Y46.684 E348.10315
G1 X196.57 Y46.886 E348.23513
G1 X197.022 Y47.16 E348.36698
G1 X197.429 Y47.498 E348.49895
G1 X197.779 Y47.894 E348.63079
G1 X198.066 Y48.338 E348.76267
G1 X198.283 Y48.821 E348.89476
G1 X198.424 Y49.33 E349.02651
G1 X198.49 Y49.912 E349.17262
G1 X198.5 Y50.33 E349.27692
G1 X198.5 Y169.307 E378.95585
G1 X198.491 Y170.034 E379.13722
G1 X198.444 Y170.561 E379.2692
G1 X198.319 Y171.075 E379.40116
G1 X198.118 Y171.564 E379.53304
G1 X197.845 Y172.017 E379.66498
G1 X197.507 Y172.424 E379.79695
G1 X197.112 Y172.775 E379.92876
G1 X196.669 Y173.063 E380.06057
G1 X196.187 Y173.28 E380.19243
G1 X195.677 Y173.423 E380.32455
G1 X195.089 Y173.49 E380.47218
G1 X194.67 Y173.5 E380.57673
G1 X25.662 Y173.5 E422.73595
G1 X24.964 Y173.491 E422.91008
G1 X24.437 Y173.444 E423.04206
G1 X23.924 Y173.318 E423.17383
G1 X23.435 Y173.117 E423.30572
G1 X22.982 Y172.844 E423.43765
G1 X22.575 Y172.506 E423.56962
G1 X22.224 Y172.111 E423.70144
G1 X21.936 Y171.667 E423.83345
G1 X21.719 Y171.185 E423.96531
G1 X21.577 Y170.676 E424.09713
G1 X21.51 Y170.086 E424.24525
G1 X21.5 Y169.658 E424.35205
G1 X21.5 Y50.627 E454.04445
G1 X21.509 Y49.962 E454.21035
G1 X21.556 Y49.435 E454.34233
G1 X21.682 Y48.921 E454.47435
G1 X21.884 Y48.433 E454.6061
G1 X22.157 Y47.98 E454.73803
G1 X22.495 Y47.573 E454.87
G1 X22.891 Y47.223 E455.00184
G1 X23.335 Y46.935 E455.13386
G1 F1500 E448.63386
;MESH:main-case-top.stl
G0 F7500 X25.514 Y50.514
G0 X26.652 Y54.972
G0 X26.886 Y55.412
G0 X27.203 Y55.797
G0 X27.514 Y56.053
G0 X28.493 Y56.553
G0 X28.512 Y56.455
;TYPE:WALL-OUTER
G1 F1500 E455.13386
G1 X29 Y56.502 E455.25615
G1 X29.488 Y56.455 E455.37845
G1 X29.957 Y56.312 E455.50076
G1 X30.39 Y56.081 E455.62318
G1 X30.769 Y55.769 E455.74563
G1 X31.081 Y55.39 E455.86809
G1 X31.312 Y54.957 E455.99051
G1 X31.455 Y54.488 E456.11282
G1 X31.502 Y54 E456.23512
G1 X31.455 Y53.512 E456.35741
G1 X31.312 Y53.043 E456.47972
G1 X31.081 Y52.61 E456.60214
G1 X30.769 Y52.231 E456.7246
G1 X30.39 Y51.919 E456.84706
G1 X29.957 Y51.688 E456.96948
G1 X29.488 Y51.545 E457.09179
G1 X29 Y51.498 E457.21408
G1 X28.512 Y51.545 E457.33638
G1 X28.043 Y51.688 E457.45869
G1 X27.61 Y51.919 E457.58111
G1 X27.231 Y52.231 E457.70357
G1 X26.919 Y52.61 E457.82602
G1 X26.688 Y53.043 E457.94844
G1 X26.545 Y53.512 E458.07075
G1 X26.498 Y54 E458.19305
G1 X26.545 Y54.488 E458.31534
G1 X26.688 Y54.957 E458.43765
G1 X26.919 Y55.39 E458.56008
G1 X27.231 Y55.769 E458.68253
G1 X27.61 Y56.081 E458.80499
G1 X28.043 Y56.312 E458.92741
G1 X28.512 Y56.455 E459.04972
G0 F7500 X28.711 Y56.474
G0 X28.605 Y57.569
G1 F1500 E452.54972
G0 F7500 X27.161 Y164.161
G0 X27.231 Y164.231
G1 F1500 E459.04972
G1 X26.919 Y164.61 E459.17218
G1 X26.688 Y165.043 E459.2946
G1 X26.545 Y165.512 E459.41691
G1 X26.498 Y166 E459.5392
G1 X26.545 Y166.488 E459.6615
G1 X26.688 Y166.957 E459.78381
G1 X26.919 Y167.39 E459.90623
G1 X27.231 Y167.769 E460.02869
G1 X27.61 Y168.081 E460.15114
G1 X28.043 Y168.312 E460.27356
G1 X28.512 Y168.455 E460.39587
G1 X29 Y168.502 E460.51817
G1 X29.488 Y168.455 E460.64046
G1 X29.957 Y168.312 E460.76277
G1 X30.39 Y168.081 E460.8852
G1 X30.769 Y167.769 E461.00765
G1 X31.081 Y167.39 E461.13011
G1 X31.312 Y166.957 E461.25253
G1 X31.455 Y166.488 E461.37484
G1 X31.502 Y166 E461.49714
G1 X31.455 Y165.512 E461.61943
G1 X31.312 Y165.043 E461.74174
G1 X31.081 Y164.61 E461.86416
G1 X30.769 Y164.231 E461.98662
G1 X30.39 Y163.919 E462.10907
G1 X29.957 Y163.688 E462.2315
G1 X29.488 Y163.545 E462.35381
G1 X29 Y163.498 E462.4761
G1 X28.512 Y163.545 E462.5984
G1 X28.043 Y163.688 E462.72071
G1 X27.61 Y163.919 E462.84313
G1 X27.231 Y164.231 E462.96558
G0 F7500 X27.104 Y164.385
G1 F1500 E456.46558
G0 F7500 X27.028 Y164.322
G0 X27.588 Y163.886
G0 X28.028 Y163.652
G0 X28.505 Y163.506
G0 X191 Y163.398
G0 X191 Y163.498
G1 F1500 E462.96558
G1 X190.512 Y163.545 E463.08788
G1 X190.043 Y163.688 E463.21019
G1 X189.61 Y163.919 E463.33261
G1 X189.231 Y164.231 E463.45507
G1 X188.919 Y164.61 E463.57752
G1 X188.688 Y165.043 E463.69995
G1 X188.545 Y165.512 E463.82226
G1 X188.498 Y166 E463.94455
G1 X188.545 Y166.488 E464.06685
G1 X188.688 Y166.957 E464.18916
G1 X188.919 Y167.39 E464.31158
G1 X189.231 Y167.769 E464.43403
G1 X189.61 Y168.081 E464.55649
G1 X190.043 Y168.312 E464.67891
G1 X190.512 Y168.455 E464.80122
G1 X191 Y168.502 E464.92352
G1 X191.488 Y168.455 E465.04581
G1 X191.957 Y168.312 E465.16812
G1 X192.39 Y168.081 E465.29054
G1 X192.769 Y167.769 E465.413
G1 X193.081 Y167.39 E465.53546
G1 X193.312 Y166.957 E465.65788
G1 X193.455 Y166.488 E465.78019
G1 X193.502 Y166 E465.90248
G1 X193.455 Y165.512 E466.02478
G1 X193.312 Y165.043 E466.14709
G1 X193.081 Y164.61 E466.26951
G1 X192.769 Y164.231 E466.39197
G1 X192.39 Y163.919 E466.51442
G1 X191.957 Y163.688 E466.63684
G1 X191.488 Y163.545 E466.75915
G1 X191 Y163.498 E466.88145
G0 F7500 X190.801 Y163.517
G0 X190.697 Y162.422
G1 F1500 E460.38145
G0 F7500 X188.596 Y54.995
G0 X188.688 Y54.957
G1 F1500 E466.88145
G1 X188.919 Y55.39 E467.00387
G1 X189.231 Y55.769 E467.12633
G1 X189.61 Y56.081 E467.24878
G1 X190.043 Y56.312 E467.3712
G1 X190.512 Y56.455 E467.49351
G1 X191 Y56.502 E467.61581
G1 X191.488 Y56.455 E467.73811
G1 X191.957 Y56.312 E467.86042
G1 X192.39 Y56.081 E467.98284
G1 X192.769 Y55.769 E468.10529
G1 X193.081 Y55.39 E468.22775
G1 X193.312 Y54.957 E468.35017
G1 X193.455 Y54.488 E468.47248
G1 X193.502 Y54 E468.59478
G1 X193.455 Y53.512 E468.71707
G1 X193.312 Y53.043 E468.83938
G1 X193.081 Y52.61 E468.9618
G1 X192.769 Y52.231 E469.08426
G1 X192.39 Y51.919 E469.20672
G1 X191.957 Y51.688 E469.32914
G1 X191.488 Y51.545 E469.45145
G1 X191 Y51.498 E469.57374
G1 X190.512 Y51.545 E469.69604
G1 X190.043 Y51.688 E469.81835
G1 X189.61 Y51.919 E469.94077
G1 X189.231 Y52.231 E470.06323
G1 X188.919 Y52.61 E470.18568
G1 X188.688 Y53.043 E470.3081
G1 X188.545 Y53.512 E470.43041
G1 X188.498 Y54 E470.55271
G1 X188.545 Y54.488 E470.675
G1 X188.688 Y54.957 E470.79731
G0 F7500 X188.782 Y55.133
G0 X187.809 Y55.651
G1 F1500 E464.29731
G0 F7500 X25.57 Y50.57
G0 X25.5 Y50.5
G1 F1500 E470.79731
G1 X194.5 Y50.5 E512.95453
G1 X194.5 Y169.5 E542.63921
G1 X25.5 Y169.5 E584.79643
G1 X25.5 Y50.5 E614.4811
G0 F7500 X25.7 Y50.5
G0 X25.7 Y50.6
G0 X26.49 Y51.49
;TYPE:SKIN
G1 F1500 X26.574 Y51.49 E614.50205
G1 X26.49 Y51.574 E614.53168
G1 X26.49 Y51.49 E614.55264
G0 F7500 X26.49 Y56.426
G1 F1500 X26.528 Y56.472 E614.56752
G1 X27.057 Y56.908 E614.73853
G1 X27.662 Y57.231 E614.9096
G1 X28.318 Y57.431 E615.08068
G1 X29 Y57.496 E615.25158
G1 X29.682 Y57.431 E615.42247
G1 X30.338 Y57.231 E615.59355
G1 X30.943 Y56.908 E615.76463
G1 X31.472 Y56.472 E615.93563
G1 X31.908 Y55.943 E616.10664
G1 X32.231 Y55.338 E616.27772
G1 X32.431 Y54.682 E616.44879
G1 X32.496 Y54 E616.61969
G1 X32.431 Y53.318 E616.79059
G1 X32.231 Y52.662 E616.96166
G1 X31.908 Y52.057 E617.13274
G1 X31.472 Y51.528 E617.30374
G1 X31.426 Y51.49 E617.31863
G1 X188.574 Y51.49 E656.51936
G1 X188.528 Y51.528 E656.53424
G1 X188.092 Y52.057 E656.70524
G1 X187.769 Y52.662 E656.87632
G1 X187.569 Y53.318 E657.0474
G1 X187.504 Y54 E657.21829
G1 X187.569 Y54.682 E657.38919
G1 X187.769 Y55.338 E657.56027
G1 X188.092 Y55.943 E657.73135
G1 X188.528 Y56.472 E657.90235
G1 X189.057 Y56.908 E658.07335
G1 X189.662 Y57.231 E658.24443
G1 X190.318 Y57.431 E658.41551
G1 X191 Y57.496 E658.58641
G1 X191.682 Y57.431 E658.7573
G1 X192.338 Y57.231 E658.92838
G1 X192.943 Y56.908 E659.09946
G1 X193.472 Y56.472 E659.27046
G1 X193.51 Y56.426 E659.28535
G1 X193.51 Y163.574 E686.01352
G1 X193.472 Y163.528 E686.02841
G1 X192.943 Y163.092 E686.19941
G1 X192.338 Y162.769 E686.37049
G1 X191.682 Y162.569 E686.54156
G1 X191 Y162.504 E686.71246
G1 X190.318 Y162.569 E686.88336
G1 X189.662 Y162.769 E687.05443
G1 X189.057 Y163.092 E687.22551
G1 X188.528 Y163.528 E687.39652
G1 X188.092 Y164.057 E687.56752
G1 X187.769 Y164.662 E687.7386
G1 X187.569 Y165.318 E687.90968
G1 X187.504 Y166 E688.08057
G1 X187.569 Y166.682 E688.25147
G1 X187.769 Y167.338 E688.42255
G1 X188.092 Y167.943 E688.59362
G1 X188.528 Y168.472 E688.76463
G1 X188.574 Y168.51 E688.77951
G1 X31.426 Y168.51 E727.98024
G1 X31.472 Y168.472 E727.99512
G1 X31.908 Y167.943 E728.16613
G1 X32.231 Y167.338 E728.33721
G1 X32.431 Y166.682 E728.50828
G1 X32.496 Y166 E728.67918
G1 X32.431 Y165.318 E728.85008
G1 X32.231 Y164.662 E729.02115
G1 X31.908 Y164.057 E729.19223
G1 X31.472 Y163.528 E729.36323
G1 X30.943 Y163.092 E729.53424
G1 X30.338 Y162.769 E729.70532
G1 X29.682 Y162.569 E729.87639
G1 X29 Y162.504 E730.04729
G1 X28.318 Y162.569 E730.21819
G1 X27.662 Y162.769 E730.38926
G1 X27.057 Y163.092 E730.56034
G1 X26.528 Y163.528 E730.73135
G1 X26.49 Y163.574 E730.74623
G1 X26.49 Y56.426 E757.47441
G1 F1500 E750.97441
G0 F7500 X32.727 Y167.078
G1 F1500 E757.47441
G1 X33.758 Y168.108 E757.83794
G0 F7500 X35.172 Y168.108
G1 F1500 X32.879 Y165.815 E758.64686
G0 F7500 X31.918 Y163.439
G1 F1500 X36.587 Y168.108 E760.29398
G0 F7500 X38.001 Y168.108
G1 F1500 X26.889 Y156.997 E764.21386
G0 F7500 X26.889 Y155.583
G1 F1500 X39.415 Y168.108 E768.63257
G0 F7500 X40.829 Y168.108
G1 F1500 X26.889 Y154.169 E773.5501
G0 F7500 X26.889 Y152.754
G1 F1500 X42.243 Y168.108 E778.96664
G0 F7500 X43.658 Y168.108
G1 F1500 X26.889 Y151.34 E784.88218
G0 F7500 X26.889 Y149.926
G1 F1500 X45.072 Y168.108 E791.29655
G0 F7500 X46.486 Y168.108
G1 F1500 X26.889 Y148.512 E798.20974
G0 F7500 X26.889 Y147.098
G1 F1500 X47.9 Y168.108 E805.62176
G0 F7500 X49.315 Y168.108
G1 F1500 X26.889 Y145.683 E813.53297
G0 F7500 X26.889 Y144.269
G1 F1500 X50.729 Y168.108 E821.94299
G0 F7500 X52.143 Y168.108
G1 F1500 X26.889 Y142.855 E830.85185
G0 F7500 X26.889 Y141.441
G1 F1500 X53.557 Y168.108 E840.25953
G0 F7500 X54.971 Y168.108
G1 F1500 X26.889 Y140.026 E850.16621
G0 F7500 X26.889 Y138.612
G1 F1500 X56.386 Y168.108 E860.5719
G0 F7500 X57.8 Y168.108
G1 F1500 X26.889 Y137.198 E871.47641
G0 F7500 X26.889 Y135.784
G1 F1500 X59.214 Y168.108 E882.87975
G0 F7500 X60.628 Y168.108
G1 F1500 X26.889 Y134.37 E894.78192
G0 F7500 X26.889 Y132.955
G1 F1500 X62.042 Y168.108 E907.18309
G0 F7500 X63.457 Y168.108
G1 F1500 X26.889 Y131.541 E920.08326
G0 F7500 X26.889 Y130.127
G1 F1500 X64.871 Y168.108 E933.48226
G0 F7500 X66.285 Y168.108
G1 F1500 X26.889 Y128.713 E947.38009
G0 F7500 X26.889 Y127.299
G1 F1500 X67.699 Y168.108 E961.77674
G0 F7500 X69.114 Y168.108
G1 F1500 X26.889 Y125.884 E976.67258
G0 F7500 X26.889 Y124.47
G1 F1500 X70.528 Y168.108 E992.06723
G0 F7500 X71.942 Y168.108
G1 F1500 X26.889 Y123.056 E1007.96072
G0 F7500 X26.889 Y121.642
G1 F1500 X73.356 Y168.108 E1024.35303
G0 F7500 X74.77 Y168.108
G1 F1500 X26.889 Y120.227 E1041.24435
G0 F7500 X26.889 Y118.813
G1 F1500 X76.185 Y168.108 E1058.63467
G0 F7500 X77.599 Y168.108
G1 F1500 X26.889 Y117.399 E1076.52381
G0 F7500 X26.889 Y115.985
G1 F1500 X79.013 Y168.108 E1094.91179
G0 F7500 X80.427 Y168.108
G1 F1500 X26.889 Y114.571 E1113.79858
G0 F7500 X26.889 Y113.156
G1 F1500 X81.841 Y168.108 E1133.18439
G0 F7500 X83.256 Y168.108
G1 F1500 X26.889 Y111.742 E1153.06919
G0 F7500 X26.889 Y110.328
G1 F1500 X84.67 Y168.108 E1173.45282
G0 F7500 X86.084 Y168.108
G1 F1500 X26.889 Y108.914 E1194.33528
G0 F7500 X26.889 Y107.5
G1 F1500 X87.498 Y168.108 E1215.71657
G0 F7500 X88.913 Y168.108
G1 F1500 X26.889 Y106.085 E1237.59703
G0 F7500 X26.889 Y104.671
G1 F1500 X90.327 Y168.108 E1259.97632
G0 F7500 X91.741 Y168.108
G1 F1500 X26.889 Y103.257 E1282.85444
G0 F7500 X26.889 Y101.843
G1 F1500 X93.155 Y168.108 E1306.23139
G0 F7500 X94.569 Y168.108
G1 F1500 X26.889 Y100.428 E1330.10733
G0 F7500 X26.889 Y99.014
G1 F1500 X95.984 Y168.108 E1354.48228
G0 F7500 X97.398 Y168.108
G1 F1500 X26.889 Y97.6 E1379.35606
G0 F7500 X26.889 Y96.186
