;FLAVOR:Marlin
;TIME:7311
;Filament used: 5.34644m
;Layer height: 0.2
;MINX:80.2
;MINY:76.989
;MINZ:0.3
;MAXX:139.8
;MAXY:149.25
;MAXZ:39.3
;Generated with Cura_SteamEngine 4.8.0
M140 S80
M105
M190 S80
M104 S230
M105
M109 S230
M82 ;absolute extrusion mode
G28 ;Home
G1 Z15.0 F2000 ;Move the platform
G92 E0
G92 E0
G1 F1500 E-6.5
;LAYER_COUNT:196
;LAYER:0
M107
M204 S1000
G0 F7500 X83.266 Y79.782 Z0.3
;TYPE:SKIRT
G1 F1500 E0
G1 X83.936 Y79.204 E0.08829
G1 X84.655 Y78.688 E0.1766
G1 X85.418 Y78.239 E0.26493
G1 X86.219 Y77.861 E0.35331
G1 X87.05 Y77.557 E0.4416
G1 X87.905 Y77.329 E0.5299
G1 X88.778 Y77.179 E0.61828
G1 X89.994 Y77.102 E0.73986
G1 X91.634 Y77.101 E0.9035
G1 X91.892 Y77.112 E0.92926
G1 X92.359 Y77.101 E0.97587
G1 X110.64 Y77.101 E2.79996
G1 X110.892 Y77.112 E2.82513
G1 X111.36 Y77.101 E2.87184
G1 X130.001 Y77.102 E4.73184
G1 X130.885 Y77.142 E4.82014
G1 X131.762 Y77.262 E4.90846
G1 X132.625 Y77.46 E4.99681
G1 X133.466 Y77.735 E5.0851
G1 X134.279 Y78.086 E5.17346
G1 X135.057 Y78.508 E5.26177
G1 X135.794 Y78.998 E5.35008
G1 X136.483 Y79.553 E5.43836
G1 X137.12 Y80.168 E5.52671
G1 X137.699 Y80.838 E5.61506
G1 X138.214 Y81.558 E5.70339
G1 X138.663 Y82.321 E5.79173
G1 X139.041 Y83.121 E5.88002
G1 X139.346 Y83.952 E5.96834
G1 X139.574 Y84.808 E6.05673
G1 X139.724 Y85.68 E6.14502
G1 X139.8 Y86.902 E6.26718
G1 X139.8 Y87.709 E6.34771
G1 X139.76 Y88.593 E6.436
G1 X139.64 Y89.47 E6.52433
G1 X139.442 Y90.333 E6.61267
G1 X139.167 Y91.174 E6.70096
G1 X138.817 Y91.987 E6.78928
G1 X138.395 Y92.766 E6.87768
G1 X137.904 Y93.502 E6.96596
G1 X137.349 Y94.192 E7.05432
G1 X136.734 Y94.829 E7.14267
G1 X136.064 Y95.407 E7.23096
G1 X135.345 Y95.923 E7.31927
G1 X134.582 Y96.372 E7.4076
G1 X133.781 Y96.75 E7.49598
G1 X132.95 Y97.054 E7.58427
G1 X132.095 Y97.282 E7.67256
G1 X131.222 Y97.432 E7.76095
G1 X130 Y97.509 E7.88312
G1 X90 Y97.509 E11.87434
G1 X89.116 Y97.469 E11.96263
G1 X88.239 Y97.349 E12.05096
G1 X87.376 Y97.151 E12.13931
G1 X86.535 Y96.876 E12.22759
G1 X85.722 Y96.526 E12.31591
G1 X84.943 Y96.104 E12.40431
G1 X84.207 Y95.613 E12.49259
G1 X83.517 Y95.058 E12.58095
G1 X82.88 Y94.443 E12.6693
G1 X82.302 Y93.773 E12.75759
G1 X81.786 Y93.054 E12.8459
G1 X81.337 Y92.291 E12.93423
G1 X80.959 Y91.49 E13.02261
G1 X80.655 Y90.659 E13.1109
G1 X80.427 Y89.804 E13.1992
G1 X80.277 Y88.931 E13.28758
G1 X80.2 Y87.709 E13.40975
G1 X80.2 Y86.902 E13.49028
G1 X80.24 Y86.018 E13.57857
G1 X80.36 Y85.141 E13.6669
G1 X80.558 Y84.278 E13.75524
G1 X80.833 Y83.437 E13.84353
G1 X81.183 Y82.624 E13.93185
G1 X81.605 Y81.845 E14.02025
G1 X82.096 Y81.109 E14.10853
G1 X82.651 Y80.419 E14.19689
G1 X83.266 Y79.782 E14.28524
G0 F7500 X83.659 Y79.963
G1 F1500 X84.325 Y79.408 E14.37174
G1 X85.039 Y78.918 E14.45815
G1 X85.796 Y78.494 E14.54472
G1 X86.589 Y78.143 E14.63125
G1 X87.41 Y77.866 E14.71771
G1 X88.254 Y77.666 E14.80426
G1 X89.112 Y77.544 E14.89073
G1 X89.994 Y77.502 E14.97883
G1 X91.634 Y77.501 E15.14247
G1 X92.067 Y77.52 E15.18572
G1 X92.359 Y77.501 E15.21492
G1 X110.64 Y77.501 E17.039
G1 X111.065 Y77.521 E17.08146
G1 X111.36 Y77.501 E17.11096
G1 X130.001 Y77.502 E18.97097
G1 X130.867 Y77.542 E19.05747
G1 X131.725 Y77.662 E19.14391
G1 X132.569 Y77.86 E19.23041
G1 X133.391 Y78.135 E19.3169
G1 X134.185 Y78.485 E19.40348
G1 X134.942 Y78.906 E19.48991
G1 X135.658 Y79.395 E19.57643
G1 X136.325 Y79.949 E19.66294
G1 X136.939 Y80.561 E19.74944
G1 X137.494 Y81.227 E19.83595
G1 X137.985 Y81.942 E19.92249
G1 X138.408 Y82.699 E20.00902
G1 X138.759 Y83.491 E20.09546
G1 X139.036 Y84.313 E20.18201
G1 X139.236 Y85.156 E20.26846
G1 X139.358 Y86.014 E20.35493
G1 X139.4 Y86.902 E20.44364
G1 X139.4 Y87.709 E20.52416
G1 X139.36 Y88.575 E20.61066
G1 X139.24 Y89.434 E20.69721
G1 X139.042 Y90.278 E20.78371
G1 X138.767 Y91.1 E20.87019
G1 X138.417 Y91.893 E20.95668
G1 X137.996 Y92.651 E21.0432
G1 X137.507 Y93.366 E21.12963
G1 X136.954 Y94.034 E21.21616
G1 X136.341 Y94.648 E21.30273
G1 X135.675 Y95.203 E21.38924
G1 X134.961 Y95.693 E21.47564
G1 X134.204 Y96.117 E21.56222
G1 X133.411 Y96.468 E21.64875
G1 X132.59 Y96.745 E21.73521
G1 X131.746 Y96.945 E21.82175
G1 X130.888 Y97.067 E21.90822
G1 X130 Y97.109 E21.99693
G1 X90 Y97.109 E25.98814
G1 X89.134 Y97.069 E26.07465
G1 X88.275 Y96.949 E26.16119
G1 X87.431 Y96.751 E26.24769
G1 X86.609 Y96.476 E26.33418
G1 X85.816 Y96.126 E26.42067
G1 X85.058 Y95.705 E26.50719
G1 X84.343 Y95.216 E26.59362
G1 X83.675 Y94.663 E26.68015
G1 X83.061 Y94.05 E26.76672
G1 X82.506 Y93.384 E26.85322
G1 X82.016 Y92.67 E26.93963
G1 X81.592 Y91.913 E27.0262
G1 X81.241 Y91.12 E27.11273
G1 X80.964 Y90.299 E27.19919
G1 X80.764 Y89.455 E27.28574
G1 X80.642 Y88.597 E27.37221
G1 X80.6 Y87.709 E27.46091
G1 X80.6 Y86.902 E27.54144
G1 X80.64 Y86.036 E27.62794
G1 X80.76 Y85.177 E27.71448
G1 X80.958 Y84.333 E27.80098
G1 X81.233 Y83.511 E27.88747
G1 X81.583 Y82.718 E27.97396
G1 X82.004 Y81.96 E28.06048
G1 X82.493 Y81.245 E28.14691
G1 X83.046 Y80.577 E28.23344
G1 X83.659 Y79.963 E28.32001
G0 F7500 X84.051 Y80.149
G1 F1500 X84.713 Y79.619 E28.40463
G1 X85.422 Y79.153 E28.48928
G1 X86.172 Y78.757 E28.57391
G1 X86.956 Y78.432 E28.65859
G1 X87.767 Y78.183 E28.74324
G1 X88.598 Y78.012 E28.8279
G1 X89.441 Y77.919 E28.91252
G1 X89.995 Y77.902 E28.96783
G1 X91.635 Y77.901 E29.13147
G1 X92.052 Y77.92 E29.17312
G1 X92.359 Y77.901 E29.20381
G1 X110.64 Y77.901 E31.0279
G1 X111.05 Y77.92 E31.06885
G1 X111.359 Y77.901 E31.09974
G1 X130 Y77.902 E32.95975
G1 X130.848 Y77.942 E33.04445
G1 X131.688 Y78.062 E33.12912
G1 X132.512 Y78.26 E33.21368
G1 X133.315 Y78.535 E33.29837
G1 X134.088 Y78.884 E33.383
G1 X134.825 Y79.305 E33.46769
G1 X135.519 Y79.793 E33.55234
G1 X136.163 Y80.344 E33.63691
G1 X136.754 Y80.953 E33.72159
G1 X137.284 Y81.615 E33.8062
G1 X137.749 Y82.325 E33.89089
G1 X138.146 Y83.075 E33.97556
G1 X138.47 Y83.858 E34.06012
G1 X138.719 Y84.669 E34.14477
G1 X138.89 Y85.5 E34.22942
G1 X138.983 Y86.343 E34.31405
G1 X139 Y86.902 E34.36985
G1 X139 Y87.709 E34.45037
G1 X138.96 Y88.556 E34.53498
G1 X138.84 Y89.396 E34.61965
G1 X138.642 Y90.221 E34.7043
G1 X138.367 Y91.024 E34.78899
G1 X138.018 Y91.797 E34.87362
G1 X137.598 Y92.533 E34.95818
G1 X137.11 Y93.227 E35.04283
G1 X136.559 Y93.872 E35.12747
G1 X135.949 Y94.462 E35.21215
G1 X135.287 Y94.992 E35.29677
G1 X134.578 Y95.458 E35.38143
G1 X133.828 Y95.854 E35.46605
G1 X133.044 Y96.179 E35.55074
G1 X132.233 Y96.428 E35.63539
G1 X131.402 Y96.599 E35.72004
G1 X130.559 Y96.692 E35.80467
G1 X130 Y96.709 E35.86047
G1 X90 Y96.709 E39.85168
G1 X89.153 Y96.669 E39.93629
G1 X88.313 Y96.549 E40.02096
G1 X87.488 Y96.351 E40.10562
G1 X86.685 Y96.076 E40.19031
G1 X85.912 Y95.727 E40.27493
G1 X85.176 Y95.307 E40.35949
G1 X84.482 Y94.819 E40.44414
G1 X83.837 Y94.268 E40.52879
G1 X83.247 Y93.658 E40.61347
G1 X82.717 Y92.996 E40.69808
G1 X82.251 Y92.287 E40.78274
G1 X81.855 Y91.537 E40.86736
G1 X81.53 Y90.753 E40.95205
G1 X81.281 Y89.942 E41.0367
G1 X81.11 Y89.111 E41.12135
G1 X81.017 Y88.268 E41.20598
G1 X81 Y87.709 E41.26178
G1 X81 Y86.902 E41.3423
G1 X81.04 Y86.055 E41.42691
G1 X81.16 Y85.215 E41.51158
G1 X81.358 Y84.39 E41.59623
G1 X81.633 Y83.587 E41.68093
G1 X81.982 Y82.814 E41.76555
G1 X82.402 Y82.078 E41.85011
G1 X82.89 Y81.384 E41.93476
G1 X83.441 Y80.739 E42.01941
G1 X84.051 Y80.149 E42.10408
G0 F7500 X83.836 Y80.905
G1 F1500 X84.442 Y80.339 E42.18682
G1 X85.1 Y79.834 E42.26959
G1 X85.803 Y79.395 E42.35229
G1 X86.546 Y79.026 E42.43506
G1 X87.321 Y78.73 E42.51784
G1 X88.12 Y78.51 E42.60053
G1 X88.937 Y78.368 E42.68327
G1 X89.995 Y78.302 E42.78905
G1 X91.635 Y78.301 E42.95269
G1 X92.035 Y78.32 E42.99264
G1 X92.359 Y78.301 E43.02503
G1 X110.64 Y78.301 E44.84911
G1 X111.033 Y78.32 E44.88837
G1 X111.359 Y78.301 E44.92096
G1 X130 Y78.302 E46.78096
G1 X130.829 Y78.342 E46.86378
G1 X131.649 Y78.462 E46.94647
G1 X132.454 Y78.66 E47.02919
G1 X133.237 Y78.934 E47.11196
G1 X133.989 Y79.283 E47.19468
G1 X134.704 Y79.703 E47.27742
G1 X135.376 Y80.189 E47.36017
G1 X135.997 Y80.738 E47.44288
G1 X136.563 Y81.345 E47.52569
G1 X137.068 Y82.002 E47.60838
G1 X137.507 Y82.706 E47.69116
G1 X137.876 Y83.448 E47.77385
G1 X138.172 Y84.223 E47.85662
G1 X138.392 Y85.022 E47.93932
G1 X138.534 Y85.839 E48.02206
G1 X138.6 Y86.902 E48.12833
G1 X138.6 Y87.709 E48.20885
G1 X138.56 Y88.537 E48.29157
G1 X138.44 Y89.358 E48.37436
G1 X138.242 Y90.163 E48.45707
G1 X137.968 Y90.945 E48.53975
G1 X137.619 Y91.698 E48.62257
G1 X137.199 Y92.413 E48.70531
G1 X136.713 Y93.084 E48.78798
G1 X136.164 Y93.706 E48.87076
G1 X135.558 Y94.272 E48.9535
G1 X134.9 Y94.777 E49.03626
G1 X134.197 Y95.216 E49.11896
G1 X133.454 Y95.585 E49.20173
G1 X132.679 Y95.881 E49.28451
G1 X131.88 Y96.101 E49.3672
G1 X131.063 Y96.243 E49.44995
G1 X130 Y96.309 E49.55622
G1 X90 Y96.309 E53.54743
G1 X89.172 Y96.269 E53.63015
G1 X88.351 Y96.149 E53.71294
G1 X87.546 Y95.951 E53.79566
G1 X86.764 Y95.677 E53.87834
G1 X86.011 Y95.328 E53.96115
G1 X85.296 Y94.908 E54.04389
G1 X84.625 Y94.422 E54.12656
G1 X84.003 Y93.873 E54.20934
G1 X83.437 Y93.267 E54.29208
G1 X82.932 Y92.609 E54.37484
G1 X82.493 Y91.906 E54.45754
G1 X82.124 Y91.163 E54.54032
G1 X81.828 Y90.388 E54.62309
G1 X81.608 Y89.589 E54.70579
G1 X81.466 Y88.772 E54.78853
G1 X81.4 Y87.709 E54.8948
G1 X81.4 Y86.902 E54.97532
G1 X81.44 Y86.074 E55.05804
G1 X81.56 Y85.253 E55.14083
G1 X81.758 Y84.448 E55.22354
G1 X82.032 Y83.666 E55.30622
G1 X82.381 Y82.913 E55.38904
G1 X82.801 Y82.198 E55.47178
G1 X83.287 Y81.527 E55.55445
G1 X83.836 Y80.905 E55.63723
G0 F7500 X84.23 Y81.076
G1 F1500 X84.833 Y80.535 E55.71806
G1 X85.486 Y80.056 E55.79887
G1 X86.183 Y79.645 E55.87961
G1 X86.917 Y79.303 E55.9604
G1 X87.682 Y79.037 E56.04122
G1 X88.469 Y78.846 E56.12203
G1 X89.271 Y78.734 E56.20283
G1 X89.995 Y78.702 E56.27514
G1 X91.635 Y78.701 E56.43878
G1 X92.017 Y78.719 E56.47694
G1 X92.359 Y78.701 E56.51111
G1 X110.64 Y78.701 E58.33519
G1 X111.015 Y78.72 E58.37266
G1 X111.359 Y78.701 E58.40704
G1 X130 Y78.702 E60.26704
G1 X130.809 Y78.742 E60.34786
G1 X131.61 Y78.862 E60.42868
G1 X132.395 Y79.06 E60.50946
G1 X133.157 Y79.334 E60.59026
G1 X133.888 Y79.682 E60.67104
G1 X134.581 Y80.101 E60.75185
G1 X135.229 Y80.586 E60.83261
G1 X135.827 Y81.132 E60.91341
G1 X136.367 Y81.735 E60.99417
G1 X136.846 Y82.388 E61.07498
G1 X137.258 Y83.085 E61.15577
G1 X137.599 Y83.82 E61.23662
G1 X137.866 Y84.584 E61.31737
G1 X138.056 Y85.371 E61.39815
G1 X138.168 Y86.173 E61.47895
G1 X138.2 Y86.902 E61.55176
G1 X138.2 Y87.709 E61.63229
G1 X138.16 Y88.518 E61.71311
G1 X138.04 Y89.319 E61.79392
G1 X137.843 Y90.104 E61.87468
G1 X137.568 Y90.865 E61.95542
G1 X137.22 Y91.596 E62.0362
G1 X136.801 Y92.29 E62.11709
G1 X136.316 Y92.938 E62.19785
G1 X135.77 Y93.535 E62.27858
G1 X135.167 Y94.076 E62.35941
G1 X134.514 Y94.555 E62.44022
G1 X133.817 Y94.966 E62.52096
G1 X133.083 Y95.308 E62.60176
G1 X132.318 Y95.574 E62.68257
G1 X131.531 Y95.765 E62.76338
G1 X130.729 Y95.877 E62.84418
G1 X130 Y95.909 E62.91699
G1 X90 Y95.909 E66.9082
G1 X89.191 Y95.869 E66.98903
G1 X88.39 Y95.749 E67.06984
G1 X87.605 Y95.552 E67.1506
G1 X86.844 Y95.277 E67.23134
G1 X86.113 Y94.929 E67.31212
G1 X85.419 Y94.51 E67.39301
G1 X84.771 Y94.025 E67.47377
G1 X84.174 Y93.479 E67.5545
G1 X83.633 Y92.876 E67.63533
G1 X83.154 Y92.223 E67.71614
G1 X82.743 Y91.526 E67.79687
G1 X82.401 Y90.792 E67.87767
G1 X82.135 Y90.027 E67.95849
G1 X81.944 Y89.24 E68.03929
G1 X81.832 Y88.438 E68.1201
G1 X81.8 Y87.709 E68.19291
G1 X81.8 Y86.902 E68.27343
G1 X81.84 Y86.093 E68.35425
G1 X81.96 Y85.292 E68.43507
G1 X82.157 Y84.507 E68.51582
G1 X82.432 Y83.746 E68.59656
G1 X82.78 Y83.015 E68.67734
G1 X83.199 Y82.321 E68.75823
G1 X83.684 Y81.673 E68.839
G1 X84.23 Y81.076 E68.91972
G0 F7500 X84.623 Y81.251
G1 F1500 X85.222 Y80.736 E68.99854
G1 X85.87 Y80.285 E69.07732
G1 X86.561 Y79.901 E69.1562
G1 X87.286 Y79.589 E69.23495
G1 X88.039 Y79.352 E69.31372
G1 X88.813 Y79.193 E69.39256
G1 X89.598 Y79.112 E69.47131
G1 X89.995 Y79.102 E69.51093
G1 X91.635 Y79.101 E69.67457
G1 X91.991 Y79.119 E69.71014
G1 X92.359 Y79.101 E69.7469
G1 X110.64 Y79.101 E71.57099
G1 X110.989 Y79.119 E71.60586
G1 X111.359 Y79.101 E71.64282
G1 X130 Y79.102 E73.50283
G1 X130.789 Y79.142 E73.58165
G1 X131.57 Y79.262 E73.6605
G1 X132.334 Y79.459 E73.73922
G1 X133.075 Y79.734 E73.81809
G1 X133.784 Y80.081 E73.89685
G1 X134.454 Y80.499 E73.97565
G1 X135.079 Y80.982 E74.05446
G1 X135.651 Y81.526 E74.13323
G1 X136.166 Y82.125 E74.21205
G1 X136.617 Y82.773 E74.29083
G1 X137.001 Y83.463 E74.36962
G1 X137.313 Y84.188 E74.44837
G1 X137.55 Y84.942 E74.52724
G1 X137.709 Y85.715 E74.60598
G1 X137.79 Y86.501 E74.68482
G1 X137.8 Y86.902 E74.72485
G1 X137.8 Y87.709 E74.80537
G1 X137.76 Y88.498 E74.8842
G1 X137.641 Y89.278 E74.96293
G1 X137.443 Y90.043 E75.04178
G1 X137.169 Y90.783 E75.12051
G1 X136.821 Y91.492 E75.19932
G1 X136.403 Y92.163 E75.2782
G1 X135.92 Y92.787 E75.35694
G1 X135.377 Y93.36 E75.4357
G1 X134.778 Y93.875 E75.51453
G1 X134.13 Y94.326 E75.5933
G1 X133.439 Y94.71 E75.67218
G1 X132.714 Y95.022 E75.75094
G1 X131.961 Y95.259 E75.8297
G1 X131.187 Y95.418 E75.90855
G1 X130.402 Y95.499 E75.98729
G1 X130 Y95.509 E76.02741
G1 X90 Y95.509 E80.01863
G1 X89.211 Y95.469 E80.09746
G1 X88.431 Y95.35 E80.17619
G1 X87.666 Y95.152 E80.25504
G1 X86.926 Y94.878 E80.33377
G1 X86.217 Y94.53 E80.41258
G1 X85.546 Y94.112 E80.49146
G1 X84.922 Y93.629 E80.5702
G1 X84.349 Y93.086 E80.64896
G1 X83.834 Y92.487 E80.72779
G1 X83.383 Y91.839 E80.80656
G1 X82.999 Y91.148 E80.88544
G1 X82.687 Y90.423 E80.9642
G1 X82.45 Y89.67 E81.04296
G1 X82.291 Y88.896 E81.12181
G1 X82.21 Y88.111 E81.20055
G1 X82.2 Y87.709 E81.24068
G1 X82.2 Y86.902 E81.3212
G1 X82.24 Y86.113 E81.40003
G1 X82.359 Y85.333 E81.47875
G1 X82.557 Y84.568 E81.5576
G1 X82.831 Y83.828 E81.63634
G1 X83.179 Y83.119 E81.71515
G1 X83.597 Y82.448 E81.79403
G1 X84.08 Y81.824 E81.87276
G1 X84.623 Y81.251 E81.95153
G0 F7500 X85.016 Y81.432
G1 F1500 X85.611 Y80.944 E82.02831
G1 X86.253 Y80.521 E82.10503
G1 X86.936 Y80.166 E82.18183
G1 X87.651 Y79.885 E82.25849
G1 X88.393 Y79.679 E82.33533
G1 X89.151 Y79.551 E82.41203
G1 X89.995 Y79.502 E82.49639
G1 X91.635 Y79.501 E82.66003
G1 X91.961 Y79.518 E82.6926
G1 X92.359 Y79.501 E82.73235
G1 X110.64 Y79.501 E84.55643
G1 X110.963 Y79.518 E84.58871
G1 X111.359 Y79.501 E84.62826
G1 X130 Y79.502 E86.48826
G1 X130.769 Y79.542 E86.5651
G1 X131.528 Y79.662 E86.64177
G1 X132.272 Y79.859 E86.71857
G1 X132.99 Y80.133 E86.79525
G1 X133.677 Y80.48 E86.87205
G1 X134.324 Y80.896 E86.9488
G1 X134.924 Y81.378 E87.02559
G1 X135.47 Y81.919 E87.10229
G1 X135.958 Y82.513 E87.17899
G1 X136.381 Y83.155 E87.25571
G1 X136.736 Y83.838 E87.33251
G1 X137.018 Y84.554 E87.4093
G1 X137.223 Y85.295 E87.48601
G1 X137.351 Y86.053 E87.56271
G1 X137.4 Y86.902 E87.64757
G1 X137.4 Y87.709 E87.72809
G1 X137.36 Y88.477 E87.80483
G1 X137.241 Y89.237 E87.88158
G1 X137.043 Y89.98 E87.95831
G1 X136.769 Y90.699 E88.03508
G1 X136.422 Y91.385 E88.11179
G1 X136.006 Y92.032 E88.18854
G1 X135.525 Y92.632 E88.26527
G1 X134.984 Y93.179 E88.34204
G1 X134.389 Y93.667 E88.41882
G1 X133.747 Y94.09 E88.49554
G1 X133.064 Y94.445 E88.57234
G1 X132.349 Y94.726 E88.649
G1 X131.607 Y94.932 E88.72583
G1 X130.849 Y95.06 E88.80254
G1 X130 Y95.109 E88.88739
G1 X90 Y95.109 E92.87861
G1 X89.232 Y95.069 E92.95534
G1 X88.472 Y94.95 E93.0321
G1 X87.729 Y94.752 E93.10883
G1 X87.01 Y94.478 E93.1856
G1 X86.324 Y94.131 E93.26231
G1 X85.677 Y93.715 E93.33906
G1 X85.077 Y93.234 E93.41579
G1 X84.53 Y92.693 E93.49256
G1 X84.042 Y92.098 E93.56934
G1 X83.619 Y91.456 E93.64605
G1 X83.264 Y90.773 E93.72286
G1 X82.983 Y90.058 E93.79951
G1 X82.777 Y89.316 E93.87635
G1 X82.649 Y88.558 E93.95306
G1 X82.6 Y87.709 E94.03791
G1 X82.6 Y86.902 E94.11843
G1 X82.64 Y86.134 E94.19517
G1 X82.759 Y85.374 E94.27193
G1 X82.957 Y84.631 E94.34865
G1 X83.231 Y83.912 E94.42542
G1 X83.578 Y83.226 E94.50213
G1 X83.994 Y82.579 E94.57888
G1 X84.475 Y81.979 E94.65561
G1 X85.016 Y81.432 E94.73238
G0 F7500 X85.408 Y81.618
G1 F1500 X85.998 Y81.159 E94.80697
G1 X86.634 Y80.764 E94.88167
G1 X87.308 Y80.44 E94.95629
G1 X88.013 Y80.19 E95.03093
G1 X88.741 Y80.016 E95.10561
G1 X89.483 Y79.921 E95.18025
