;FLAVOR:Marlin
;TIME:6283
;Filament used: 11.8919m
;Layer height: 0.2
;MINX:31.134
;MINY:17.472
;MINZ:0.3
;MAXX:188.147
;MAXY:201.31
;MAXZ:1.9
;Generated with Cura_SteamEngine 4.8.0
M140 S80
M105
M190 S80
M104 S230
M105
M109 S230
M82 ;absolute extrusion mode
G28 ;Home
G1 Z15.0 F2000 ;Move the platform
G92 E0
G92 E0
G1 F1500 E-6.5
;LAYER_COUNT:9
;LAYER:0
M107
M204 S1000
G0 F7500 X63.215 Y50.466 Z0.3
;TYPE:SKIRT
G1 F1500 E0
G1 X63.63 Y49.989 E0.12617
G1 X64.102 Y49.569 E0.25226
G1 X64.623 Y49.211 E0.37841
G1 X65.185 Y48.922 E0.50452
G1 X65.823 Y48.694 E0.63973
G1 X66.588 Y48.478 E0.79836
G1 X181.273 Y17.789 E24.49024
G1 X181.934 Y17.623 E24.62625
G1 X182.556 Y17.508 E24.75248
G1 X183.187 Y17.472 E24.87861
G1 X183.817 Y17.516 E25.00464
G1 X184.437 Y17.64 E25.13081
G1 X185.037 Y17.841 E25.25709
G1 X185.606 Y18.116 E25.38321
G1 X186.136 Y18.46 E25.5093
G1 X186.618 Y18.869 E25.63545
G1 X187.045 Y19.335 E25.76158
G1 X187.41 Y19.851 E25.88771
G1 X187.707 Y20.409 E26.01386
G1 X187.931 Y21.001 E26.14017
G1 X188.078 Y21.615 E26.26617
G1 X188.147 Y22.244 E26.39244
G1 X188.136 Y22.876 E26.51859
G1 X187.997 Y23.706 E26.68653
G1 X187.805 Y24.461 E26.84199
G1 X177.033 Y64.661 E35.14736
G1 X176.839 Y65.346 E35.28943
G1 X176.628 Y65.943 E35.41579
G1 X176.412 Y66.388 E35.51451
G1 X175.845 Y67.422 E35.74984
G1 X174.542 Y69.877 E36.30449
G1 X173.361 Y72.26 E36.83524
G1 X172.233 Y74.711 E37.37368
G1 X171.191 Y77.155 E37.90388
G1 X170.2 Y79.673 E38.44389
G1 X169.282 Y82.215 E38.98324
G1 X168.44 Y84.77 E39.52009
G1 X167.68 Y87.316 E40.05033
G1 X166.981 Y89.927 E40.58973
G1 X166.349 Y92.576 E41.13321
G1 X165.811 Y95.173 E41.66247
G1 X165.338 Y97.812 E42.1975
G1 X164.939 Y100.481 E42.73605
G1 X164.618 Y103.136 E43.26974
G1 X164.371 Y105.817 E43.80703
G1 X164.198 Y108.504 E44.34436
G1 X164.101 Y111.255 E44.89369
G1 X164.085 Y112.349 E45.11204
G1 X164.075 Y112.602 E45.16256
G1 X163.953 Y113.43 E45.32958
G1 X163.845 Y113.883 E45.42252
G1 X141.573 Y196.996 E62.59381
G1 X141.381 Y197.674 E62.73443
G1 X141.17 Y198.27 E62.86061
G1 X140.887 Y198.835 E62.98671
G1 X140.534 Y199.36 E63.11296
G1 X140.117 Y199.836 E63.23925
G1 X139.645 Y200.255 E63.3652
G1 X139.122 Y200.611 E63.49145
G1 X138.56 Y200.899 E63.61748
G1 X137.965 Y201.113 E63.74366
G1 X137.348 Y201.251 E63.86983
G1 X136.719 Y201.31 E63.99591
G1 X136.087 Y201.289 E64.1221
G1 X135.404 Y201.174 E64.26032
G1 X134.905 Y201.053 E64.36279
G1 X35.418 Y174.394 E84.91693
G1 X34.778 Y174.214 E85.04961
G1 X34.182 Y174.005 E85.17565
G1 X33.616 Y173.722 E85.30193
G1 X33.091 Y173.37 E85.42807
G1 X32.615 Y172.955 E85.55409
G1 X32.195 Y172.483 E85.68018
G1 X31.837 Y171.961 E85.80649
G1 X31.548 Y171.399 E85.93261
G1 X31.333 Y170.805 E86.05867
G1 X31.194 Y170.188 E86.18489
G1 X31.134 Y169.559 E86.31098
G1 X31.155 Y168.927 E86.43717
G1 X31.267 Y168.247 E86.5747
G1 X31.376 Y167.795 E86.66749
G1 X62.191 Y52.794 E110.42679
G1 X62.371 Y52.153 E110.55966
G1 X62.58 Y51.557 E110.68569
G1 X62.863 Y50.991 E110.81198
G1 X63.215 Y50.466 E110.93812
G0 F7500 X63.94 Y50.838
G1 F1500 X64.338 Y50.417 E111.05373
G1 X64.79 Y50.055 E111.1693
G1 X65.287 Y49.758 E111.28484
G1 X66.041 Y49.464 E111.44634
G1 X66.795 Y49.251 E111.6027
G1 X181.468 Y18.564 E135.29216
G1 X182.129 Y18.398 E135.42817
G1 X182.699 Y18.296 E135.54373
G1 X183.278 Y18.274 E135.65935
G1 X183.855 Y18.331 E135.77506
G1 X184.418 Y18.467 E135.89065
G1 X184.957 Y18.68 E136.0063
G1 X185.461 Y18.964 E136.12175
G1 X185.922 Y19.315 E136.23738
G1 X186.33 Y19.726 E136.35295
G1 X186.678 Y20.19 E136.4687
G1 X186.958 Y20.697 E136.58428
G1 X187.166 Y21.237 E136.69976
G1 X187.298 Y21.801 E136.81535
G1 X187.351 Y22.378 E136.93098
G1 X187.324 Y22.957 E137.04665
G1 X187.222 Y23.509 E137.15868
G1 X187.032 Y24.254 E137.31211
G1 X176.263 Y64.443 E145.6152
G1 X176.069 Y65.128 E145.75727
G1 X175.873 Y65.674 E145.87304
G1 X175.711 Y66.004 E145.9464
G1 X175.111 Y67.098 E146.1954
G1 X173.834 Y69.504 E146.73898
G1 X172.64 Y71.914 E147.27571
G1 X171.5 Y74.391 E147.81987
G1 X170.445 Y76.864 E148.35641
G1 X169.45 Y79.393 E148.89876
G1 X168.528 Y81.945 E149.44025
G1 X167.686 Y84.501 E149.9773
G1 X166.903 Y87.123 E150.52338
G1 X166.199 Y89.753 E151.0667
G1 X165.576 Y92.365 E151.60257
G1 X165.021 Y95.041 E152.14796
G1 X164.551 Y97.667 E152.68034
G1 X164.146 Y100.37 E153.22577
G1 X163.82 Y103.074 E153.76929
G1 X163.572 Y105.762 E154.30799
G1 X163.399 Y108.46 E154.84751
G1 X163.304 Y111.141 E155.38287
G1 X163.286 Y112.337 E155.62157
G1 X163.277 Y112.552 E155.66451
G1 X163.174 Y113.247 E155.80472
G1 X163.072 Y113.676 E155.89272
G1 X140.803 Y196.778 E173.06174
G1 X140.611 Y197.456 E173.20236
G1 X140.415 Y198.002 E173.31813
G1 X140.146 Y198.515 E173.43372
G1 X139.809 Y198.986 E173.5493
G1 X139.41 Y199.406 E173.66491
G1 X138.958 Y199.767 E173.78035
G1 X138.459 Y200.063 E173.89613
G1 X137.925 Y200.287 E174.01169
G1 X137.365 Y200.436 E174.12733
G1 X136.79 Y200.506 E174.24293
G1 X136.211 Y200.497 E174.35849
G1 X135.59 Y200.396 E174.48404
G1 X135.112 Y200.28 E174.5822
G1 X35.635 Y173.624 E195.13427
G1 X34.995 Y173.444 E195.26694
G1 X34.449 Y173.249 E195.38264
G1 X33.936 Y172.981 E195.49815
G1 X33.464 Y172.645 E195.61377
G1 X33.043 Y172.247 E195.72938
G1 X32.681 Y171.795 E195.84495
G1 X32.384 Y171.297 E195.96066
G1 X32.159 Y170.763 E196.0763
G1 X32.009 Y170.204 E196.1918
G1 X31.938 Y169.629 E196.30742
G1 X31.947 Y169.05 E196.42298
G1 X32.045 Y168.432 E196.54785
G1 X32.119 Y168.12 E196.61184
G1 X32.149 Y168.002 E196.63613
G1 X62.961 Y53.011 E220.39335
G1 X63.141 Y52.37 E220.52622
G1 X63.336 Y51.824 E220.64192
G1 X63.604 Y51.31 E220.7576
G1 X63.94 Y50.838 E220.87322
G0 F7500 X64.342 Y51.64
G1 F1500 X64.661 Y51.227 E220.97736
G1 X65.038 Y50.868 E221.08125
G1 X65.467 Y50.571 E221.18538
G1 X65.935 Y50.343 E221.28926
G1 X66.259 Y50.234 E221.35748
G1 X67.002 Y50.024 E221.51157
G1 X181.663 Y19.34 E245.19856
G1 X182.324 Y19.174 E245.33457
G1 X182.838 Y19.087 E245.4386
G1 X183.359 Y19.078 E245.54259
G1 X183.875 Y19.15 E245.64656
G1 X184.374 Y19.299 E245.75048
G1 X184.845 Y19.523 E245.85457
G1 X185.275 Y19.817 E245.95852
G1 X185.656 Y20.172 E246.06244
G1 X185.978 Y20.582 E246.16648
G1 X186.234 Y21.036 E246.27049
G1 X186.417 Y21.524 E246.3745
G1 X186.524 Y22.034 E246.47849
G1 X186.551 Y22.555 E246.5826
G1 X186.447 Y23.311 E246.73489
G1 X186.259 Y24.047 E246.88648
G1 X175.493 Y64.225 E255.18729
G1 X175.299 Y64.91 E255.32937
G1 X175.009 Y65.619 E255.48224
G1 X174.409 Y66.713 E255.73123
G1 X173.126 Y69.132 E256.27767
G1 X171.932 Y71.54 E256.81404
G1 X170.773 Y74.058 E257.36721
G1 X169.696 Y76.585 E257.91539
G1 X168.701 Y79.113 E258.45755
G1 X167.768 Y81.697 E259.0058
G1 X166.922 Y84.265 E259.54537
G1 X166.133 Y86.908 E260.09581
G1 X165.428 Y89.538 E260.63918
G1 X164.788 Y92.22 E261.18943
G1 X164.243 Y94.852 E261.72582
G1 X163.755 Y97.58 E262.27886
G1 X163.358 Y100.229 E262.8134
G1 X163.027 Y102.973 E263.36496
G1 X162.774 Y105.71 E263.91349
G1 X162.6 Y108.417 E264.45482
G1 X162.504 Y111.129 E264.99637
G1 X162.486 Y112.325 E265.23507
G1 X162.478 Y112.502 E265.27043
G1 X162.395 Y113.065 E265.38399
G1 X162.299 Y113.469 E265.46686
G1 X140.033 Y196.56 E282.6336
G1 X139.841 Y197.238 E282.77422
G1 X139.661 Y197.727 E282.87821
G1 X139.409 Y198.183 E282.98218
G1 X139.089 Y198.595 E283.08629
G1 X138.711 Y198.953 E283.19018
G1 X138.282 Y199.25 E283.29431
G1 X137.813 Y199.477 E283.39829
G1 X137.315 Y199.629 E283.5022
G1 X136.799 Y199.704 E283.60625
G1 X136.278 Y199.699 E283.71023
G1 X135.777 Y199.618 E283.81151
G1 X135.319 Y199.507 E283.90555
G1 X35.851 Y172.854 E304.45573
G1 X35.211 Y172.674 E304.5884
G1 X34.722 Y172.495 E304.69232
G1 X34.266 Y172.243 E304.79629
G1 X33.853 Y171.924 E304.90043
G1 X33.494 Y171.547 E305.00432
G1 X33.198 Y171.118 E305.10833
G1 X32.97 Y170.65 E305.21222
G1 X32.816 Y170.152 E305.31625
G1 X32.74 Y169.636 E305.42033
G1 X32.744 Y169.115 E305.5243
G1 X32.824 Y168.616 E305.62516
G1 X32.922 Y168.209 E305.7087
G1 X63.732 Y53.227 E329.46408
G1 X63.912 Y52.586 E329.59695
G1 X64.091 Y52.096 E329.70105
G1 X64.342 Y51.64 E329.80492
G1 F1500 E323.30492
;MESH:main-case-left.stl
G0 F7500 X67.519 Y53.836
G0 X71.889 Y56.746
G0 X71.814 Y56.811
;TYPE:WALL-OUTER
G1 F1500 E329.80492
G1 X71.469 Y56.489 E329.8991
G1 X71.07 Y56.24 E329.99296
G1 X70.629 Y56.075 E330.08692
G1 X70.165 Y55.998 E330.18079
G1 X69.694 Y56.014 E330.27483
G1 X69.236 Y56.12 E330.36865
G1 X68.807 Y56.315 E330.46269
G1 X68.424 Y56.589 E330.55667
G1 X68.102 Y56.933 E330.6507
G1 X67.854 Y57.332 E330.74445
G1 X67.688 Y57.773 E330.83848
G1 X67.611 Y58.238 E330.93254
G1 X67.627 Y58.709 E331.02659
G1 X67.733 Y59.167 E331.12041
G1 X67.928 Y59.596 E331.21445
G1 X68.202 Y59.979 E331.30842
G1 X68.545 Y60.301 E331.40231
G1 X68.945 Y60.55 E331.49634
G1 X69.386 Y60.715 E331.5903
G1 X69.851 Y60.792 E331.68436
G1 X70.322 Y60.776 E331.77841
G1 X70.78 Y60.67 E331.87222
G1 X71.209 Y60.475 E331.96626
G1 X71.592 Y60.201 E332.06024
G1 X71.914 Y59.858 E332.15413
G1 X72.163 Y59.458 E332.24815
G1 X72.328 Y59.017 E332.34212
G1 X72.405 Y58.552 E332.43618
G1 X72.389 Y58.081 E332.53022
G1 X72.283 Y57.623 E332.62404
G1 X72.088 Y57.194 E332.71808
G1 X71.814 Y56.811 E332.81206
G0 F7500 X71.668 Y56.675
G0 X72.27 Y56.031
G1 F1500 E326.31206
G0 F7500 X110.209 Y144.841
G0 X110.157 Y144.926
G1 F1500 E332.81206
G1 X109.747 Y144.727 E332.90301
G1 X109.305 Y144.608 E332.99435
G1 X108.848 Y144.575 E333.08579
G1 X108.394 Y144.629 E333.17703
G1 X107.959 Y144.77 E333.26828
G1 X107.559 Y144.988 E333.35919
G1 X107.206 Y145.28 E333.45062
G1 X106.915 Y145.633 E333.54191
G1 X106.696 Y146.034 E333.63309
G1 X106.556 Y146.47 E333.72448
G1 X106.502 Y146.925 E333.81591
G1 X106.535 Y147.38 E333.90695
G1 X106.652 Y147.822 E333.9982
G1 X106.852 Y148.234 E334.08959
G1 X107.126 Y148.6 E334.18083
G1 X107.464 Y148.908 E334.27208
G1 X107.855 Y149.145 E334.36333
G1 X108.283 Y149.305 E334.45451
G1 X108.733 Y149.381 E334.54559
G1 X109.191 Y149.37 E334.63701
G1 X109.637 Y149.273 E334.7281
G1 X110.058 Y149.092 E334.81955
G1 X110.436 Y148.836 E334.91065
G1 X110.759 Y148.513 E335.00181
G1 X111.016 Y148.134 E335.09319
G1 X111.196 Y147.713 E335.18457
G1 X111.293 Y147.266 E335.27585
G1 X111.304 Y146.808 E335.36727
G1 X111.228 Y146.358 E335.45834
G1 X111.069 Y145.93 E335.54946
G1 X110.831 Y145.539 E335.64081
G1 X110.523 Y145.2 E335.73221
G1 X110.157 Y144.926 E335.82345
G0 F7500 X109.977 Y144.839
G0 X110.362 Y144.047
G1 F1500 E329.32345
G0 F7500 X111.266 Y146.348
G0 X111.343 Y146.806
G0 X111.332 Y147.27
G0 X111.234 Y147.725
G0 X111.051 Y148.153
G0 X110.789 Y148.538
G0 X107.043 Y152.928
G0 X105.114 Y155.228
G0 X103.569 Y158.062
G0 X102.773 Y160.551
G0 X99.327 Y173.589
G0 X99.409 Y173.645
G1 F1500 E335.82345
G1 X99.19 Y174.046 E335.91463
G1 X99.05 Y174.482 E336.00601
G1 X98.996 Y174.937 E336.09745
G1 X99.029 Y175.392 E336.18849
G1 X99.146 Y175.834 E336.27973
G1 X99.347 Y176.246 E336.37122
G1 X99.62 Y176.611 E336.46218
G1 X99.958 Y176.919 E336.55343
G1 X100.349 Y177.157 E336.64478
G1 X100.777 Y177.317 E336.73596
G1 X101.227 Y177.393 E336.82704
G1 X101.685 Y177.382 E336.91846
G1 X102.131 Y177.285 E337.00955
G1 X102.552 Y177.104 E337.101
G1 X102.93 Y176.848 E337.1921
G1 X103.253 Y176.525 E337.28326
G1 X103.51 Y176.146 E337.37464
G1 X103.69 Y175.725 E337.46602
G1 X103.787 Y175.278 E337.5573
G1 X103.798 Y174.82 E337.64872
G1 X103.722 Y174.369 E337.73999
G1 X103.562 Y173.941 E337.83118
G1 X103.325 Y173.55 E337.92242
G1 X103.017 Y173.212 E338.01368
G1 X102.651 Y172.938 E338.10492
G1 X102.241 Y172.739 E338.19586
G1 X101.799 Y172.62 E338.28721
G1 X101.343 Y172.587 E338.37845
G1 X100.89 Y172.641 E338.46949
G1 X100.454 Y172.781 E338.56087
G1 X100.052 Y173 E338.65223
G1 X99.7 Y173.292 E338.7435
G1 X99.409 Y173.645 E338.83479
G0 F7500 X99.313 Y173.82
G0 X98.541 Y173.398
G1 F1500 E332.33479
G0 F7500 X103.209 Y170.697
G0 X103.302 Y170.663
G1 F1500 E338.83479
G1 X104.707 Y173.559 E339.47714
G1 X106.634 Y176.136 E340.11929
G1 X109.014 Y178.302 E340.76149
G1 X111.76 Y179.977 E341.40339
G1 X114.774 Y181.102 E342.0454
G1 X117.946 Y181.635 E342.68728
G1 X121.163 Y181.557 E343.32945
G1 X124.307 Y180.872 E343.97159
G1 X127.265 Y179.604 E344.61384
G1 X129.929 Y177.798 E345.25612
G1 X132.204 Y175.521 E345.89846
G1 X134.009 Y172.854 E346.54112
G1 X135.276 Y169.892 E347.18403
G1 X135.96 Y166.746 E347.82652
G1 X136.038 Y163.526 E348.46929
G1 X135.505 Y160.351 E349.11176
G1 X134.382 Y157.335 E349.75401
G1 X132.708 Y154.585 E350.39648
G1 X130.544 Y152.204 E351.03856
G1 X127.97 Y150.274 E351.68059
G1 X125.076 Y148.869 E352.32258
G1 X121.97 Y148.036 E352.96432
G1 X118.76 Y147.806 E353.60655
G1 X115.566 Y148.189 E354.24851
G1 X112.502 Y149.172 E354.89067
G1 X109.678 Y150.715 E355.53286
G1 X107.196 Y152.766 E356.1754
G1 X105.147 Y155.25 E356.81799
G1 X103.605 Y158.077 E357.46062
G1 X102.624 Y161.144 E358.10322
G1 X102.241 Y164.341 E358.74578
G1 X102.471 Y167.554 E359.38861
G1 X103.302 Y170.663 E360.03082
G0 F7500 X103.389 Y170.842
G0 X102.597 Y171.226
G1 F1500 E353.53082
G0 F7500 X106.605 Y176.162
G0 X108.991 Y178.334
G0 X111.743 Y180.012
G0 X114.764 Y181.14
G0 X128.779 Y184.861
G0 X129.237 Y184.938
G0 X129.701 Y184.927
G0 X130.156 Y184.829
G0 X130.583 Y184.644
G0 X130.8 Y184.497
G0 X131.609 Y183.699
G0 X131.522 Y183.652
G1 F1500 E360.03082
G1 X131.702 Y183.23 E360.12238
G1 X131.799 Y182.784 E360.21346
G1 X131.81 Y182.326 E360.30489
G1 X131.734 Y181.875 E360.39616
G1 X131.574 Y181.447 E360.48734
G1 X131.337 Y181.056 E360.57859
G1 X131.029 Y180.718 E360.66984
G1 X130.663 Y180.444 E360.76108
G1 X130.253 Y180.243 E360.85221
G1 X129.81 Y180.126 E360.94364
G1 X129.355 Y180.093 E361.03468
G1 X128.902 Y180.147 E361.12572
G1 X128.466 Y180.287 E361.21711
G1 X128.064 Y180.506 E361.30846
G1 X127.712 Y180.798 E361.39973
G1 X127.421 Y181.151 E361.49103
G1 X127.202 Y181.552 E361.58221
G1 X127.062 Y181.988 E361.67359
G1 X127.008 Y182.441 E361.76463
G1 X127.041 Y182.898 E361.85607
G1 X127.158 Y183.34 E361.94731
G1 X127.358 Y183.751 E362.03853
G1 X127.633 Y184.117 E362.12989
G1 X127.97 Y184.424 E362.22086
G1 X128.36 Y184.663 E362.31214
G1 X128.789 Y184.823 E362.40351
G1 X129.239 Y184.899 E362.49459
G1 X129.697 Y184.888 E362.58601
G1 X130.144 Y184.791 E362.67729
G1 X130.564 Y184.609 E362.76864
G1 X130.942 Y184.354 E362.85963
G1 X131.265 Y184.03 E362.95093
G1 X131.522 Y183.652 E363.04215
G0 F7500 X131.6 Y183.468
G0 X132.41 Y183.814
G1 F1500 E356.54215
G0 F7500 X136.061 Y190.641
G0 X136.169 Y191.106
G0 X136.185 Y191.584
G0 X136.122 Y191.966
G0 X135.734 Y192.948
G0 X135.655 Y192.888
G1 F1500 E363.04215
G1 X135.904 Y192.488 E363.13618
G1 X136.069 Y192.047 E363.23014
G1 X136.146 Y191.582 E363.3242
G1 X136.13 Y191.111 E363.41825
G1 X136.024 Y190.653 E363.51206
G1 X135.829 Y190.224 E363.6061
G1 X135.555 Y189.842 E363.69992
G1 X135.211 Y189.52 E363.79395
G1 X134.812 Y189.272 E363.8877
G1 X134.371 Y189.105 E363.98181
G1 X133.906 Y189.029 E364.07583
G1 X133.436 Y189.043 E364.16967
G1 X132.977 Y189.15 E364.26372
G1 X132.548 Y189.345 E364.35776
G1 X132.165 Y189.62 E364.45186
G1 X131.843 Y189.963 E364.54574
G1 X131.594 Y190.363 E364.63977
G1 X131.429 Y190.804 E364.73373
G1 X131.352 Y191.269 E364.82779
G1 X131.368 Y191.739 E364.92164
G1 X131.474 Y192.197 E365.01546
G1 X131.669 Y192.626 E365.1095
G1 X131.943 Y193.009 E365.20347
G1 X132.286 Y193.331 E365.29736
G1 X132.686 Y193.58 E365.39139
G1 X133.127 Y193.745 E365.48535
G1 X133.592 Y193.822 E365.57941
G1 X134.063 Y193.806 E365.67346
G1 X134.521 Y193.7 E365.76727
G1 X134.95 Y193.505 E365.86131
G1 X135.333 Y193.231 E365.95529
G1 X135.655 Y192.888 E366.04918
G0 F7500 X135.76 Y192.719
G1 F1500 E359.54918
G0 F7500 X135.844 Y192.772
G0 X136.107 Y192.057
G0 X139.303 Y155.248
G0 X139.208 Y155.218
G1 F1500 E366.04918
G1 X139.305 Y154.772 E366.14026
G1 X139.316 Y154.314 E366.23169
G1 X139.24 Y153.863 E366.32296
G1 X139.08 Y153.435 E366.41414
G1 X138.843 Y153.044 E366.50538
G1 X138.535 Y152.706 E366.59664
G1 X138.169 Y152.432 E366.68788
G1 X137.759 Y152.233 E366.77883
G1 X137.317 Y152.114 E366.87017
G1 X136.86 Y152.081 E366.96161
G1 X136.407 Y152.135 E367.05265
G1 X135.972 Y152.275 E367.14385
G1 X135.569 Y152.494 E367.23538
