;FLAVOR:Marlin
;TIME:6038
;Filament used: 16.9654m
;Layer height: 0.4
;MINX:54.431
;MINY:60.851
;MINZ:0.3
;MAXX:165.569
;MAXY:159.149
;MAXZ:41.9
;Generated with Cura_SteamEngine 4.8.0
M140 S80
M105
M190 S80
M104 S230
M105
M109 S230
M82 ;absolute extrusion mode
G28 ;Home
G1 Z15.0 F2000 ;Move the platform
G92 E0
G92 E0
G1 F1500 E-6.5
;LAYER_COUNT:105
;LAYER:0
M107
M204 S1000
G0 F7500 X90.989 Y62.975 Z0.3
;TYPE:SKIRT
G1 F1500 E0
G1 X91.425 Y62.477 E0.16511
G1 X91.919 Y62.034 E0.33063
G1 X92.462 Y61.654 E0.49596
G1 X93.047 Y61.342 E0.66134
G1 X93.666 Y61.103 E0.82686
G1 X94.309 Y60.94 E0.99233
G1 X94.966 Y60.856 E1.15756
G1 X95.629 Y60.851 E1.32295
G1 X96.288 Y60.926 E1.4884
G1 X96.933 Y61.08 E1.65381
G1 X97.797 Y61.424 E1.88579
G1 X98.067 Y61.559 E1.9611
G1 X98.299 Y61.682 E2.0266
G1 X98.756 Y61.939 E2.15739
G1 X157.345 Y95.766 E19.03351
G1 X157.952 Y96.128 E19.20981
G1 X158.5 Y96.502 E19.37531
G1 X158.999 Y96.938 E19.54061
G1 X159.442 Y97.432 E19.70613
G1 X159.822 Y97.975 E19.87146
G1 X160.134 Y98.56 E20.03684
G1 X160.374 Y99.178 E20.20222
G1 X160.537 Y99.82 E20.36745
G1 X160.622 Y100.478 E20.53295
G1 X160.627 Y101.141 E20.69834
G1 X160.553 Y101.8 E20.86376
G1 X160.399 Y102.445 E21.02918
G1 X160.259 Y102.851 E21.13631
G1 X160.227 Y102.933 E21.15827
G1 X159.904 Y103.616 E21.34674
G1 X159.528 Y104.289 E21.53904
G1 X129.758 Y155.852 E36.39132
G1 X129.387 Y156.474 E36.57198
G1 X129.013 Y157.022 E36.73748
G1 X128.577 Y157.521 E36.90278
G1 X128.083 Y157.964 E37.0683
G1 X127.54 Y158.344 E37.23363
G1 X126.955 Y158.657 E37.39913
G1 X126.337 Y158.896 E37.56442
G1 X125.694 Y159.059 E37.72989
G1 X125.037 Y159.144 E37.89514
G1 X124.374 Y159.149 E38.06054
G1 X123.715 Y159.075 E38.22596
G1 X123.07 Y158.921 E38.39137
G1 X122.196 Y158.573 E38.62604
G1 X121.923 Y158.436 E38.70224
G1 X121.7 Y158.318 E38.76517
G1 X121.244 Y158.061 E38.89574
G1 X62.659 Y124.237 E55.77063
G1 X62.051 Y123.875 E55.94714
G1 X61.503 Y123.502 E56.1125
G1 X61.004 Y123.066 E56.2778
G1 X60.56 Y122.573 E56.4433
G1 X60.18 Y122.03 E56.60863
G1 X59.867 Y121.445 E56.77413
G1 X59.627 Y120.827 E56.93951
G1 X59.463 Y120.185 E57.1048
G1 X59.378 Y119.527 E57.2703
G1 X59.372 Y118.864 E57.43569
G1 X59.447 Y118.205 E57.60114
G1 X59.6 Y117.56 E57.7665
G1 X59.733 Y117.17 E57.86929
G1 X59.765 Y117.087 E57.89148
G1 X60.097 Y116.381 E58.0861
G1 X60.506 Y115.651 E58.29483
G1 X90.236 Y64.159 E73.12678
G1 X90.615 Y63.523 E73.31147
G1 X90.989 Y62.975 E73.47697
G0 F7500 X91.815 Y63.543
G1 F1500 X92.218 Y63.099 E73.62654
G1 X92.677 Y62.713 E73.77615
G1 X93.183 Y62.392 E73.92562
G1 X93.728 Y62.141 E74.0753
G1 X94.301 Y61.964 E74.2249
G1 X94.892 Y61.865 E74.37438
G1 X95.492 Y61.846 E74.52413
G1 X96.088 Y61.906 E74.67355
G1 X96.672 Y62.045 E74.8233
G1 X97.349 Y62.318 E75.00539
G1 X97.619 Y62.453 E75.08069
G1 X97.81 Y62.554 E75.13459
G1 X98.256 Y62.805 E75.26225
G1 X156.833 Y96.625 E92.13491
G1 X157.44 Y96.987 E92.31121
G1 X157.933 Y97.328 E92.46074
G1 X158.377 Y97.731 E92.61032
G1 X158.763 Y98.19 E92.75992
G1 X159.085 Y98.696 E92.90953
G1 X159.337 Y99.24 E93.05909
G1 X159.514 Y99.813 E93.20869
G1 X159.613 Y100.405 E93.35841
G1 X159.632 Y101.004 E93.50791
G1 X159.572 Y101.601 E93.65758
G1 X159.433 Y102.184 E93.80709
G1 X159.327 Y102.488 E93.8874
G1 X159.295 Y102.57 E93.90936
G1 X159.031 Y103.129 E94.06357
G1 X158.662 Y103.789 E94.25219
G1 X128.899 Y155.34 E109.10101
G1 X128.528 Y155.962 E109.28167
G1 X128.187 Y156.456 E109.4314
G1 X127.784 Y156.899 E109.5808
G1 X127.325 Y157.285 E109.7304
G1 X126.819 Y157.607 E109.88001
G1 X126.274 Y157.859 E110.02979
G1 X125.701 Y158.036 E110.17939
G1 X125.11 Y158.135 E110.32887
G1 X124.511 Y158.154 E110.47837
G1 X123.914 Y158.094 E110.62804
G1 X123.331 Y157.955 E110.77755
G1 X122.645 Y157.679 E110.962
G1 X122.372 Y157.542 E111.03819
G1 X122.189 Y157.445 E111.08986
G1 X121.744 Y157.195 E111.21718
G1 X63.171 Y123.378 E128.08861
G1 X62.563 Y123.016 E128.26512
G1 X62.069 Y122.675 E128.41486
G1 X61.625 Y122.272 E128.56443
G1 X61.239 Y121.814 E128.71384
G1 X60.917 Y121.308 E128.86346
G1 X60.665 Y120.764 E129.01301
G1 X60.487 Y120.191 E129.16268
G1 X60.388 Y119.599 E129.31241
G1 X60.367 Y119 E129.46192
G1 X60.427 Y118.403 E129.6116
G1 X60.566 Y117.82 E129.7611
G1 X60.666 Y117.53 E129.83762
G1 X60.698 Y117.447 E129.85981
G1 X60.97 Y116.869 E130.01916
G1 X61.372 Y116.151 E130.22443
G1 X91.135 Y64.602 E145.07281
G1 X91.473 Y64.036 E145.23726
G1 X91.815 Y63.543 E145.38693
G0 F7500 X92.637 Y64.116
G1 F1500 X93.003 Y63.735 E145.51872
G1 X93.422 Y63.413 E145.65054
G1 X93.886 Y63.158 E145.78262
G1 X94.382 Y62.976 E145.91441
G1 X94.9 Y62.87 E146.0463
G1 X95.428 Y62.844 E146.17817
G1 X95.954 Y62.898 E146.31007
G1 X96.466 Y63.03 E146.44197
G1 X96.902 Y63.213 E146.55992
G1 X97.172 Y63.348 E146.63522
G1 X97.32 Y63.426 E146.67695
G1 X97.756 Y63.671 E146.80171
G1 X156.321 Y97.484 E163.6709
G1 X156.928 Y97.846 E163.8472
G1 X157.36 Y98.15 E163.97897
G1 X157.742 Y98.516 E164.11094
G1 X158.064 Y98.936 E164.24296
G1 X158.319 Y99.399 E164.37481
G1 X158.502 Y99.895 E164.50669
G1 X158.607 Y100.413 E164.63854
G1 X158.634 Y100.941 E164.77042
G1 X158.58 Y101.467 E164.90232
G1 X158.396 Y102.124 E165.07252
G1 X158.364 Y102.206 E165.09447
G1 X158.158 Y102.641 E165.21454
G1 X157.796 Y103.289 E165.39969
G1 X128.04 Y154.828 E180.24504
G1 X127.669 Y155.45 E180.42571
G1 X127.365 Y155.882 E180.55748
G1 X126.998 Y156.264 E180.68962
G1 X126.579 Y156.586 E180.82144
G1 X126.116 Y156.841 E180.95329
G1 X125.62 Y157.024 E181.08517
G1 X125.102 Y157.129 E181.21702
G1 X124.574 Y157.156 E181.3489
G1 X124.047 Y157.102 E181.48105
G1 X123.535 Y156.97 E181.61294
G1 X123.093 Y156.785 E181.73247
G1 X122.82 Y156.648 E181.80866
G1 X122.678 Y156.573 E181.84872
G1 X122.244 Y156.329 E181.97292
G1 X63.682 Y122.518 E198.84122
G1 X63.074 Y122.156 E199.01773
G1 X62.642 Y121.852 E199.1495
G1 X62.26 Y121.487 E199.2813
G1 X61.938 Y121.067 E199.41331
G1 X61.682 Y120.604 E199.54529
G1 X61.499 Y120.108 E199.67717
G1 X61.393 Y119.59 E199.80906
G1 X61.366 Y119.062 E199.94094
G1 X61.419 Y118.536 E200.07282
G1 X61.599 Y117.89 E200.2401
G1 X61.631 Y117.807 E200.26229
G1 X61.842 Y117.357 E200.38627
G1 X62.238 Y116.651 E200.5882
G1 X91.968 Y65.159 E215.42015
G1 X92.332 Y64.549 E215.59735
G1 X92.637 Y64.116 E215.72947
G1 F1500 E209.22947
;MESH:power-supply-holder.stl(1)
G0 F7500 X95.894 Y68.386
G0 X85.121 Y91.017
;TYPE:WALL-INNER
G1 F1500 E215.72947
G1 X85.37 Y90.585 E215.85385
G1 X96.621 Y71.099 E221.46671
G1 X149.947 Y101.887 E236.82683
G1 X150.379 Y102.136 E236.95121
G1 X150.13 Y102.568 E237.03157
G1 X138.879 Y122.054 E242.64444
G1 X85.553 Y91.266 E258.00455
G1 X85.121 Y91.017 E258.08491
G0 F7500 X83.755 Y91.383
G1 F1500 X84.004 Y90.951 E258.20929
G1 X96.255 Y69.733 E264.32105
G1 X151.313 Y101.521 E280.18005
G1 X151.745 Y101.77 E280.30444
G1 X151.496 Y102.202 E280.3848
G1 X139.245 Y123.42 E286.49655
G1 X84.187 Y91.632 E302.35556
G1 X83.755 Y91.383 E302.43592
G0 F7500 X82.485 Y91.724
G0 X82.389 Y91.749
G1 F1500 X82.638 Y91.317 E302.5603
G1 X95.889 Y68.367 E309.17095
G1 X152.679 Y101.155 E325.52884
G1 X153.111 Y101.404 E325.65323
G1 X152.862 Y101.836 E325.73359
G1 X139.611 Y124.786 E332.34423
G1 X82.821 Y91.998 E348.70213
G1 X82.389 Y91.749 E348.78249
G0 F7500 X82.485 Y91.724
G0 X81.023 Y92.115
;TYPE:WALL-OUTER
G1 F1500 X95.523 Y67.001 E356.01641
G1 X154.477 Y101.038 E372.99758
G1 X139.977 Y126.152 E380.2315
G1 X81.023 Y92.115 E397.21267
G0 F7500 X81.123 Y91.942
G0 X82.525 Y91.713
G0 X82.526 Y91.713
G0 X86.473 Y90.655
;TYPE:SKIN
G1 F1500 X96.983 Y72.451 E402.45616
G1 X149.027 Y102.498 E417.4469
G1 X138.517 Y120.702 E422.69039
G1 X86.473 Y90.655 E437.68113
G0 F7500 X87.26 Y90.088
G1 F1500 X88.581 Y91.409 E438.14715
G0 F7500 X87.778 Y89.192
G1 F1500 X91.928 Y93.342 E439.61118
G0 F7500 X95.274 Y95.274
G1 F1500 X88.295 Y88.295 E442.07321
G0 F7500 X88.813 Y87.399
G1 F1500 X98.62 Y97.205 E445.53271
G0 F7500 X101.966 Y99.137
G1 F1500 X89.33 Y86.502 E449.99023
G0 F7500 X89.848 Y85.605
G1 F1500 X105.312 Y101.07 E455.44575
G0 F7500 X108.658 Y103.002
G1 F1500 X90.366 Y84.709 E461.89892
G0 F7500 X90.883 Y83.812
G1 F1500 X112.005 Y104.933 E469.3501
G0 F7500 X115.351 Y106.865
G1 F1500 X91.401 Y82.916 E477.79893
G0 F7500 X91.918 Y82.019
G1 F1500 X118.697 Y108.798 E487.24595
G0 F7500 X122.043 Y110.73
G1 F1500 X92.436 Y81.122 E497.69079
G0 F7500 X92.954 Y80.226
G1 F1500 X125.389 Y112.661 E509.13312
G0 F7500 X128.735 Y114.593
G1 F1500 X93.471 Y79.329 E521.57344
G0 F7500 X93.989 Y78.432
G1 F1500 X132.082 Y116.526 E535.01196
G0 F7500 X135.428 Y118.458
G1 F1500 X94.506 Y77.536 E549.4483
G0 F7500 X95.024 Y76.639
G1 F1500 X138.433 Y120.048 E564.76199
G0 F7500 X138.95 Y119.151
G1 F1500 X95.542 Y75.743 E580.07534
G0 F7500 X96.059 Y74.846
G1 F1500 X139.468 Y118.255 E595.38903
G0 F7500 X139.985 Y117.358
G1 F1500 X96.577 Y73.949 E610.70256
G0 F7500 X97.094 Y73.053
G1 F1500 X140.503 Y116.461 E626.01608
G0 F7500 X141.021 Y115.565
G1 F1500 X100.263 Y74.807 E640.39456
G0 F7500 X103.609 Y76.739
G1 F1500 X141.538 Y114.668 E653.77504
G0 F7500 X142.056 Y113.772
G1 F1500 X106.955 Y78.671 E666.15787
G0 F7500 X110.3 Y80.602
G1 F1500 X142.573 Y112.875 E677.54304
G0 F7500 X143.091 Y111.978
G1 F1500 X113.646 Y82.534 E687.93038
G0 F7500 X116.992 Y84.466
G1 F1500 X143.609 Y111.082 E697.32007
G0 F7500 X144.126 Y110.185
G1 F1500 X120.338 Y86.397 E705.71193
G0 F7500 X123.684 Y88.328
G1 F1500 X144.644 Y109.289 E713.10631
G0 F7500 X145.161 Y108.392
G1 F1500 X127.03 Y90.26 E719.50269
G0 F7500 X130.376 Y92.192
G1 F1500 X145.679 Y107.495 E724.90123
G0 F7500 X146.197 Y106.599
G1 F1500 X133.722 Y94.124 E729.30213
G0 F7500 X137.067 Y96.055
G1 F1500 X146.715 Y105.703 E732.70572
G0 F7500 X147.233 Y104.806
G1 F1500 X140.413 Y97.987 E735.11148
G0 F7500 X143.759 Y99.919
G1 F1500 X147.75 Y103.91 E736.51942
G0 F7500 X148.268 Y103.013
G1 F1500 X147.105 Y101.85 E736.9297
G1 F1500 E730.4297
;MESH:power-supply-holder.stl
G0 F7500 X137.891 Y123.77
G0 X135.88 Y127.252
G0 X134.879 Y128.983
;TYPE:WALL-INNER
G1 F1500 E736.9297
G1 X134.63 Y129.415 E737.05408
G1 X123.379 Y148.901 E742.66694
G1 X70.053 Y118.113 E758.02706
G1 X69.621 Y117.864 E758.15144
G1 X69.87 Y117.432 E758.2318
G1 X81.121 Y97.946 E763.84466
G1 X134.447 Y128.734 E779.20478
G1 X134.879 Y128.983 E779.28514
G0 F7500 X136.245 Y128.617
G1 F1500 X135.996 Y129.049 E779.40952
G1 X123.745 Y150.267 E785.52128
G1 X68.687 Y118.479 E801.38028
G1 X68.255 Y118.23 E801.50466
G1 X68.504 Y117.798 E801.58503
G1 X80.755 Y96.58 E807.69678
G1 X135.813 Y128.368 E823.55579
G1 X136.245 Y128.617 E823.63615
G0 F7500 X137.515 Y128.276
G0 X137.611 Y128.251
G1 F1500 X137.362 Y128.683 E823.76053
G1 X124.111 Y151.633 E830.37118
G1 X67.321 Y118.845 E846.72907
G1 X66.889 Y118.596 E846.85345
G1 X67.138 Y118.164 E846.93382
G1 X80.389 Y95.214 E853.54446
G1 X137.179 Y128.002 E869.90236
G1 X137.611 Y128.251 E869.98272
G0 F7500 X137.515 Y128.276
G0 X138.977 Y127.885
;TYPE:WALL-OUTER
G1 F1500 X124.477 Y152.999 E877.21664
G1 X65.523 Y118.962 E894.19781
G1 X80.023 Y93.848 E901.43173
G1 X138.977 Y127.885 E918.4129
G0 F7500 X138.877 Y128.058
G0 X137.475 Y128.287
G0 X137.474 Y128.287
G0 X133.527 Y129.345
;TYPE:SKIN
G1 F1500 X123.017 Y147.549 E923.65639
G1 X70.973 Y117.502 E938.64713
G1 X81.483 Y99.298 E943.89062
G1 X133.527 Y129.345 E958.88136
G0 F7500 X132.738 Y129.91
G1 F1500 X131.417 Y128.589 E959.34738
G0 F7500 X132.221 Y130.806
G1 F1500 X128.071 Y126.656 E960.8114
G0 F7500 X124.725 Y124.725
G1 F1500 X131.703 Y131.703 E963.27308
G0 F7500 X131.185 Y132.6
G1 F1500 X121.379 Y122.793 E966.73259
G0 F7500 X118.033 Y120.861
G1 F1500 X130.668 Y133.496 E971.18993
G0 F7500 X130.15 Y134.393
G1 F1500 X114.686 Y118.928 E976.64545
G0 F7500 X111.34 Y116.997
G1 F1500 X129.633 Y135.29 E983.0988
G0 F7500 X129.115 Y136.186
G1 F1500 X107.994 Y115.065 E990.5498
G0 F7500 X104.648 Y113.133
G1 F1500 X128.597 Y137.083 E998.99863
G0 F7500 X128.08 Y137.979
G1 F1500 X101.301 Y111.201 E1008.44547
G0 F7500 X97.955 Y109.269
G1 F1500 X127.562 Y138.876 E1018.89014
G0 F7500 X127.045 Y139.773
G1 F1500 X94.609 Y107.337 E1030.33282
G0 F7500 X91.263 Y105.405
G1 F1500 X126.527 Y140.669 E1042.77314
G0 F7500 X126.009 Y141.566
G1 F1500 X87.916 Y103.473 E1056.21148
G0 F7500 X84.57 Y101.541
G1 F1500 X125.492 Y142.462 E1070.64764
G0 F7500 X124.974 Y143.359
G1 F1500 X81.566 Y99.95 E1085.96116
G0 F7500 X81.048 Y100.847
G1 F1500 X124.457 Y144.256 E1101.27486
G0 F7500 X123.939 Y145.152
G1 F1500 X80.53 Y101.744 E1116.58838
G0 F7500 X80.013 Y102.64
G1 F1500 X123.421 Y146.049 E1131.9019
G0 F7500 X122.904 Y146.945
G1 F1500 X79.495 Y103.537 E1147.21542
G0 F7500 X78.978 Y104.434
G1 F1500 X119.735 Y145.191 E1161.59356
G0 F7500 X116.389 Y143.259
G1 F1500 X78.46 Y105.33 E1174.97403
G0 F7500 X77.942 Y106.227
G1 F1500 X113.043 Y141.328 E1187.35686
G0 F7500 X109.698 Y139.396
G1 F1500 X77.425 Y107.123 E1198.74203
G0 F7500 X76.907 Y108.02
G1 F1500 X106.352 Y137.465 E1209.12955
G0 F7500 X103.006 Y135.533
G1 F1500 X76.39 Y108.917 E1218.51906
G0 F7500 X75.872 Y109.813
G1 F1500 X99.66 Y133.601 E1226.91092
G0 F7500 X96.315 Y131.67
G1 F1500 X75.354 Y110.71 E1234.30531
G0 F7500 X74.837 Y111.606
G1 F1500 X92.968 Y129.738 E1240.70168
G0 F7500 X89.622 Y127.806
G1 F1500 X74.319 Y112.503 E1246.10023
G0 F7500 X73.801 Y113.399
G1 F1500 X86.276 Y125.874 E1250.50112
G0 F7500 X82.931 Y123.943
G1 F1500 X73.283 Y114.296 E1253.90454
G0 F7500 X72.766 Y115.192
G1 F1500 X79.585 Y122.011 E1256.31012
G0 F7500 X76.239 Y120.08
G1 F1500 X72.248 Y116.089 E1257.71806
G0 F7500 X71.731 Y116.985
G1 F1500 X72.893 Y118.148 E1258.12816
G1 F1500 E1251.62816
;MESH:NONMESH
G0 F300 X72.893 Y118.148 Z0.7
G0 F7500 X82.034 Y96.187
G0 X84.045 Y92.705
G0 X85.045 Y90.974
;TIME_ELAPSED:221.086478
;LAYER:1
M106 S85
;TYPE:WALL-INNER
;MESH:power-supply-holder.stl(1)
G1 F1500 E1258.12816
G1 X85.294 Y90.542 E1258.21108
G1 X96.545 Y71.055 E1261.95314
G1 X150.023 Y101.93 E1272.22234
G1 X150.455 Y102.179 E1272.30526
G1 X150.206 Y102.611 E1272.35883
G1 X138.955 Y122.098 E1276.10089
G1 X85.477 Y91.223 E1286.37009
G1 X85.045 Y90.974 E1286.42366
G0 F8250 X83.679 Y91.34
G1 F1500 X83.928 Y90.908 E1286.50658
G1 X96.179 Y69.689 E1290.58123
G1 X151.389 Y101.564 E1301.18303
G1 X151.821 Y101.813 E1301.26595
G1 X151.572 Y102.245 E1301.31952
G1 X139.321 Y123.464 E1305.39417
G1 X84.111 Y91.589 E1315.99597
G1 X83.679 Y91.34 E1316.04954
G0 F8250 X82.409 Y91.681
G0 X82.313 Y91.706
G1 F1500 X82.562 Y91.274 E1316.13246
G1 X95.813 Y68.323 E1320.5397
G1 X152.755 Y101.198 E1331.47409
G1 X153.187 Y101.447 E1331.55701
G1 X152.938 Y101.879 E1331.61059
G1 X139.687 Y124.83 E1336.01783
G1 X82.745 Y91.955 E1346.95222
G1 X82.313 Y91.706 E1347.00579
G0 F8250 X82.409 Y91.681
G0 X80.947 Y92.072
;TYPE:WALL-OUTER
G1 F1500 X95.447 Y66.957 E1351.82855
G1 X154.553 Y101.081 E1363.17845
G1 X140.053 Y126.196 E1368.00121
G1 X80.947 Y92.072 E1379.35112
G0 F8250 X81.047 Y91.899
G0 X82.448 Y91.67
G0 X82.448 Y91.671
G0 X86.397 Y90.612
;TYPE:SKIN
G1 F1500 X96.907 Y72.407 E1382.84692
G1 X149.103 Y102.541 E1392.86987
G1 X138.593 Y120.746 E1396.36568
G1 X86.397 Y90.612 E1406.38863
G0 F8250 X97.759 Y73.36
G1 F1500 X95.53 Y75.589 E1406.91286
G0 F8250 X98.656 Y73.877
G1 F1500 X93.599 Y78.934 E1408.10219
G0 F8250 X91.668 Y82.279
G1 F1500 X99.552 Y74.395 E1409.95638
G0 F8250 X100.449 Y74.913
G1 F1500 X89.737 Y85.624 E1412.47556
G0 F8250 X87.806 Y88.97
G1 F1500 X101.346 Y75.43 E1415.65996
G0 F8250 X102.241 Y75.948
G1 F1500 X87.438 Y90.752 E1419.14152
G0 F8250 X88.335 Y91.269
G1 F1500 X103.138 Y76.466 E1422.62296
G0 F8250 X104.035 Y76.984
G1 F1500 X89.231 Y91.787 E1426.10451
G0 F8250 X90.128 Y92.305
G1 F1500 X104.931 Y77.501 E1429.58607
G0 F8250 X105.828 Y78.019
G1 F1500 X91.025 Y92.822 E1433.06751
G0 F8250 X91.921 Y93.34
G1 F1500 X106.725 Y78.536 E1436.54918
G0 F8250 X107.621 Y79.054
G1 F1500 X92.817 Y93.858 E1440.03086
G0 F8250 X93.714 Y94.376
G1 F1500 X108.518 Y79.572 E1443.51253
G0 F8250 X109.414 Y80.089
G1 F1500 X94.61 Y94.893 E1446.9942
G0 F8250 X95.507 Y95.411
G1 F1500 X110.311 Y80.607 E1450.47588
G0 F8250 X111.208 Y81.124
G1 F1500 X96.404 Y95.928 E1453.95755
G0 F8250 X97.3 Y96.446
G1 F1500 X112.104 Y81.642 E1457.43923
