;FLAVOR:Marlin
;TIME:7227
;Filament used: 12.7413m
;Layer height: 0.2
;MINX:20
;MINY:45
;MINZ:0.3
;MAXX:200
;MAXY:175
;MAXZ:1.9
;Generated with Cura_SteamEngine 4.8.0
M140 S80
M105
M190 S80
M104 S230
M105
M109 S230
M82 ;absolute extrusion mode
G28 ;Home
G1 Z15.0 F2000 ;Move the platform
G92 E0
G92 E0
G1 F1500 E-6.5
;LAYER_COUNT:9
;LAYER:0
M107
M204 S1000
G0 F7500 X22.976 Y45.441 Z0.3
;TYPE:SKIRT
G1 F1500 E0
G1 X23.569 Y45.221 E0.12622
G1 X24.185 Y45.077 E0.25246
G1 X24.869 Y45.011 E0.3896
G1 X25.33 Y45 E0.48162
G1 X194.293 Y45 E34.20002
G1 X195.063 Y45.011 E34.35369
G1 X195.693 Y45.06 E34.4798
G1 X196.312 Y45.188 E34.60594
G1 X196.91 Y45.393 E34.73209
G1 X197.477 Y45.672 E34.8582
G1 X198.005 Y46.02 E34.9844
G1 X198.484 Y46.432 E35.11048
G1 X198.907 Y46.902 E35.23667
G1 X199.268 Y47.421 E35.36283
G1 X199.561 Y47.981 E35.48896
G1 X199.78 Y48.574 E35.61511
G1 X199.923 Y49.19 E35.74131
G1 X199.989 Y49.869 E35.87745
G1 X200 Y50.33 E35.96947
G1 X200 Y169.326 E59.71641
G1 X199.991 Y170.053 E59.8615
G1 X199.943 Y170.683 E59.98759
G1 X199.816 Y171.302 E60.11369
G1 X199.612 Y171.901 E60.23997
G1 X199.334 Y172.469 E60.36617
G1 X198.987 Y172.997 E60.49225
G1 X198.575 Y173.477 E60.61849
G1 X198.107 Y173.901 E60.74451
G1 X197.589 Y174.263 E60.87063
G1 X197.029 Y174.557 E60.99685
G1 X196.437 Y174.777 E61.12288
G1 X195.821 Y174.922 E61.24917
G1 X195.131 Y174.989 E61.38751
G1 X194.67 Y175 E61.47954
G1 X25.643 Y175 E95.2107
G1 X24.945 Y174.991 E95.35001
G1 X24.314 Y174.942 E95.47631
G1 X23.695 Y174.815 E95.60241
G1 X23.097 Y174.611 E95.7285
G1 X22.529 Y174.333 E95.8547
G1 X22.001 Y173.985 E95.9809
G1 X21.521 Y173.574 E96.107
G1 X21.097 Y173.105 E96.23317
G1 X20.735 Y172.587 E96.35929
G1 X20.442 Y172.027 E96.48541
G1 X20.222 Y171.434 E96.61163
G1 X20.078 Y170.819 E96.73768
G1 X20.011 Y170.126 E96.87662
G1 X20 Y169.658 E96.97004
G1 X20 Y50.606 E120.72816
G1 X20.009 Y49.941 E120.86088
G1 X20.058 Y49.311 E120.98698
G1 X20.186 Y48.692 E121.11312
G1 X20.39 Y48.094 E121.23921
G1 X20.669 Y47.526 E121.3655
G1 X21.017 Y46.999 E121.49153
G1 X21.429 Y46.519 E121.61776
G1 X21.897 Y46.095 E121.74379
G1 X22.416 Y45.734 E121.86995
G1 X22.976 Y45.441 E121.99608
G0 F7500 X23.171 Y46.233
G1 F1500 X23.708 Y46.016 E122.11166
G1 X24.27 Y45.875 E122.22729
G1 X24.891 Y45.811 E122.35187
G1 X25.33 Y45.8 E122.43951
G1 X194.353 Y45.8 E156.16988
G1 X195.051 Y45.81 E156.30918
G1 X195.628 Y45.859 E156.42474
G1 X196.194 Y45.986 E156.5405
G1 X196.736 Y46.19 E156.65607
G1 X197.245 Y46.466 E156.77162
G1 X197.711 Y46.81 E156.88721
G1 X198.126 Y47.215 E157.00293
G1 X198.481 Y47.673 E157.11857
G1 X198.769 Y48.175 E157.23407
G1 X198.986 Y48.712 E157.34965
G1 X199.126 Y49.274 E157.46523
G1 X199.189 Y49.892 E157.5892
G1 X199.2 Y50.33 E157.67663
G1 X199.2 Y169.316 E181.42158
G1 X199.191 Y170.043 E181.56667
G1 X199.144 Y170.62 E181.68219
G1 X199.017 Y171.186 E181.79795
G1 X198.815 Y171.728 E181.91338
G1 X198.539 Y172.238 E182.02911
G1 X198.196 Y172.705 E182.14474
G1 X197.792 Y173.12 E182.26032
G1 X197.335 Y173.476 E182.37592
G1 X196.833 Y173.765 E182.49152
G1 X196.296 Y173.983 E182.60718
G1 X195.735 Y174.125 E182.72266
G1 X195.109 Y174.189 E182.84824
G1 X194.67 Y174.2 E182.93587
G1 X25.653 Y174.2 E216.66504
G1 X24.955 Y174.191 E216.80435
G1 X24.377 Y174.143 E216.92009
G1 X23.812 Y174.017 E217.03561
G1 X23.27 Y173.814 E217.15111
G1 X22.76 Y173.538 E217.26684
G1 X22.293 Y173.195 E217.38247
G1 X21.878 Y172.791 E217.49805
G1 X21.523 Y172.333 E217.61369
G1 X21.234 Y171.831 E217.72928
G1 X21.016 Y171.294 E217.84494
G1 X20.875 Y170.733 E217.96038
G1 X20.811 Y170.104 E218.08655
G1 X20.8 Y169.658 E218.17558
G1 X20.8 Y50.617 E241.9315
G1 X20.809 Y49.952 E242.06422
G1 X20.857 Y49.375 E242.17976
G1 X20.984 Y48.81 E242.29533
G1 X21.187 Y48.267 E242.41101
G1 X21.463 Y47.758 E242.52656
G1 X21.807 Y47.291 E242.64231
G1 X22.211 Y46.877 E242.75775
G1 X22.669 Y46.521 E242.87351
G1 X23.171 Y46.233 E242.98901
G0 F7500 X23.429 Y46.998
G1 F1500 X23.908 Y46.792 E243.09306
G1 X24.412 Y46.662 E243.19693
G1 X24.914 Y46.61 E243.29765
G1 X25.33 Y46.6 E243.38069
G1 X194.342 Y46.6 E277.10886
G1 X195.04 Y46.61 E277.24817
G1 X195.559 Y46.658 E277.35218
G1 X196.064 Y46.784 E277.45605
G1 X196.545 Y46.986 E277.56016
G1 X196.989 Y47.259 E277.66417
G1 X197.386 Y47.596 E277.76809
G1 X197.726 Y47.991 E277.8721
G1 X198.003 Y48.433 E277.9762
G1 X198.209 Y48.911 E278.08007
G1 X198.339 Y49.416 E278.18413
G1 X198.39 Y49.914 E278.28403
G1 X198.4 Y50.33 E278.36707
G1 X198.4 Y169.306 E302.11002
G1 X198.391 Y170.033 E302.25511
G1 X198.344 Y170.552 E302.35911
G1 X198.219 Y171.058 E302.46312
G1 X198.018 Y171.539 E302.56715
G1 X197.746 Y171.983 E302.67106
G1 X197.409 Y172.381 E302.77514
G1 X197.016 Y172.723 E302.8791
G1 X196.574 Y173 E302.9832
G1 X196.096 Y173.206 E303.08707
G1 X195.591 Y173.338 E303.19123
G1 X195.086 Y173.39 E303.29255
G1 X194.67 Y173.4 E303.37559
G1 X25.663 Y173.4 E337.10276
G1 X24.965 Y173.391 E337.24207
G1 X24.446 Y173.344 E337.34606
G1 X23.94 Y173.219 E337.45007
G1 X23.46 Y173.017 E337.554
G1 X23.015 Y172.745 E337.65808
G1 X22.618 Y172.408 E337.762
G1 X22.276 Y172.014 E337.86612
G1 X21.999 Y171.573 E337.97004
G1 X21.793 Y171.094 E338.0741
G1 X21.662 Y170.59 E338.17802
G1 X21.61 Y170.083 E338.27973
G1 X21.6 Y169.658 E338.36456
G1 X21.6 Y50.628 E362.11829
G1 X21.609 Y49.963 E362.25101
G1 X21.656 Y49.444 E362.355
G1 X21.782 Y48.938 E362.45907
G1 X21.984 Y48.458 E362.56299
G1 X22.256 Y48.013 E362.66707
G1 X22.594 Y47.616 E362.77112
G1 X22.988 Y47.275 E362.87511
G1 X23.429 Y46.998 E362.97903
G1 F1500 E356.47903
;MESH:main-case-cover.stl
G0 F7500 X25.414 Y50.414
G0 X29.934 Y51.745
G0 X30.768 Y52.232
G0 X30.698 Y52.302
;TYPE:WALL-OUTER
G1 F1500 E362.97903
G1 X30.334 Y52.003 E363.07304
G1 X29.919 Y51.781 E363.16696
G1 X29.468 Y51.644 E363.26102
G1 X29 Y51.598 E363.35487
G1 X28.532 Y51.644 E363.44871
G1 X28.081 Y51.781 E363.54278
G1 X27.666 Y52.003 E363.6367
G1 X27.302 Y52.302 E363.7307
G1 X27.003 Y52.666 E363.82471
G1 X26.781 Y53.081 E363.91863
G1 X26.644 Y53.532 E364.01269
G1 X26.598 Y54 E364.10654
G1 X26.644 Y54.468 E364.20038
G1 X26.781 Y54.919 E364.29445
G1 X27.003 Y55.334 E364.38837
G1 X27.302 Y55.698 E364.48237
G1 X27.666 Y55.997 E364.57638
G1 X28.081 Y56.219 E364.6703
G1 X28.532 Y56.356 E364.76436
G1 X29 Y56.402 E364.85821
G1 X29.468 Y56.356 E364.95205
G1 X29.919 Y56.219 E365.04612
G1 X30.334 Y55.997 E365.14004
G1 X30.698 Y55.698 E365.23404
G1 X30.997 Y55.334 E365.32805
G1 X31.219 Y54.919 E365.42197
G1 X31.356 Y54.468 E365.51603
G1 X31.402 Y54 E365.60988
G1 X31.356 Y53.532 E365.70372
G1 X31.219 Y53.081 E365.79779
G1 X30.997 Y52.666 E365.89171
G1 X30.698 Y52.302 E365.98571
G0 F7500 X30.544 Y52.176
G0 X31.103 Y51.496
G1 F1500 E359.48571
G0 F7500 X75.944 Y69.577
G0 X76.011 Y69.65
G1 F1500 E365.98571
G1 X75.24 Y70.511 E366.21636
G1 X74.651 Y71.507 E366.44727
G1 X74.267 Y72.598 E366.67809
G1 X74.103 Y73.744 E366.90911
G1 X74.167 Y74.899 E367.13996
G1 X74.454 Y76.02 E367.37088
G1 X74.955 Y77.063 E367.60179
G1 X75.65 Y77.989 E367.83284
G1 X76.511 Y78.76 E368.06349
G1 X77.507 Y79.349 E368.2944
G1 X78.598 Y79.733 E368.52522
G1 X79.744 Y79.897 E368.75624
G1 X80.899 Y79.833 E368.98709
G1 X82.02 Y79.546 E369.21801
G1 X83.063 Y79.045 E369.44892
G1 X83.989 Y78.35 E369.67997
G1 X84.76 Y77.489 E369.91062
G1 X85.349 Y76.493 E370.14153
G1 X85.733 Y75.402 E370.37235
G1 X85.897 Y74.256 E370.60337
G1 X85.833 Y73.101 E370.83422
G1 X85.546 Y71.98 E371.06514
G1 X85.045 Y70.937 E371.29605
G1 X84.35 Y70.011 E371.5271
G1 X83.489 Y69.24 E371.75775
G1 X82.493 Y68.651 E371.98866
G1 X81.402 Y68.267 E372.21947
G1 X80.256 Y68.103 E372.4505
G1 X79.101 Y68.167 E372.68135
G1 X77.98 Y68.454 E372.91227
G1 X76.937 Y68.955 E373.14318
G1 X76.011 Y69.65 E373.37423
G0 F7500 X75.878 Y69.799
G0 X75.222 Y69.211
G1 F1500 E366.87423
G0 F7500 X79.095 Y68.128
G0 X106 Y67.058
G0 X107.353 Y67.192
G0 X108.656 Y67.588
G0 X109.856 Y68.228
G0 X110.707 Y68.927
G0 X111.822 Y70.111
G0 X111.739 Y70.166
G1 F1500 E373.37423
G1 X110.88 Y69.12 E373.64434
G1 X109.834 Y68.261 E373.91445
G1 X108.641 Y67.624 E374.18434
G1 X107.346 Y67.231 E374.45441
G1 X106 Y67.098 E374.72432
G1 X104.654 Y67.231 E374.99424
G1 X103.359 Y67.624 E375.26431
G1 X102.166 Y68.261 E375.5342
G1 X101.12 Y69.12 E375.80431
G1 X100.261 Y70.166 E376.07441
G1 X99.624 Y71.359 E376.3443
G1 X99.231 Y72.654 E376.61437
G1 X99.098 Y74 E376.88429
G1 X99.231 Y75.346 E377.15421
G1 X99.624 Y76.641 E377.42428
G1 X100.261 Y77.834 E377.69416
G1 X101.12 Y78.88 E377.96427
G1 X102.166 Y79.739 E378.23438
G1 X103.359 Y80.376 E378.50427
G1 X104.654 Y80.769 E378.77434
G1 X106 Y80.902 E379.04425
G1 X107.346 Y80.769 E379.31417
G1 X108.641 Y80.376 E379.58424
G1 X109.834 Y79.739 E379.85413
G1 X110.88 Y78.88 E380.12424
G1 X111.739 Y77.834 E380.39435
G1 X112.376 Y76.641 E380.66423
G1 X112.769 Y75.346 E380.9343
G1 X112.902 Y74 E381.20422
G1 X112.769 Y72.654 E381.47414
G1 X112.376 Y71.359 E381.74421
G1 X111.739 Y70.166 E382.0141
G0 F7500 X111.613 Y70.012
G0 X112.293 Y69.455
G1 F1500 E375.5141
G0 F7500 X119.532 Y71.321
G0 X119.624 Y71.359
G1 F1500 E382.0141
G1 X119.231 Y72.654 E382.28417
G1 X119.098 Y74 E382.55408
G1 X119.231 Y75.346 E382.824
G1 X119.624 Y76.641 E383.09407
G1 X120.261 Y77.834 E383.36396
G1 X121.12 Y78.88 E383.63407
G1 X122.166 Y79.739 E383.90417
G1 X123.359 Y80.376 E384.17406
G1 X124.654 Y80.769 E384.44413
G1 X126 Y80.902 E384.71405
G1 X127.346 Y80.769 E384.98397
G1 X128.641 Y80.376 E385.25404
G1 X129.834 Y79.739 E385.52392
G1 X130.88 Y78.88 E385.79403
G1 X131.739 Y77.834 E386.06414
G1 X132.376 Y76.641 E386.33403
G1 X132.769 Y75.346 E386.6041
G1 X132.902 Y74 E386.87401
G1 X132.769 Y72.654 E387.14393
G1 X132.376 Y71.359 E387.414
G1 X131.739 Y70.166 E387.68389
G1 X130.88 Y69.12 E387.954
G1 X129.834 Y68.261 E388.22411
G1 X128.641 Y67.624 E388.49399
G1 X127.346 Y67.231 E388.76406
G1 X126 Y67.098 E389.03398
G1 X124.654 Y67.231 E389.3039
G1 X123.359 Y67.624 E389.57397
G1 X122.166 Y68.261 E389.84386
G1 X121.12 Y69.12 E390.11396
G1 X120.261 Y70.166 E390.38407
G1 X119.624 Y71.359 E390.65396
G0 F7500 X119.566 Y71.55
G0 X118.725 Y71.295
G1 F1500 E384.15396
G0 F7500 X121.092 Y69.092
G0 X122.144 Y68.228
G0 X123.344 Y67.588
G0 X124.647 Y67.192
G0 X126 Y67.058
G0 X146 Y67.058
G0 X147.095 Y67.166
G0 X148.679 Y67.532
G0 X148.641 Y67.624
G1 F1500 E390.65396
G1 X147.346 Y67.231 E390.92403
G1 X146 Y67.098 E391.19395
G1 X144.654 Y67.231 E391.46386
G1 X143.359 Y67.624 E391.73393
G1 X142.166 Y68.261 E392.00382
G1 X141.12 Y69.12 E392.27393
G1 X140.261 Y70.166 E392.54404
G1 X139.624 Y71.359 E392.81393
G1 X139.231 Y72.654 E393.084
G1 X139.098 Y74 E393.35391
G1 X139.231 Y75.346 E393.62383
G1 X139.624 Y76.641 E393.8939
G1 X140.261 Y77.834 E394.16379
G1 X141.12 Y78.88 E394.4339
G1 X142.166 Y79.739 E394.704
G1 X143.359 Y80.376 E394.97389
G1 X144.654 Y80.769 E395.24396
G1 X146 Y80.902 E395.51388
G1 X147.346 Y80.769 E395.7838
G1 X148.641 Y80.376 E396.05387
G1 X149.834 Y79.739 E396.32375
G1 X150.88 Y78.88 E396.59386
G1 X151.739 Y77.834 E396.86397
G1 X152.376 Y76.641 E397.13386
G1 X152.769 Y75.346 E397.40393
G1 X152.902 Y74 E397.67385
G1 X152.769 Y72.654 E397.94376
G1 X152.376 Y71.359 E398.21383
G1 X151.739 Y70.166 E398.48372
G1 X150.88 Y69.12 E398.75383
G1 X149.834 Y68.261 E399.02394
G1 X148.641 Y67.624 E399.29383
G0 F7500 X148.45 Y67.566
G0 X148.705 Y66.725
G1 F1500 E392.79383
G0 F7500 X170.257 Y68.064
G0 X171.411 Y68.229
G0 X172.509 Y68.615
G0 X173.512 Y69.208
G0 X174.379 Y69.984
G0 X175.079 Y70.917
G0 X175.583 Y71.967
G0 X175.817 Y72.88
G0 X175.996 Y74.26
G0 X175.897 Y74.256
G1 F1500 E399.29383
G1 X175.833 Y73.101 E399.52467
G1 X175.546 Y71.98 E399.75559
G1 X175.045 Y70.937 E399.9865
G1 X174.35 Y70.011 E400.21756
G1 X173.489 Y69.24 E400.4482
G1 X172.493 Y68.651 E400.67911
G1 X171.402 Y68.267 E400.90993
G1 X170.256 Y68.103 E401.14095
G1 X169.101 Y68.167 E401.3718
G1 X167.98 Y68.454 E401.60272
G1 X166.937 Y68.955 E401.83363
G1 X166.011 Y69.65 E402.06468
G1 X165.24 Y70.511 E402.29533
G1 X164.651 Y71.507 E402.52624
G1 X164.267 Y72.599 E402.75725
G1 X164.103 Y73.751 E402.98946
G1 X164.167 Y74.899 E403.21891
G1 X164.454 Y76.02 E403.44983
G1 X164.955 Y77.063 E403.68074
G1 X165.65 Y77.989 E403.91179
G1 X166.511 Y78.76 E404.14244
G1 X167.507 Y79.349 E404.37335
G1 X168.598 Y79.733 E404.60417
G1 X169.744 Y79.897 E404.83519
G1 X170.899 Y79.833 E405.06604
G1 X172.02 Y79.546 E405.29696
G1 X173.063 Y79.045 E405.52787
G1 X173.989 Y78.35 E405.75892
G1 X174.76 Y77.489 E405.98956
G1 X175.349 Y76.493 E406.22048
G1 X175.733 Y75.402 E406.45129
G1 X175.897 Y74.256 E406.68232
G0 F7500 X175.886 Y74.057
G0 X176.765 Y74.01
G1 F1500 E400.18232
G0 F7500 X193.03 Y55.356
G0 X193.255 Y54.934
G0 X193.368 Y54.563
G0 X193.454 Y53.513
G0 X193.356 Y53.532
G1 F1500 E406.68232
G1 X193.219 Y53.081 E406.77638
G1 X192.997 Y52.666 E406.87031
G1 X192.698 Y52.302 E406.96431
G1 X192.334 Y52.003 E407.05832
G1 X191.919 Y51.781 E407.15224
G1 X191.468 Y51.644 E407.2463
G1 X191 Y51.598 E407.34015
G1 X190.532 Y51.644 E407.43399
G1 X190.081 Y51.781 E407.52805
G1 X189.666 Y52.003 E407.62198
G1 X189.302 Y52.302 E407.71598
G1 X189.003 Y52.666 E407.80999
G1 X188.781 Y53.081 E407.90391
G1 X188.644 Y53.533 E407.99816
G1 X188.598 Y54 E408.09181
G1 X188.644 Y54.468 E408.18565
G1 X188.781 Y54.919 E408.27972
G1 X189.003 Y55.334 E408.37364
G1 X189.302 Y55.698 E408.46764
G1 X189.666 Y55.997 E408.56165
G1 X190.081 Y56.219 E408.65557
G1 X190.532 Y56.356 E408.74964
G1 X191 Y56.402 E408.84348
G1 X191.468 Y56.356 E408.93732
G1 X191.919 Y56.219 E409.03139
G1 X192.334 Y55.997 E409.12531
G1 X192.698 Y55.698 E409.21931
G1 X192.997 Y55.334 E409.31332
G1 X193.219 Y54.919 E409.40724
G1 X193.356 Y54.468 E409.50131
G1 X193.402 Y54 E409.59515
G1 X193.356 Y53.532 E409.68899
G0 F7500 X193.298 Y53.341
G1 F1500 E403.18899
G0 F7500 X193.393 Y53.313
G0 X193.442 Y54
G0 X193.395 Y54.475
G0 X193.255 Y54.934
G0 X169.432 Y92.122
G0 X168.647 Y92.192
G0 X167.344 Y92.588
G0 X166.144 Y93.228
G0 X165.092 Y94.092
G0 X164.228 Y95.144
G0 X163.588 Y96.344
G0 X163.192 Y97.647
G0 X163.058 Y99
G0 X163.166 Y100.095
G0 X163.532 Y101.679
G0 X163.624 Y101.641
G1 F1500 E409.68899
G1 X164.261 Y102.834 E409.95888
G1 X165.12 Y103.88 E410.22899
G1 X166.166 Y104.739 E410.4991
G1 X167.359 Y105.376 E410.76899
G1 X168.654 Y105.769 E411.03906
G1 X170 Y105.902 E411.30897
G1 X171.346 Y105.769 E411.57889
G1 X172.641 Y105.376 E411.84896
G1 X173.834 Y104.739 E412.11885
G1 X174.88 Y103.88 E412.38896
G1 X175.739 Y102.834 E412.65907
G1 X176.376 Y101.641 E412.92895
G1 X176.769 Y100.346 E413.19902
G1 X176.902 Y99 E413.46894
G1 X176.769 Y97.654 E413.73886
G1 X176.376 Y96.359 E414.00893
G1 X175.739 Y95.166 E414.27882
G1 X174.88 Y94.12 E414.54892
G1 X173.834 Y93.261 E414.81903
G1 X172.641 Y92.624 E415.08892
G1 X171.346 Y92.231 E415.35899
G1 X170 Y92.098 E415.62891
G1 X168.654 Y92.231 E415.89882
G1 X167.359 Y92.624 E416.16889
G1 X166.166 Y93.261 E416.43878
G1 X165.12 Y94.12 E416.70889
G1 X164.261 Y95.166 E416.979
G1 X163.624 Y96.359 E417.24889
G1 X163.231 Y97.654 E417.51896
G1 X163.098 Y99 E417.78887
G1 X163.231 Y100.346 E418.05879
G1 X163.624 Y101.641 E418.32886
G0 F7500 X163.718 Y101.817
G0 X162.941 Y102.231
G1 F1500 E411.82886
G0 F7500 X171.365 Y112.133
G0 X171.346 Y112.231
G1 F1500 E418.32886
G1 X170 Y112.098 E418.59878
G1 X168.654 Y112.231 E418.86869
G1 X167.359 Y112.624 E419.13876
G1 X166.166 Y113.261 E419.40865
G1 X165.12 Y114.12 E419.67876
G1 X164.261 Y115.166 E419.94887
G1 X163.624 Y116.359 E420.21876
G1 X163.231 Y117.654 E420.48883
G1 X163.098 Y119 E420.75874
G1 X163.231 Y120.346 E421.02866
G1 X163.624 Y121.641 E421.29873
G1 X164.261 Y122.834 E421.56862
G1 X165.12 Y123.88 E421.83873
G1 X166.166 Y124.739 E422.10883
G1 X167.359 Y125.376 E422.37872
G1 X168.654 Y125.769 E422.64879
G1 X170 Y125.902 E422.91871
G1 X171.346 Y125.769 E423.18863
G1 X172.641 Y125.376 E423.45869
G1 X173.834 Y124.739 E423.72858
G1 X174.88 Y123.88 E423.99869
G1 X175.739 Y122.834 E424.2688
G1 X176.376 Y121.641 E424.53869
G1 X176.769 Y120.346 E424.80876
G1 X176.902 Y119 E425.07867
G1 X176.769 Y117.654 E425.34859
G1 X176.376 Y116.359 E425.61866
