;FLAVOR:Marlin
;TIME:7208
;Filament used: 4.98002m
;Layer height: 0.2
;MINX:61.469
;MINY:53.613
;MINZ:0.3
;MAXX:175.025
;MAXY:168.422
;MAXZ:10.5
;Generated with Cura_SteamEngine 4.8.0
M140 S80
M105
M190 S80
M104 S230
M105
M109 S230
M82 ;absolute extrusion mode
G28 ;Home
G1 Z15.0 F2000 ;Move the platform
G92 E0
G92 E0
G1 F1500 E-6.5
;LAYER_COUNT:52
;LAYER:0
M107
M204 S1000
G0 F7500 X139.641 Y60.307 Z0.3
;TYPE:SKIRT
G1 F1500 E0
G1 X139.898 Y59.89 E0.04888
G1 X140.219 Y59.521 E0.09768
G1 X140.596 Y59.208 E0.14657
G1 X141.018 Y58.961 E0.19536
G1 X141.438 Y58.797 E0.24035
G1 X142.519 Y58.466 E0.35315
G1 X143.088 Y58.351 E0.41108
G1 X144.257 Y58.23 E0.52834
G1 X144.537 Y58.214 E0.55633
G1 X145.942 Y58.2 E0.69653
G1 X146.276 Y58.144 E0.73032
G1 X146.619 Y57.934 E0.77045
G1 X147.073 Y57.751 E0.81929
G1 X147.551 Y57.643 E0.86819
G1 X148.042 Y57.615 E0.91726
G1 X149.402 Y57.649 E1.053
G1 X150.439 Y57.381 E1.15987
G1 X150.585 Y57.347 E1.17483
G1 X151.982 Y57.06 E1.31714
G1 X152.445 Y57.002 E1.3637
G1 X153.632 Y56.946 E1.48227
G1 X154.121 Y56.963 E1.53109
G1 X154.461 Y57.023 E1.56554
G1 X155.666 Y57.307 E1.68907
G1 X156.132 Y57.458 E1.73795
G1 X156.523 Y57.656 E1.78168
G1 X157.578 Y58.29 E1.90449
G1 X157.976 Y58.575 E1.95334
G1 X158.322 Y58.921 E2.00216
G1 X158.607 Y59.32 E2.05109
G1 X158.831 Y59.779 E2.10205
G1 X159.439 Y61.351 E2.27023
G1 X159.578 Y61.82 E2.31903
G1 X159.638 Y62.306 E2.3679
G1 X159.599 Y62.935 E2.43078
G1 X159.381 Y64.22 E2.56083
G1 X159.356 Y64.347 E2.57374
G1 X158.997 Y66.021 E2.74457
G1 X158.681 Y67.41 E2.88671
G1 X158.567 Y68.463 E2.99239
G1 X158.498 Y68.852 E3.03181
G1 X158.169 Y70.193 E3.16959
G1 X157.876 Y71.248 E3.27884
G1 X157.773 Y71.689 E3.32403
G1 X157.893 Y71.679 E3.33604
G1 X159.183 Y71.657 E3.46478
G1 X159.662 Y71.688 E3.51267
G1 X160.114 Y71.36 E3.5684
G1 X160.532 Y71.106 E3.6172
G1 X161.121 Y70.885 E3.67997
G1 X162.236 Y70.595 E3.79493
G1 X162.474 Y70.543 E3.81924
G1 X163.883 Y70.296 E3.96197
G1 X165.798 Y69.944 E4.15625
G1 X166.285 Y69.896 E4.20508
G1 X166.773 Y69.926 E4.25387
G1 X167.25 Y70.036 E4.30271
G1 X167.632 Y70.188 E4.34373
G1 X169.004 Y70.843 E4.49543
G1 X169.447 Y71.102 E4.54664
G1 X170.264 Y71.681 E4.64655
G1 X170.639 Y71.996 E4.69542
G1 X170.957 Y72.367 E4.74418
G1 X171.296 Y72.97 E4.8132
G1 X171.77 Y74.102 E4.93565
G1 X171.908 Y74.511 E4.97872
G1 X172.191 Y75.607 E5.09167
G1 X172.283 Y76.22 E5.15352
G1 X172.335 Y77.361 E5.26749
G1 X172.317 Y77.851 E5.31641
G1 X172.254 Y78.204 E5.35219
G1 X171.947 Y79.471 E5.48227
G1 X171.587 Y81.191 E5.65761
G1 X171.454 Y82.161 E5.75531
G1 X171.372 Y82.556 E5.79556
G1 X171.058 Y83.688 E5.91278
G1 X170.965 Y84.621 E6.00633
G1 X170.935 Y85.659 E6.10995
G1 X170.881 Y86.146 E6.15884
G1 X170.732 Y86.66 E6.21224
G1 X170.626 Y86.934 E6.24155
G1 X170.633 Y87.342 E6.28227
G1 X170.561 Y87.826 E6.33109
G1 X170.412 Y88.292 E6.37991
G1 X170.189 Y88.728 E6.42877
G1 X169.898 Y89.122 E6.47765
G1 X169.547 Y89.463 E6.52648
G1 X169.145 Y89.742 E6.5753
G1 X168.703 Y89.953 E6.62417
G1 X168.233 Y90.089 E6.67299
G1 X167.747 Y90.146 E6.72182
G1 X167.372 Y90.136 E6.75925
G1 X166.206 Y90.032 E6.87606
G1 X165.724 Y89.949 E6.92486
G1 X165.262 Y89.789 E6.97364
G1 X164.831 Y89.555 E7.02258
G1 X164.445 Y89.255 E7.07136
G1 X164.112 Y88.895 E7.12029
G1 X163.881 Y88.555 E7.1613
G1 X163.519 Y87.934 E7.23303
G1 X163.308 Y87.492 E7.2819
G1 X163.142 Y86.852 E7.34787
G1 X162.978 Y85.717 E7.4623
G1 X162.951 Y85.138 E7.52013
G1 X163.017 Y83.826 E7.65121
G1 X162.983 Y82.688 E7.76481
G1 X162.964 Y81.538 E7.87957
G1 X162.998 Y81.038 E7.92958
G1 X163.033 Y80.81 E7.9526
G1 X162.915 Y80.904 E7.96765
G1 X162.25 Y81.387 E8.04966
G1 X161.832 Y81.642 E8.09852
G1 X161.378 Y81.825 E8.14736
G1 X160.9 Y81.931 E8.19621
G1 X160.487 Y81.96 E8.23752
G1 X159.665 Y81.96 E8.31954
G1 X159.177 Y81.92 E8.3684
G1 X158.702 Y81.801 E8.41726
G1 X158.253 Y81.607 E8.46606
G1 X157.9 Y81.386 E8.50762
G1 X157.235 Y80.902 E8.58969
G1 X156.864 Y80.582 E8.63857
G1 X156.55 Y80.207 E8.68738
G1 X156.371 Y79.904 E8.72249
G1 X155.647 Y79.94 E8.79482
G1 X155.158 Y79.924 E8.84364
G1 X154.889 Y79.881 E8.87082
G1 X154.13 Y79.723 E8.94818
G1 X153.66 Y79.585 E8.99705
G1 X153.219 Y79.371 E9.04596
G1 X152.819 Y79.09 E9.09474
G1 X152.47 Y78.746 E9.14364
G1 X152.182 Y78.351 E9.19241
G1 X151.885 Y77.704 E9.26345
G1 X151.837 Y77.555 E9.27907
G1 X150.951 Y77.067 E9.38
G1 X150.543 Y76.797 E9.42881
G1 X150.184 Y76.464 E9.47767
G1 X149.884 Y76.077 E9.52653
G1 X149.652 Y75.646 E9.57537
G1 X149.492 Y75.183 E9.62425
G1 X149.408 Y74.689 E9.67425
G1 X149.298 Y73.373 E9.80602
G1 X149.298 Y72.883 E9.85491
G1 X149.355 Y72.493 E9.89424
G1 X149.589 Y71.402 E10.00558
G1 X149.845 Y69.88 E10.15957
G1 X150.144 Y68.336 E10.3165
G1 X150.189 Y67.207 E10.42924
G1 X150.197 Y67.078 E10.44214
G1 X150.267 Y66.237 E10.52634
G1 X150.021 Y66.276 E10.55119
G1 X149.533 Y66.313 E10.60003
G1 X149.16 Y66.288 E10.63733
G1 X148.142 Y66.155 E10.73977
G1 X147.075 Y66.214 E10.8464
G1 X145.863 Y66.291 E10.96757
G1 X144.212 Y66.406 E11.13271
G1 X143.755 Y66.403 E11.17831
G1 X142.329 Y66.284 E11.32109
G1 X141.846 Y66.203 E11.36996
G1 X141.382 Y66.045 E11.41887
G1 X140.951 Y65.814 E11.46766
G1 X140.563 Y65.516 E11.51648
G1 X140.086 Y64.964 E11.58927
G1 X139.558 Y64.176 E11.68392
G1 X139.319 Y63.748 E11.73283
G1 X139.154 Y63.288 E11.78159
G1 X139.065 Y62.806 E11.8305
G1 X139.056 Y62.317 E11.8793
G1 X139.19 Y61.6 E11.95208
G1 X139.456 Y60.76 E12.04
G1 X139.641 Y60.307 E12.08882
G0 F7500 X140.012 Y60.46
G1 F1500 X140.258 Y60.077 E12.13424
G1 X140.567 Y59.742 E12.17972
G1 X140.93 Y59.466 E12.22522
G1 X141.335 Y59.258 E12.27065
G1 X141.555 Y59.18 E12.29394
G1 X142.636 Y58.849 E12.40674
G1 X143.129 Y58.749 E12.45694
G1 X144.298 Y58.628 E12.5742
G1 X144.541 Y58.614 E12.59849
G1 X145.974 Y58.6 E12.74148
G1 X146.421 Y58.525 E12.78671
G1 X146.437 Y58.513 E12.7887
G1 X146.827 Y58.278 E12.83414
G1 X147.253 Y58.114 E12.87968
G1 X147.7 Y58.028 E12.9251
G1 X148.032 Y58.015 E12.95826
G1 X149.45 Y58.05 E13.09979
G1 X150.539 Y57.769 E13.21201
G1 X150.666 Y57.739 E13.22503
G1 X152.063 Y57.452 E13.36733
G1 X152.463 Y57.402 E13.40756
G1 X153.65 Y57.346 E13.52613
G1 X154.106 Y57.364 E13.57166
G1 X154.369 Y57.412 E13.59834
G1 X155.574 Y57.696 E13.72187
G1 X156.007 Y57.839 E13.76737
G1 X156.317 Y57.998 E13.80213
G1 X157.372 Y58.632 E13.92495
G1 X157.741 Y58.9 E13.97045
G1 X158.057 Y59.229 E14.01597
G1 X158.311 Y59.607 E14.06141
G1 X158.458 Y59.923 E14.09618
G1 X159.066 Y61.495 E14.26436
G1 X159.192 Y61.933 E14.30984
G1 X159.241 Y62.386 E14.3553
G1 X159.204 Y62.868 E14.40354
G1 X158.986 Y64.153 E14.53359
G1 X158.965 Y64.263 E14.54476
G1 X158.607 Y65.933 E14.71518
G1 X158.285 Y67.348 E14.85998
G1 X158.169 Y68.42 E14.96757
G1 X158.11 Y68.757 E15.00171
G1 X157.805 Y70.006 E15.12999
G1 X157.492 Y71.136 E15.24699
G1 X157.256 Y72.153 E15.35117
G1 X157.56 Y72.108 E15.38183
G1 X157.9 Y72.079 E15.41588
G1 X159.19 Y72.057 E15.54461
G1 X159.644 Y72.09 E15.59003
G1 X159.754 Y72.116 E15.60131
G1 X160.349 Y71.684 E15.67468
G1 X160.739 Y71.45 E15.72006
G1 X161.222 Y71.272 E15.77142
G1 X162.337 Y70.982 E15.88638
G1 X162.543 Y70.937 E15.90742
G1 X163.977 Y70.686 E16.05268
G1 X165.87 Y70.338 E16.24473
G1 X166.324 Y70.295 E16.29023
G1 X166.778 Y70.332 E16.33568
G1 X167.218 Y70.448 E16.38109
G1 X167.46 Y70.549 E16.40725
G1 X168.832 Y71.204 E16.55895
G1 X169.215 Y71.429 E16.60327
G1 X170.032 Y72.008 E16.70319
G1 X170.38 Y72.303 E16.74871
G1 X170.67 Y72.654 E16.79414
G1 X170.927 Y73.125 E16.84768
G1 X171.401 Y74.257 E16.97013
G1 X171.52 Y74.611 E17.0074
G1 X171.803 Y75.707 E17.12034
G1 X171.883 Y76.239 E17.17402
G1 X171.935 Y77.38 E17.28799
G1 X171.916 Y77.835 E17.33343
G1 X171.865 Y78.11 E17.36134
G1 X171.562 Y79.362 E17.48987
G1 X171.192 Y81.127 E17.66981
G1 X171.058 Y82.106 E17.76841
G1 X170.987 Y82.449 E17.80336
G1 X170.663 Y83.616 E17.9242
G1 X170.566 Y84.599 E18.02276
G1 X170.535 Y85.648 E18.12748
G1 X170.482 Y86.1 E18.17289
G1 X170.359 Y86.515 E18.21608
G1 X170.22 Y86.872 E18.25431
G1 X170.229 Y86.923 E18.25947
G1 X170.229 Y87.379 E18.30497
G1 X170.149 Y87.827 E18.35038
G1 X169.992 Y88.255 E18.39587
G1 X169.762 Y88.649 E18.44139
G1 X169.468 Y88.996 E18.48677
G1 X169.117 Y89.287 E18.53227
G1 X168.721 Y89.512 E18.57771
G1 X168.291 Y89.665 E18.62325
G1 X167.842 Y89.74 E18.66867
G1 X167.408 Y89.738 E18.71198
G1 X166.242 Y89.634 E18.82879
G1 X165.793 Y89.554 E18.87429
G1 X165.366 Y89.396 E18.91972
G1 X164.972 Y89.167 E18.96519
G1 X164.625 Y88.872 E19.01064
G1 X164.227 Y88.353 E19.0759
G1 X163.865 Y87.732 E19.14762
G1 X163.671 Y87.32 E19.19306
G1 X163.538 Y86.795 E19.2471
G1 X163.374 Y85.66 E19.36153
G1 X163.35 Y85.158 E19.41167
G1 X163.417 Y83.821 E19.54525
G1 X163.383 Y82.681 E19.65905
G1 X163.364 Y81.531 E19.77381
G1 X163.393 Y81.098 E19.81711
G1 X163.632 Y79.521 E19.97626
G1 X163.63 Y79.271 E20.00121
G1 X163.586 Y79.39 E20.01387
G1 X163.39 Y79.801 E20.0593
G1 X163.124 Y80.171 E20.10477
G1 X162.68 Y80.581 E20.16507
G1 X162.015 Y81.064 E20.24708
G1 X161.624 Y81.298 E20.29255
G1 X161.199 Y81.461 E20.33797
G1 X160.751 Y81.547 E20.38349
G1 X160.487 Y81.56 E20.40986
G1 X159.665 Y81.56 E20.49188
G1 X159.211 Y81.52 E20.53736
G1 X158.771 Y81.402 E20.58281
G1 X158.359 Y81.208 E20.62825
G1 X158.135 Y81.062 E20.65493
G1 X157.47 Y80.578 E20.737
G1 X157.127 Y80.279 E20.7824
G1 X156.841 Y79.924 E20.82789
G1 X156.621 Y79.525 E20.87335
G1 X156.609 Y79.493 E20.87676
G1 X155.628 Y79.541 E20.97476
G1 X154.97 Y79.489 E21.04062
G1 X154.211 Y79.331 E21.11798
G1 X153.775 Y79.2 E21.1634
G1 X153.368 Y78.994 E21.20892
G1 X153.004 Y78.721 E21.25432
G1 X152.693 Y78.388 E21.29979
G1 X152.445 Y78.006 E21.34523
G1 X152.266 Y77.582 E21.39115
G1 X152.169 Y77.282 E21.42261
G1 X151.144 Y76.717 E21.5394
G1 X150.766 Y76.463 E21.58484
G1 X150.437 Y76.147 E21.63035
G1 X150.169 Y75.778 E21.67586
G1 X149.97 Y75.368 E21.72133
G1 X149.845 Y74.93 E21.76678
G1 X149.807 Y74.656 E21.79438
G1 X149.697 Y73.34 E21.92615
G1 X149.699 Y72.884 E21.97165
G1 X149.746 Y72.577 E22.00264
G1 X149.985 Y71.465 E22.11613
G1 X150.251 Y69.883 E22.2762
G1 X150.543 Y68.375 E22.42946
G1 X150.589 Y67.223 E22.5445
G1 X150.596 Y67.111 E22.5557
G1 X150.687 Y66.012 E22.66573
G1 X150.681 Y65.766 E22.69029
G1 X149.958 Y65.881 E22.76334
G1 X149.503 Y65.913 E22.80885
G1 X149.212 Y65.891 E22.83797
G1 X148.161 Y65.753 E22.94374
G1 X147.05 Y65.815 E23.05476
G1 X145.836 Y65.892 E23.17614
G1 X144.185 Y66.007 E23.34128
G1 X143.788 Y66.004 E23.38089
G1 X142.362 Y65.885 E23.52367
G1 X141.913 Y65.807 E23.56915
G1 X141.484 Y65.653 E23.61463
G1 X141.089 Y65.426 E23.66008
G1 X140.74 Y65.133 E23.70555
G1 X140.418 Y64.741 E23.75617
G1 X139.89 Y63.953 E23.85082
G1 X139.671 Y63.554 E23.89623
G1 X139.524 Y63.123 E23.94167
G1 X139.455 Y62.672 E23.98719
G1 X139.466 Y62.217 E24.03261
G1 X139.571 Y61.721 E24.0832
G1 X139.837 Y60.881 E24.17111
G1 X140.012 Y60.46 E24.2166
G0 F7500 X140.383 Y60.616
G1 F1500 X140.617 Y60.269 E24.25837
G1 X140.913 Y59.972 E24.30021
G1 X141.259 Y59.736 E24.342
G1 X141.672 Y59.562 E24.38671
G1 X142.753 Y59.231 E24.49952
G1 X143.17 Y59.147 E24.54196
G1 X144.339 Y59.026 E24.65923
G1 X144.545 Y59.014 E24.67982
G1 X146.014 Y59 E24.8264
G1 X146.579 Y58.904 E24.88359
G1 X146.673 Y58.836 E24.89516
G1 X147.033 Y58.622 E24.93695
G1 X147.428 Y58.481 E24.9788
G1 X148.022 Y58.415 E25.03843
G1 X149.495 Y58.451 E25.18546
G1 X150.639 Y58.156 E25.30334
G1 X150.746 Y58.131 E25.3143
G1 X152.143 Y57.844 E25.45661
G1 X152.482 Y57.801 E25.4907
G1 X153.669 Y57.745 E25.60927
G1 X154.278 Y57.802 E25.67031
G1 X155.483 Y58.086 E25.79384
G1 X155.88 Y58.22 E25.83564
G1 X156.111 Y58.341 E25.86166
G1 X157.166 Y58.975 E25.98448
G1 X157.503 Y59.224 E26.02629
G1 X157.787 Y59.533 E26.06816
G1 X158.085 Y60.067 E26.12918
G1 X158.693 Y61.639 E26.29736
G1 X158.806 Y62.043 E26.33922
G1 X158.841 Y62.46 E26.38097
G1 X158.81 Y62.801 E26.41514
G1 X158.592 Y64.086 E26.54519
G1 X158.574 Y64.179 E26.55464
G1 X158.217 Y65.844 E26.72455
G1 X157.889 Y67.285 E26.87201
G1 X157.771 Y68.377 E26.98161
G1 X157.721 Y68.662 E27.01048
G1 X157.399 Y69.978 E27.14566
G1 X157.099 Y71.057 E27.25741
G1 X156.732 Y72.636 E27.41916
G1 X157.619 Y72.503 E27.50866
G1 X157.906 Y72.479 E27.53739
G1 X159.196 Y72.457 E27.66613
G1 X159.614 Y72.49 E27.70797
G1 X159.843 Y72.546 E27.73149
G1 X160.584 Y72.008 E27.82286
G1 X160.945 Y71.795 E27.86468
G1 X161.322 Y71.659 E27.90467
G1 X162.437 Y71.369 E28.01963
G1 X162.612 Y71.331 E28.0375
G1 X164.027 Y71.083 E28.18084
G1 X165.942 Y70.731 E28.37512
G1 X166.36 Y70.695 E28.41698
G1 X166.777 Y70.739 E28.45882
G1 X167.288 Y70.91 E28.51259
G1 X168.66 Y71.565 E28.66429
G1 X168.984 Y71.755 E28.70177
G1 X169.801 Y72.334 E28.80168
G1 X170.118 Y72.608 E28.84349
G1 X170.378 Y72.937 E28.88533
G1 X170.558 Y73.279 E28.9239
G1 X171.032 Y74.411 E29.04635
G1 X171.133 Y74.711 E29.07793
G1 X171.416 Y75.807 E29.19088
G1 X171.484 Y76.257 E29.23629
G1 X171.536 Y77.398 E29.35026
G1 X171.476 Y78.016 E29.41221
G1 X171.169 Y79.282 E29.5422
G1 X170.8 Y81.047 E29.72212
G1 X170.662 Y82.052 E29.82334
G1 X170.602 Y82.342 E29.85289
G1 X170.268 Y83.545 E29.97746
G1 X170.166 Y84.576 E30.08084
G1 X170.135 Y85.636 E30.18665
G1 X170.083 Y86.052 E30.22848
G1 X169.986 Y86.37 E30.26166
G1 X169.806 Y86.832 E30.31113
G1 X169.833 Y86.991 E30.32722
G1 X169.823 Y87.41 E30.36904
G1 X169.734 Y87.82 E30.4109
G1 X169.569 Y88.205 E30.4527
G1 X169.333 Y88.551 E30.49449
G1 X169.036 Y88.847 E30.53633
G1 X168.689 Y89.081 E30.57809
G1 X168.303 Y89.245 E30.61994
G1 X167.893 Y89.333 E30.66178
G1 X167.444 Y89.339 E30.70658
G1 X166.278 Y89.235 E30.82339
G1 X165.866 Y89.158 E30.86521
G1 X165.476 Y89.005 E30.90701
G1 X165.122 Y88.78 E30.94887
G1 X164.817 Y88.493 E30.99065
G1 X164.572 Y88.152 E31.03255
G1 X164.21 Y87.531 E31.10427
G1 X164.035 Y87.15 E31.14611
G1 X163.934 Y86.738 E31.18844
G1 X163.77 Y85.603 E31.30286
G1 X163.75 Y85.178 E31.34532
G1 X163.817 Y83.829 E31.48009
G1 X163.783 Y82.674 E31.59538
G1 X163.764 Y81.524 E31.71015
G1 X163.789 Y81.158 E31.74675
G1 X164.033 Y79.553 E31.90874
G1 X164.025 Y78.562 E32.00762
G1 X164.04 Y78.384 E32.02545
G1 X163.453 Y78.607 E32.0881
G1 X163.212 Y79.25 E32.15662
G1 X163.028 Y79.626 E32.19839
G1 X162.776 Y79.961 E32.24022
G1 X162.445 Y80.257 E32.28452
G1 X161.78 Y80.74 E32.36653
G1 X161.419 Y80.953 E32.40836
G1 X161.024 Y81.093 E32.45017
G1 X160.487 Y81.16 E32.50417
G1 X159.665 Y81.16 E32.58619
G1 X159.248 Y81.12 E32.62799
G1 X158.846 Y81.002 E32.66979
G1 X158.37 Y80.739 E32.72406
G1 X157.705 Y80.255 E32.80612
G1 X157.392 Y79.977 E32.84789
G1 X157.136 Y79.645 E32.88973
G1 X156.908 Y79.157 E32.94347
G1 X156.882 Y79.076 E32.95196
G1 X156.789 Y79.083 E32.96127
G1 X155.608 Y79.141 E33.07925
G1 X155.052 Y79.098 E33.13489
G1 X154.293 Y78.94 E33.21225
G1 X153.892 Y78.816 E33.25413
G1 X153.523 Y78.618 E33.29591
G1 X153.198 Y78.354 E33.33769
G1 X152.928 Y78.033 E33.37955
G1 X152.725 Y77.666 E33.4214
G1 X152.647 Y77.459 E33.44347
G1 X152.499 Y76.999 E33.49168
G1 X152.423 Y76.964 E33.50003
G1 X151.337 Y76.366 E33.62374
G1 X150.991 Y76.13 E33.66553
G1 X150.696 Y75.832 E33.70737
G1 X150.462 Y75.484 E33.74921
G1 X150.299 Y75.098 E33.79102
G1 X150.206 Y74.622 E33.83941
G1 X150.096 Y73.306 E33.97118
G1 X150.101 Y72.887 E34.01299
G1 X150.137 Y72.661 E34.03583
G1 X150.376 Y71.55 E34.14922
G1 X150.644 Y69.959 E34.31021
G1 X150.942 Y68.421 E34.46652
G1 X150.989 Y67.239 E34.58456
G1 X150.995 Y67.144 E34.59405
G1 X151.088 Y66.026 E34.70599
G1 X151.07 Y65.303 E34.77816
G1 X150.944 Y65.319 E34.79083
G1 X149.895 Y65.486 E34.89682
G1 X149.477 Y65.512 E34.93861
G1 X149.264 Y65.494 E34.95994
G1 X148.181 Y65.352 E35.06892
G1 X147.024 Y65.416 E35.18454
G1 X145.794 Y65.494 E35.30752
G1 X144.157 Y65.608 E35.47126
G1 X143.821 Y65.605 E35.50479
G1 X142.395 Y65.486 E35.64757
G1 X141.983 Y65.412 E35.68933
G1 X141.592 Y65.261 E35.73116
G1 X141.237 Y65.038 E35.77299
G1 X140.931 Y64.752 E35.81478
G1 X140.75 Y64.519 E35.84422
G1 X140.222 Y63.731 E35.93887
G1 X140.023 Y63.362 E35.9807
G1 X139.898 Y62.962 E36.02251
G1 X139.85 Y62.546 E36.0643
G1 X139.883 Y62.128 E36.10613
G1 X139.953 Y61.842 E36.13551
G1 X140.219 Y61.002 E36.22343
