;FLAVOR:Marlin
;TIME:12560
;Filament used: 29.0935m
;Layer height: 0.4
;MINX:44.319
;MINY:59.464
;MINZ:0.3
;MAXX:167.672
;MAXY:160.536
;MAXZ:79.9
;Generated with Cura_SteamEngine 4.8.0
M140 S80
M105
M190 S80
M104 S230
M105
M109 S230
M82 ;absolute extrusion mode
G28 ;Home
G1 Z15.0 F2000 ;Move the platform
G92 E0
G92 E0
G1 F1500 E-6.5
;LAYER_COUNT:200
;LAYER:0
M107
M204 S1000
G0 F7500 X53.163 Y76.557 Z0.3
;TYPE:SKIRT
G1 F1500 E0
G1 X53.546 Y76.327 E0.11144
G1 X53.964 Y76.169 E0.22291
G1 X54.404 Y76.089 E0.33447
G1 X54.634 Y76.078 E0.39191
G1 X59.15 Y76.078 E1.51843
G1 X59.595 Y76.118 E1.62989
G1 X60.026 Y76.236 E1.74136
G1 X60.429 Y76.43 E1.85293
G1 X60.621 Y76.557 E1.91035
G1 X63.163 Y78.407 E2.69461
G1 X63.192 Y78.432 E2.70416
G1 X63.192 Y72.586 E4.16245
G1 X63.218 Y72.228 E4.25199
G1 X63.229 Y72.152 E4.27114
G1 X63.311 Y71.784 E4.36519
G1 X63.86 Y69.974 E4.83701
G1 X63.949 Y69.728 E4.90227
G1 X64.067 Y69.475 E4.9719
G1 X64.972 Y67.784 E5.45034
G1 X65.109 Y67.557 E5.51648
G1 X65.271 Y67.335 E5.58503
G1 X66.479 Y65.863 E6.06004
G1 X66.68 Y65.645 E6.13401
G1 X66.862 Y65.481 E6.19512
G1 X68.335 Y64.272 E6.67048
G1 X68.546 Y64.116 E6.73594
G1 X68.782 Y63.973 E6.80477
G1 X70.475 Y63.067 E7.28376
G1 X70.733 Y62.947 E7.35474
G1 X70.973 Y62.861 E7.41834
G1 X72.794 Y62.309 E7.893
G1 X73.038 Y62.248 E7.95574
G1 X73.325 Y62.203 E8.02821
G1 X75.231 Y62.015 E8.50597
G1 X75.524 Y62.003 E8.57912
G1 X75.769 Y62.015 E8.64031
G1 X77.675 Y62.203 E9.11807
G1 X77.962 Y62.248 E9.19054
G1 X78.206 Y62.309 E9.25327
G1 X80.027 Y62.861 E9.72794
G1 X80.267 Y62.947 E9.79153
G1 X80.525 Y63.067 E9.86251
G1 X82.216 Y63.972 E10.34094
G1 X82.443 Y64.109 E10.40708
G1 X82.665 Y64.271 E10.47564
G1 X84.137 Y65.479 E10.95065
G1 X84.355 Y65.68 E11.02461
G1 X84.519 Y65.862 E11.08573
G1 X85.728 Y67.335 E11.56109
G1 X85.884 Y67.546 E11.62655
G1 X86.027 Y67.782 E11.69538
G1 X86.933 Y69.475 E12.17437
G1 X87.053 Y69.733 E12.24535
G1 X87.139 Y69.972 E12.30871
G1 X87.689 Y71.784 E12.78108
G1 X87.769 Y72.137 E12.87137
G1 X87.78 Y72.21 E12.88978
G1 X87.808 Y72.583 E12.98309
G1 X87.808 Y78.265 E14.40047
G1 X87.979 Y78.128 E14.45513
G1 X89.612 Y76.939 E14.95902
G1 X89.996 Y76.709 E15.07068
G1 X90.414 Y76.552 E15.18206
G1 X90.853 Y76.471 E15.29342
G1 X91.085 Y76.46 E15.35136
G1 X93.46 Y76.461 E15.9438
G1 X93.905 Y76.501 E16.05526
G1 X94.336 Y76.62 E16.16679
G1 X94.738 Y76.813 E16.27803
G1 X94.954 Y76.957 E16.34279
G1 X99.918 Y80.662 E17.88794
G1 X100.118 Y80.816 E17.95091
G1 X104.417 Y79.155 E19.10056
G1 X105.035 Y79.003 E19.25931
G1 X111.245 Y78.296 E20.81841
G1 X112.871 Y77.144 E21.3155
G1 X113.257 Y76.919 E21.42695
G1 X113.677 Y76.767 E21.53837
G1 X114.117 Y76.692 E21.64971
G1 X114.455 Y76.688 E21.73403
G1 X119.394 Y76.964 E22.96799
G1 X120.043 Y77.087 E23.13277
G1 X121.101 Y77.438 E23.41083
G1 X124.22 Y75.687 E24.30309
G1 X127.189 Y72.915 E25.31634
G1 X127.541 Y72.64 E25.42776
G1 X127.937 Y72.433 E25.53923
G1 X128.363 Y72.299 E25.65063
G1 X128.895 Y72.242 E25.78409
G1 X130.692 Y72.242 E26.23236
G1 X131.137 Y72.282 E26.34381
G1 X131.568 Y72.4 E26.45528
G1 X131.971 Y72.594 E26.56685
G1 X132.192 Y72.754 E26.63491
G1 X132.192 Y72.586 E26.67682
G1 X132.218 Y72.228 E26.76636
G1 X132.229 Y72.152 E26.78551
G1 X132.311 Y71.784 E26.87956
G1 X132.86 Y69.974 E27.35138
G1 X132.949 Y69.728 E27.41664
G1 X133.067 Y69.475 E27.48628
G1 X133.972 Y67.784 E27.96471
G1 X134.109 Y67.557 E28.03085
G1 X134.271 Y67.335 E28.0994
G1 X135.479 Y65.863 E28.57441
G1 X135.68 Y65.645 E28.64838
G1 X135.862 Y65.481 E28.70949
G1 X137.335 Y64.272 E29.18485
G1 X137.546 Y64.116 E29.25031
G1 X137.782 Y63.973 E29.31914
G1 X139.475 Y63.067 E29.79813
G1 X139.733 Y62.947 E29.86911
G1 X139.973 Y62.861 E29.93271
G1 X141.794 Y62.309 E30.40737
G1 X142.038 Y62.248 E30.47011
G1 X142.325 Y62.203 E30.54258
G1 X144.231 Y62.015 E31.02034
G1 X144.524 Y62.003 E31.09349
G1 X144.769 Y62.015 E31.15468
G1 X146.675 Y62.203 E31.63244
G1 X146.962 Y62.248 E31.70491
G1 X147.206 Y62.309 E31.76765
G1 X149.027 Y62.861 E32.24231
G1 X149.267 Y62.947 E32.3059
G1 X149.525 Y63.067 E32.37688
G1 X151.216 Y63.972 E32.85532
G1 X151.443 Y64.109 E32.92145
G1 X151.665 Y64.271 E32.99001
G1 X153.137 Y65.479 E33.46502
G1 X153.355 Y65.68 E33.53899
G1 X153.519 Y65.862 E33.6001
G1 X154.728 Y67.335 E34.07546
G1 X154.884 Y67.546 E34.14092
G1 X155.027 Y67.782 E34.20975
G1 X155.933 Y69.475 E34.68874
G1 X156.053 Y69.733 E34.75972
G1 X156.139 Y69.972 E34.82308
G1 X156.689 Y71.784 E35.29545
G1 X156.769 Y72.137 E35.38574
G1 X156.792 Y72.367 E35.4434
G1 X157.116 Y72.152 E35.5404
G1 X157.526 Y71.974 E35.65189
G1 X157.961 Y71.873 E35.76329
G1 X158.308 Y71.849 E35.85006
G1 X160.127 Y71.849 E36.30381
G1 X160.572 Y71.889 E36.41526
G1 X161.003 Y72.007 E36.52673
G1 X161.406 Y72.201 E36.6383
G1 X161.598 Y72.328 E36.69573
G1 X163.249 Y73.53 E37.20516
G1 X163.586 Y73.824 E37.31672
G1 X163.864 Y74.173 E37.42802
G1 X164.076 Y74.567 E37.53963
G1 X164.155 Y74.778 E37.59583
G1 X164.785 Y76.715 E38.10393
G1 X164.885 Y77.15 E38.21527
G1 X164.906 Y77.597 E38.3269
G1 X164.846 Y78.039 E38.43817
G1 X164.785 Y78.261 E38.4956
G1 X164.155 Y80.198 E39.0037
G1 X163.98 Y80.609 E39.11513
G1 X163.734 Y80.982 E39.22659
G1 X163.426 Y81.305 E39.33792
G1 X163.249 Y81.446 E39.39437
G1 X161.598 Y82.648 E39.9038
G1 X161.215 Y82.878 E40.01525
G1 X160.797 Y83.035 E40.12663
G1 X160.358 Y83.116 E40.23799
G1 X160.127 Y83.127 E40.29568
G1 X158.308 Y83.127 E40.74943
G1 X157.863 Y83.087 E40.86088
G1 X157.432 Y82.969 E40.97235
G1 X157.029 Y82.775 E41.08392
G1 X156.808 Y82.615 E41.15198
G1 X156.808 Y147.414 E57.31616
G1 X156.782 Y147.772 E57.4057
G1 X156.771 Y147.848 E57.42485
G1 X156.689 Y148.216 E57.5189
G1 X156.14 Y150.026 E57.99072
G1 X156.051 Y150.272 E58.05598
G1 X155.933 Y150.525 E58.12562
G1 X155.028 Y152.216 E58.60405
G1 X154.891 Y152.443 E58.67019
G1 X154.729 Y152.665 E58.73874
G1 X153.521 Y154.137 E59.21375
G1 X153.32 Y154.355 E59.28772
G1 X153.138 Y154.519 E59.34883
G1 X151.665 Y155.728 E59.82419
G1 X151.454 Y155.884 E59.88965
G1 X151.218 Y156.027 E59.95848
G1 X149.525 Y156.933 E60.43747
G1 X149.267 Y157.053 E60.50845
G1 X149.027 Y157.139 E60.57205
G1 X147.206 Y157.691 E61.04671
G1 X146.962 Y157.752 E61.10945
G1 X146.675 Y157.797 E61.18192
G1 X144.769 Y157.985 E61.65968
G1 X144.476 Y157.997 E61.73283
G1 X144.231 Y157.985 E61.79402
G1 X142.325 Y157.797 E62.27178
G1 X142.038 Y157.752 E62.34425
G1 X141.794 Y157.691 E62.40698
G1 X139.973 Y157.139 E62.88165
G1 X139.733 Y157.053 E62.94524
G1 X139.475 Y156.933 E63.01622
G1 X137.782 Y156.027 E63.49521
G1 X137.546 Y155.884 E63.56405
G1 X137.335 Y155.728 E63.6295
G1 X135.862 Y154.519 E64.10486
G1 X135.644 Y154.319 E64.17866
G1 X135.479 Y154.137 E64.23994
G1 X134.271 Y152.665 E64.71495
G1 X134.109 Y152.443 E64.78351
G1 X133.972 Y152.216 E64.84965
G1 X133.067 Y150.525 E65.32808
G1 X132.949 Y150.272 E65.39772
G1 X132.86 Y150.026 E65.46297
G1 X132.311 Y148.216 E65.93479
G1 X132.231 Y147.863 E66.02508
G1 X132.22 Y147.79 E66.0435
G1 X132.192 Y147.417 E66.13681
G1 X132.192 Y96.889 E78.74107
G1 X131.996 Y97.159 E78.82429
G1 X131.702 Y97.495 E78.93566
G1 X131.353 Y97.774 E79.04712
G1 X130.96 Y97.986 E79.15851
G1 X130.536 Y98.125 E79.26982
G1 X130.154 Y98.183 E79.3662
G1 X125.044 Y98.551 E80.64419
G1 X124.597 Y98.543 E80.75572
G1 X124.09 Y98.434 E80.88508
G1 X122.598 Y97.948 E81.27651
G1 X122.288 Y98.049 E81.35784
G1 X121.852 Y98.149 E81.46942
G1 X121.199 Y98.152 E81.63232
G1 X118.358 Y97.791 E82.3467
G1 X118.118 Y97.92 E82.41467
G1 X117.693 Y98.059 E82.52622
G1 X117.251 Y98.12 E82.63752
G1 X116.82 Y98.103 E82.74511
G1 X112.977 Y97.62 E83.7113
G1 X112.927 Y97.609 E83.72407
G1 X112.642 Y97.763 E83.80488
G1 X112.217 Y97.901 E83.91634
G1 X111.775 Y97.962 E84.02764
G1 X111.312 Y97.941 E84.14326
G1 X107.489 Y97.409 E85.1061
G1 X107.054 Y97.308 E85.2175
G1 X107.007 Y97.288 E85.23024
G1 X106.768 Y97.366 E85.29295
G1 X109.563 Y99.268 E86.13629
G1 X109.908 Y99.552 E86.24776
G1 X110.197 Y99.892 E86.35907
G1 X110.422 Y100.278 E86.47052
G1 X110.533 Y100.561 E86.54635
G1 X111.93 Y104.852 E87.67205
G1 X112.03 Y105.288 E87.78363
G1 X112.051 Y105.734 E87.89501
G1 X111.992 Y106.177 E88.00649
G1 X111.93 Y106.4 E88.06423
G1 X110.533 Y110.691 E89.18992
G1 X110.357 Y111.102 E89.30145
G1 X110.111 Y111.475 E89.41291
G1 X109.803 Y111.798 E89.52424
G1 X109.627 Y111.938 E89.58034
G1 X105.972 Y114.598 E90.70798
G1 X105.589 Y114.828 E90.81942
G1 X105.171 Y114.986 E90.93089
G1 X104.731 Y115.066 E91.04245
G1 X104.501 Y115.077 E91.09989
G1 X99.985 Y115.077 E92.22641
G1 X99.54 Y115.037 E92.33786
G1 X99.109 Y114.919 E92.44933
G1 X98.706 Y114.725 E92.5609
G1 X98.514 Y114.598 E92.61833
G1 X94.859 Y111.938 E93.74596
G1 X94.523 Y111.644 E93.85733
G1 X94.244 Y111.295 E93.96879
G1 X94.093 Y111.034 E94.04401
G1 X92.224 Y107.291 E95.08763
G1 X91.547 Y106.799 E95.2964
G1 X91.211 Y106.505 E95.40777
G1 X90.932 Y106.156 E95.51923
G1 X90.72 Y105.762 E95.63084
G1 X90.609 Y105.444 E95.71485
G1 X88.96 Y99.486 E97.25696
G1 X88.879 Y99.046 E97.36856
G1 X88.879 Y98.6 E97.47982
G1 X88.992 Y98.045 E97.6211
G1 X89.021 Y97.957 E97.64421
G1 X88.724 Y97.886 E97.72039
G1 X88.301 Y97.743 E97.83177
G1 X87.91 Y97.527 E97.9432
G1 X87.808 Y97.444 E97.97601
G1 X87.808 Y147.414 E110.44107
G1 X87.782 Y147.772 E110.53061
G1 X87.771 Y147.848 E110.54977
G1 X87.689 Y148.216 E110.64382
G1 X87.14 Y150.026 E111.11563
G1 X87.051 Y150.272 E111.18089
G1 X86.933 Y150.525 E111.25053
G1 X86.028 Y152.216 E111.72896
G1 X85.891 Y152.443 E111.7951
G1 X85.729 Y152.665 E111.86366
G1 X84.521 Y154.137 E112.33867
G1 X84.32 Y154.355 E112.41263
G1 X84.138 Y154.519 E112.47375
G1 X82.665 Y155.728 E112.94911
G1 X82.454 Y155.884 E113.01456
G1 X82.218 Y156.027 E113.0834
G1 X80.525 Y156.933 E113.56239
G1 X80.267 Y157.053 E113.63337
G1 X80.027 Y157.139 E113.69696
G1 X78.206 Y157.691 E114.17163
G1 X77.962 Y157.752 E114.23437
G1 X77.675 Y157.797 E114.30683
G1 X75.769 Y157.985 E114.78459
G1 X75.476 Y157.997 E114.85774
G1 X75.231 Y157.985 E114.91893
G1 X73.325 Y157.797 E115.39669
G1 X73.038 Y157.752 E115.46916
G1 X72.794 Y157.691 E115.5319
G1 X70.973 Y157.139 E116.00656
G1 X70.733 Y157.053 E116.07016
G1 X70.475 Y156.933 E116.14114
G1 X68.782 Y156.027 E116.62013
G1 X68.546 Y155.884 E116.68896
G1 X68.335 Y155.728 E116.75442
G1 X66.862 Y154.519 E117.22978
G1 X66.644 Y154.319 E117.30358
G1 X66.479 Y154.137 E117.36486
G1 X65.271 Y152.665 E117.83987
G1 X65.109 Y152.443 E117.90842
G1 X64.972 Y152.216 E117.97456
G1 X64.067 Y150.525 E118.45299
G1 X63.949 Y150.272 E118.52263
G1 X63.86 Y150.026 E118.58789
G1 X63.311 Y148.216 E119.05971
G1 X63.231 Y147.863 E119.15
G1 X63.22 Y147.79 E119.16841
G1 X63.192 Y147.417 E119.26172
G1 X63.192 Y92.624 E132.92989
G1 X63.163 Y92.651 E132.93977
G1 X60.621 Y94.501 E133.72403
G1 X60.238 Y94.731 E133.83547
G1 X59.82 Y94.889 E133.94694
G1 X59.38 Y94.969 E134.0585
G1 X59.15 Y94.98 E134.11594
G1 X54.634 Y94.98 E135.24246
G1 X54.189 Y94.94 E135.35391
G1 X53.758 Y94.822 E135.46538
G1 X53.355 Y94.628 E135.57695
G1 X53.163 Y94.501 E135.63438
G1 X49.508 Y91.841 E136.76201
G1 X49.172 Y91.547 E136.87339
G1 X48.893 Y91.198 E136.98484
G1 X48.681 Y90.805 E137.09623
G1 X48.602 Y90.594 E137.15243
G1 X47.205 Y86.303 E138.27813
G1 X47.105 Y85.867 E138.38971
G1 X47.084 Y85.421 E138.50109
G1 X47.143 Y84.978 E138.61257
G1 X47.205 Y84.755 E138.67031
G1 X48.602 Y80.464 E139.796
G1 X48.778 Y80.053 E139.90753
G1 X49.024 Y79.68 E140.01899
G1 X49.332 Y79.357 E140.13032
G1 X49.508 Y79.217 E140.18642
G1 X53.163 Y76.557 E141.31406
G0 F7500 X53.751 Y77.365
G1 F1500 X54.053 Y77.195 E141.40051
G1 X54.385 Y77.099 E141.48672
G1 X54.634 Y77.078 E141.54905
G1 X59.15 Y77.078 E142.67557
G1 X59.494 Y77.118 E142.76196
G1 X59.819 Y77.235 E142.84813
G1 X60.033 Y77.365 E142.91059
G1 X62.575 Y79.215 E143.69484
G1 X62.829 Y79.45 E143.78116
G1 X63.023 Y79.736 E143.86737
G1 X63.146 Y80.059 E143.95359
G1 X63.192 Y80.428 E144.04635
G1 X63.192 Y90.63 E146.59125
G1 X63.152 Y90.974 E146.67764
G1 X63.035 Y91.299 E146.7638
G1 X62.846 Y91.589 E146.85015
G1 X62.575 Y91.843 E146.9428
G1 X60.033 Y93.693 E147.72706
G1 X59.731 Y93.863 E147.81351
G1 X59.399 Y93.959 E147.89972
G1 X59.15 Y93.98 E147.96205
G1 X54.634 Y93.98 E149.08857
G1 X54.29 Y93.94 E149.17496
G1 X53.965 Y93.823 E149.26113
G1 X53.751 Y93.693 E149.32359
G1 X50.096 Y91.033 E150.45122
G1 X49.842 Y90.798 E150.53754
G1 X49.648 Y90.512 E150.62375
G1 X49.553 Y90.284 E150.68536
G1 X48.156 Y85.993 E151.81105
G1 X48.087 Y85.654 E151.89735
G1 X48.098 Y85.309 E151.98346
G1 X48.156 Y85.065 E152.04602
G1 X49.553 Y80.774 E153.17171
G1 X49.697 Y80.459 E153.25811
G1 X49.909 Y80.186 E153.34433
G1 X50.096 Y80.025 E153.40589
G1 X53.751 Y77.365 E154.53352
G0 F7500 X54.34 Y78.174
G1 F1500 X54.634 Y78.078 E154.61067
G1 X59.15 Y78.078 E155.73719
G1 X59.444 Y78.174 E155.81434
G1 X61.986 Y80.024 E156.5986
G1 X62.121 Y80.171 E156.64838
G1 X62.192 Y80.428 E156.71489
G1 X62.192 Y90.63 E159.25979
G1 X62.152 Y90.825 E159.30945
G1 X61.986 Y91.034 E159.37603
G1 X59.444 Y92.884 E160.16028
G1 X59.15 Y92.98 E160.23743
G1 X54.634 Y92.98 E161.36395
G1 X54.34 Y92.884 E161.4411
G1 X50.685 Y90.224 E162.56874
G1 X50.504 Y89.975 E162.64553
G1 X49.107 Y85.684 E163.77122
G1 X49.107 Y85.374 E163.84855
G1 X50.504 Y81.083 E164.97424
G1 X50.685 Y80.834 E165.05103
G1 X54.34 Y78.174 E166.17867
G0 F7500 X54.796 Y79.078
G1 F1500 X58.988 Y79.078 E167.22437
G1 X61.192 Y80.682 E167.90434
G1 X61.192 Y90.376 E170.32252
G1 X58.988 Y91.98 E171.00249
G1 X54.796 Y91.98 E172.04819
G1 X51.404 Y89.511 E173.09475
G1 X50.107 Y85.529 E174.13942
G1 X51.404 Y81.547 E175.1841
G1 X54.796 Y79.078 E176.23065
G0 F7500 X55.123 Y80.078
G1 F1500 X58.661 Y80.078 E177.11321
G1 X60.192 Y81.192 E177.58552
G1 X60.192 Y89.866 E179.74926
G1 X58.661 Y90.98 E180.22157
G1 X55.123 Y90.98 E181.10413
G1 X52.254 Y88.892 E181.98927
G1 X51.159 Y85.529 E182.87152
G1 X52.254 Y82.166 E183.75378
G1 X55.123 Y80.078 E184.63892
G0 F7500 X55.447 Y81.078
G1 F1500 X58.337 Y81.078 E185.35983
G1 X59.192 Y81.7 E185.62358
G1 X59.192 Y89.358 E187.53388
G1 X58.337 Y89.98 E187.79762
G1 X55.447 Y89.98 E188.51854
G1 X53.105 Y88.276 E189.24102
G1 X52.211 Y85.529 E189.96164
G1 X53.105 Y82.782 E190.68226
G1 X55.447 Y81.078 E191.40474
G0 F7500 X55.773 Y82.078
G1 F1500 X58.011 Y82.078 E191.96302
G1 X58.192 Y82.21 E192.0189
G1 X58.192 Y88.848 E193.67475
G1 X58.011 Y88.98 E193.73064
G1 X55.773 Y88.98 E194.28891
G1 X53.956 Y87.657 E194.84958
G1 X53.263 Y85.529 E195.40785
G1 X53.956 Y83.401 E195.96612
G1 X55.773 Y82.078 E196.52679
G0 F7500 X56.098 Y83.078
G1 F1500 X57.192 Y83.078 E196.79969
G1 X57.192 Y87.98 E198.0225
G1 X56.098 Y87.98 E198.2954
G1 X54.807 Y87.04 E198.69376
G1 X54.315 Y85.529 E199.09016
G1 X54.807 Y84.018 E199.48656
G1 X56.098 Y83.078 E199.88492
G0 F7500 X56.192 Y84.246
G1 F1500 X56.192 Y86.812 E200.52502
G1 X55.657 Y86.423 E200.69002
G1 X55.366 Y85.529 E200.92455
G1 X55.657 Y84.635 E201.15907
G1 X56.192 Y84.246 E201.32408
G1 F1500 E194.82408
G0 F7500 X60.652 Y72.586
G0 X64.192 Y72.586
G1 F1500 E201.32408
G1 X64.218 Y72.295 E201.39696
G1 X64.268 Y72.075 E201.45324
G1 X64.817 Y70.265 E201.92505
G1 X64.948 Y69.947 E202.01085
G1 X65.853 Y68.256 E202.48928
G1 X66.044 Y67.969 E202.57528
G1 X67.252 Y66.497 E203.05029
G1 X67.496 Y66.254 E203.13619
G1 X68.969 Y65.045 E203.61155
G1 X69.254 Y64.854 E203.69713
G1 X70.947 Y63.948 E204.17612
G1 X71.263 Y63.818 E204.26136
G1 X73.084 Y63.266 E204.73602
G1 X73.423 Y63.198 E204.82227
G1 X75.329 Y63.01 E205.30003
G1 X75.671 Y63.01 E205.38534
G1 X77.577 Y63.198 E205.8631
G1 X77.916 Y63.266 E205.94935
G1 X79.737 Y63.818 E206.42401
G1 X80.053 Y63.948 E206.50925
G1 X81.744 Y64.853 E206.98768
G1 X82.031 Y65.044 E207.07368
G1 X83.503 Y66.252 E207.54869
G1 X83.746 Y66.496 E207.63459
G1 X84.955 Y67.969 E208.10995
G1 X85.146 Y68.254 E208.19553
G1 X86.052 Y69.947 E208.67452
G1 X86.182 Y70.262 E208.75953
G1 X86.732 Y72.074 E209.2319
G1 X86.791 Y72.359 E209.3045
G1 X86.808 Y72.583 E209.36053
G1 X86.808 Y147.414 E228.0272
G1 X86.782 Y147.705 E228.10008
G1 X86.732 Y147.925 E228.15636
G1 X86.183 Y149.735 E228.62818
G1 X86.052 Y150.053 E228.71397
G1 X85.147 Y151.744 E229.19241
