;FLAVOR:Marlin
;TIME:7066
;Filament used: 14.3315m
;Layer height: 0.3
;MINX:21.961
;MINY:21.961
;MINZ:0.3
;MAXX:198.039
;MAXY:198.039
;MAXZ:6.3
;Generated with Cura_SteamEngine 4.8.0
M140 S80
M105
M190 S80
M104 S230
M105
M109 S230
M82 ;absolute extrusion mode
G28 ;Home
G1 Z15.0 F2000 ;Move the platform
G92 E0
G92 E0
G1 F1500 E-8
;LAYER_COUNT:21
;LAYER:0
M107
M204 S1000
G0 F9000 X93.145 Y23.334 Z0.3
;TYPE:SKIRT
G1 F1500 E0
G1 F3000 X93.626 Y22.866 E0.06696
G1 X94.016 Y22.544 E0.11743
G1 X94.451 Y22.286 E0.16789
G1 X94.921 Y22.1 E0.21833
G1 X95.414 Y21.991 E0.26871
G1 X95.919 Y21.961 E0.31919
G1 X96.422 Y22.01 E0.36961
G1 X96.911 Y22.138 E0.42005
G1 X97.374 Y22.342 E0.47053
G1 X97.799 Y22.616 E0.52099
G1 X98.054 Y22.832 E0.55433
G1 X98.35 Y23.113 E0.59506
G1 X196.666 Y121.429 E14.46851
G1 X197.134 Y121.91 E14.53547
G1 X197.456 Y122.3 E14.58594
G1 X197.714 Y122.735 E14.6364
G1 X197.9 Y123.205 E14.68684
G1 X198.009 Y123.698 E14.73721
G1 X198.039 Y124.203 E14.78769
G1 X197.99 Y124.706 E14.83812
G1 X197.862 Y125.195 E14.88856
G1 X197.658 Y125.658 E14.93904
G1 X197.384 Y126.083 E14.9895
G1 X197.17 Y126.336 E15.02256
G1 X196.893 Y126.628 E15.06272
G1 X126.863 Y196.657 E24.94464
G1 X126.374 Y197.133 E25.01273
G1 X125.985 Y197.456 E25.06318
G1 X125.55 Y197.714 E25.11365
G1 X125.08 Y197.899 E25.16405
G1 X124.586 Y198.009 E25.21454
G1 X124.082 Y198.039 E25.26492
G1 X123.579 Y197.99 E25.31535
G1 X123.089 Y197.862 E25.36588
G1 X122.627 Y197.658 E25.41628
G1 X122.202 Y197.385 E25.46668
G1 X121.939 Y197.161 E25.50115
G1 X121.643 Y196.879 E25.54194
G1 X23.337 Y98.572 E39.41405
G1 X22.869 Y98.092 E39.48094
G1 X22.546 Y97.703 E39.53139
G1 X22.288 Y97.268 E39.58186
G1 X22.101 Y96.798 E39.63233
G1 X21.991 Y96.305 E39.68273
G1 X21.961 Y95.8 E39.73321
G1 X22.01 Y95.297 E39.78364
G1 X22.137 Y94.808 E39.83405
G1 X22.34 Y94.345 E39.88449
G1 X22.614 Y93.92 E39.93495
G1 X22.83 Y93.664 E39.96837
G1 X23.107 Y93.372 E40.00853
G1 X93.145 Y23.334 E49.89165
G1 F1500 E41.89165
;MESH:driver-case-board.stl
G0 F9000 X95.846 Y26.035
G0 X101.546 Y42.852
;TYPE:WALL-INNER
G1 F1500 E49.89165
G1 X99.366 Y40.672 E50.19927
G1 X96.301 Y41.017 E50.50703
G1 X94.66 Y43.628 E50.81474
G1 X95.678 Y46.54 E51.12254
G1 X98.59 Y47.558 E51.43034
G1 X101.201 Y45.917 E51.73805
G1 X101.546 Y42.852 E52.04581
G0 F9000 X101.127 Y42.999
G1 F1500 X99.219 Y41.091 E52.31505
G1 X96.537 Y41.393 E52.58435
G1 X95.101 Y43.678 E52.85364
G1 X95.992 Y46.226 E53.12297
G1 X98.54 Y47.117 E53.39231
G1 X100.825 Y45.681 E53.66159
G1 X101.127 Y42.999 E53.93089
G0 F9000 X100.708 Y43.146
G1 F1500 X99.072 Y41.51 E54.16175
G1 X96.773 Y41.769 E54.3926
G1 X95.542 Y43.728 E54.62346
G1 X96.306 Y45.912 E54.85433
G1 X98.49 Y46.676 E55.0852
G1 X100.449 Y45.445 E55.31605
G1 X100.708 Y43.146 E55.5469
G0 F9000 X100.289 Y43.293
;TYPE:WALL-OUTER
G1 F1500 X98.925 Y41.929 E55.73938
G1 X97.009 Y42.145 E55.93177
G1 X95.983 Y43.778 E56.1242
G1 X96.62 Y45.598 E56.3166
G1 X98.44 Y46.235 E56.509
G1 X100.073 Y45.209 E56.70144
G1 X100.289 Y43.293 E56.89383
G0 F9000 X100.148 Y43.152
G0 X100.459 Y42.841
G1 F1500 E48.89383
G0 F9000 X100.501 Y42.799
G0 X100.745 Y43.133
G0 X97.237 Y70.691
G0 X97.294 Y72.823
;TYPE:WALL-INNER
G1 F1500 E56.89383
G1 X99.426 Y73.706 E57.12408
G1 X101.557 Y72.823 E57.35424
G1 X102.442 Y70.691 E57.58458
G1 X101.557 Y68.56 E57.81482
G1 X99.426 Y67.675 E58.04506
G1 X97.294 Y68.56 E58.27539
G1 X96.411 Y70.691 E58.50555
G1 X97.294 Y72.823 E58.73581
G0 F9000 X97.6 Y72.517
G1 F1500 X99.426 Y73.273 E58.933
G1 X101.251 Y72.517 E59.13011
G1 X102.009 Y70.691 E59.32738
G1 X101.251 Y68.866 E59.52456
G1 X99.426 Y68.108 E59.72174
G1 X97.6 Y68.866 E59.91902
G1 X96.844 Y70.691 E60.11612
G1 X97.6 Y72.517 E60.31332
G0 F9000 X97.906 Y72.211
G1 F1500 X99.426 Y72.84 E60.47746
G1 X100.945 Y72.211 E60.64151
G1 X101.576 Y70.691 E60.80572
G1 X100.945 Y69.172 E60.96985
G1 X99.426 Y68.541 E61.13397
G1 X97.906 Y69.172 E61.29819
G1 X97.277 Y70.691 E61.46223
G1 X97.906 Y72.211 E61.62637
G0 F9000 X98.212 Y71.905
;TYPE:WALL-OUTER
G1 F1500 X99.426 Y72.407 E61.75745
G1 X100.639 Y71.905 E61.88844
G1 X101.143 Y70.691 E62.0196
G1 X100.639 Y69.478 E62.15067
G1 X99.426 Y68.974 E62.28173
G1 X98.212 Y69.478 E62.41289
G1 X97.71 Y70.691 E62.54388
G1 X98.212 Y71.905 E62.67496
G0 F9000 X98.396 Y71.981
G0 X98.227 Y72.387
G1 F1500 E54.67496
G0 F9000 X98.204 Y72.442
G0 X66.765 Y98.842
G0 X65.298 Y100.39
;TYPE:WALL-INNER
G1 F1500 E62.67496
G1 X66.181 Y102.521 E62.90512
G1 X68.313 Y103.406 E63.13545
G1 X70.445 Y102.521 E63.36579
G1 X71.328 Y100.39 E63.59595
G1 X70.445 Y98.258 E63.8262
G1 X68.313 Y97.375 E64.05646
G1 X66.181 Y98.258 E64.28671
G1 X65.298 Y100.39 E64.51697
G0 F9000 X65.731 Y100.39
G1 F1500 X66.487 Y102.215 E64.71407
G1 X68.313 Y102.973 E64.91135
G1 X70.139 Y102.215 E65.10862
G1 X70.895 Y100.39 E65.30573
G1 X70.139 Y98.564 E65.50292
G1 X68.313 Y97.808 E65.70012
G1 X66.487 Y98.564 E65.89732
G1 X65.731 Y100.39 E66.09452
G0 F9000 X66.164 Y100.39
G1 F1500 X66.793 Y101.909 E66.25856
G1 X68.313 Y102.54 E66.42278
G1 X69.833 Y101.909 E66.58699
G1 X70.462 Y100.39 E66.75104
G1 X69.833 Y98.87 E66.91518
G1 X68.313 Y98.241 E67.07932
G1 X66.793 Y98.87 E67.24346
G1 X66.164 Y100.39 E67.4076
G0 F9000 X66.597 Y100.39
;TYPE:WALL-OUTER
G1 F1500 X67.099 Y101.603 E67.53859
G1 X68.313 Y102.107 E67.66975
G1 X69.527 Y101.603 E67.8009
G1 X70.029 Y100.39 E67.93189
G1 X69.527 Y99.176 E68.06297
G1 X68.313 Y98.674 E68.19405
G1 X67.099 Y99.176 E68.32514
G1 X66.597 Y100.39 E68.45622
G0 F9000 X66.673 Y100.574
G0 X66.267 Y100.741
G0 X66.211 Y100.764
G0 X44.143 Y102.006
;TYPE:WALL-INNER
G1 F1500 X46.754 Y100.364 E68.76398
G1 X47.099 Y97.3 E69.07164
G1 X44.919 Y95.119 E69.37933
G1 X41.854 Y95.465 E69.6871
G1 X40.213 Y98.075 E69.99472
G1 X41.231 Y100.987 E70.30253
G1 X44.143 Y102.006 E70.61036
G0 F9000 X44.093 Y101.565
G1 F1500 X46.378 Y100.128 E70.8797
G1 X46.68 Y97.447 E71.1489
G1 X44.772 Y95.538 E71.41821
G1 X42.09 Y95.841 E71.68753
G1 X40.654 Y98.125 E71.95673
G1 X41.545 Y100.673 E72.22606
G1 X44.093 Y101.565 E72.49543
G0 F9000 X44.043 Y101.124
G1 F1500 X46.002 Y99.892 E72.72634
G1 X46.261 Y97.594 E72.95709
G1 X44.625 Y95.957 E73.18802
G1 X42.326 Y96.217 E73.41888
G1 X41.095 Y98.175 E73.64965
G1 X41.859 Y100.359 E73.88052
G1 X44.043 Y101.124 E74.11142
G0 F9000 X43.993 Y100.683
;TYPE:WALL-OUTER
G1 F1500 X45.626 Y99.656 E74.30391
G1 X45.842 Y97.741 E74.4962
G1 X44.478 Y96.376 E74.68875
G1 X42.562 Y96.593 E74.88115
G1 X41.536 Y98.225 E75.0735
G1 X42.173 Y100.045 E75.2659
G1 X43.993 Y100.683 E75.45833
G0 F9000 X44.162 Y100.577
G0 X44.395 Y100.949
G1 F1500 E67.45833
G0 F9000 X44.427 Y101
G0 X102.066 Y137.159
;TYPE:WALL-INNER
G1 F1500 E75.45833
G1 X102.951 Y139.291 E75.68866
G1 X105.082 Y140.174 E75.91883
G1 X107.214 Y139.291 E76.14908
G1 X108.097 Y137.159 E76.37934
G1 X107.214 Y135.028 E76.6095
G1 X105.082 Y134.143 E76.83983
G1 X102.951 Y135.028 E77.07007
G1 X102.066 Y137.159 E77.30031
G0 F9000 X102.499 Y137.159
G1 F1500 X103.257 Y138.985 E77.49759
G1 X105.082 Y139.741 E77.69469
G1 X106.908 Y138.985 E77.89189
G1 X107.664 Y137.159 E78.08909
G1 X106.908 Y135.334 E78.28619
G1 X105.082 Y134.576 E78.48346
G1 X103.257 Y135.334 E78.68065
G1 X102.499 Y137.159 E78.87783
G0 F9000 X102.932 Y137.159
G1 F1500 X103.563 Y138.679 E79.04204
G1 X105.082 Y139.308 E79.20609
G1 X106.602 Y138.679 E79.37023
G1 X107.231 Y137.159 E79.53437
G1 X106.602 Y135.64 E79.69842
G1 X105.082 Y135.009 E79.86263
G1 X103.563 Y135.64 E80.02676
G1 X102.932 Y137.159 E80.19088
G0 F9000 X103.365 Y137.159
;TYPE:WALL-OUTER
G1 F1500 X103.869 Y138.373 E80.32204
G1 X105.082 Y138.875 E80.45303
G1 X106.296 Y138.373 E80.58411
G1 X106.798 Y137.159 E80.71519
G1 X106.296 Y135.946 E80.84618
G1 X105.082 Y135.442 E80.97733
G1 X103.869 Y135.946 E81.1084
G1 X103.365 Y137.159 E81.23947
G0 F9000 X103.441 Y137.343
G0 X103.035 Y137.51
G1 F1500 E73.23947
G0 F9000 X102.979 Y137.532
G0 X102.892 Y137.159
G0 X103.535 Y135.612
G0 X127.013 Y119.492
;TYPE:WALL-INNER
G1 F1500 E81.23947
G1 X127.896 Y117.36 E81.46972
G1 X127.013 Y115.229 E81.69988
G1 X124.881 Y114.344 E81.93022
G1 X122.75 Y115.229 E82.16046
G1 X121.865 Y117.36 E82.3907
G1 X122.75 Y119.492 E82.62103
G1 X124.881 Y120.375 E82.85119
G1 X127.013 Y119.492 E83.08145
G0 F9000 X126.707 Y119.186
G1 F1500 X127.463 Y117.36 E83.27864
G1 X126.707 Y115.535 E83.47575
G1 X124.881 Y114.777 E83.67302
G1 X123.056 Y115.535 E83.8702
G1 X122.298 Y117.36 E84.06738
G1 X123.056 Y119.186 E84.26466
G1 X124.881 Y119.942 E84.46176
G1 X126.707 Y119.186 E84.65896
G0 F9000 X126.401 Y118.88
G1 F1500 X127.03 Y117.36 E84.8231
G1 X126.401 Y115.841 E84.98715
G1 X124.881 Y115.21 E85.15136
G1 X123.362 Y115.841 E85.31549
G1 X122.731 Y117.36 E85.47961
G1 X123.362 Y118.88 E85.64383
G1 X124.881 Y119.509 E85.80787
G1 X126.401 Y118.88 E85.97201
G0 F9000 X126.095 Y118.574
;TYPE:WALL-OUTER
G1 F1500 X126.597 Y117.36 E86.10309
G1 X126.095 Y116.147 E86.23408
G1 X124.881 Y115.643 E86.36524
G1 X123.668 Y116.147 E86.4963
G1 X123.164 Y117.36 E86.62737
G1 X123.668 Y118.574 E86.75853
G1 X124.881 Y119.076 E86.88952
G1 X126.095 Y118.574 E87.0206
G0 F9000 X126.171 Y118.39
G0 X126.577 Y118.559
G0 X126.632 Y118.582
G0 X152.459 Y120.708
;TYPE:WALL-INNER
G1 F1500 X150.327 Y121.593 E87.25093
G1 X149.444 Y123.724 E87.48109
G1 X150.327 Y125.856 E87.71135
G1 X152.459 Y126.739 E87.9416
G1 X154.59 Y125.856 E88.17177
G1 X155.475 Y123.724 E88.4021
G1 X154.59 Y121.593 E88.63234
G1 X152.459 Y120.708 E88.86258
G0 F9000 X152.459 Y121.141
G1 F1500 X150.633 Y121.899 E89.05985
G1 X149.877 Y123.724 E89.25696
G1 X150.633 Y125.55 E89.45415
G1 X152.459 Y126.306 E89.65135
G1 X154.284 Y125.55 E89.84846
G1 X155.042 Y123.724 E90.04573
G1 X154.284 Y121.899 E90.24291
G1 X152.459 Y121.141 E90.44009
G0 F9000 X152.459 Y121.574
G1 F1500 X150.939 Y122.205 E90.60431
G1 X150.31 Y123.724 E90.76836
G1 X150.939 Y125.244 E90.9325
G1 X152.459 Y125.873 E91.09663
G1 X153.978 Y125.244 E91.26068
G1 X154.609 Y123.724 E91.4249
G1 X153.978 Y122.205 E91.58902
G1 X152.459 Y121.574 E91.75314
G0 F9000 X152.459 Y122.007
;TYPE:WALL-OUTER
G1 F1500 X151.245 Y122.511 E91.8843
G1 X150.743 Y123.724 E92.01529
G1 X151.245 Y124.938 E92.14637
G1 X152.459 Y125.44 E92.27745
G1 X153.672 Y124.938 E92.40844
G1 X154.176 Y123.724 E92.5396
G1 X153.672 Y122.511 E92.67067
G1 X152.459 Y122.007 E92.80173
G0 F9000 X152.275 Y122.083
G0 X152.108 Y121.677
G0 X152.086 Y121.621
G0 X152.387 Y121.551
G0 X176.372 Y125.34
;TYPE:WALL-INNER
G1 F1500 X178.983 Y123.699 E93.10944
G1 X179.328 Y120.634 E93.4172
G1 X177.148 Y118.454 E93.72482
G1 X174.083 Y118.799 E94.03258
G1 X172.442 Y121.41 E94.34029
G1 X173.46 Y124.322 E94.64809
G1 X176.372 Y125.34 E94.95589
G0 F9000 X176.322 Y124.899
G1 F1500 X178.607 Y123.463 E95.22518
G1 X178.909 Y120.781 E95.49448
G1 X177.001 Y118.873 E95.76372
G1 X174.319 Y119.175 E96.03302
G1 X172.883 Y121.46 E96.30231
G1 X173.774 Y124.008 E96.57164
G1 X176.322 Y124.899 E96.84098
G0 F9000 X176.272 Y124.458
G1 F1500 X178.231 Y123.227 E97.07184
G1 X178.49 Y120.928 E97.30268
G1 X176.854 Y119.292 E97.53354
G1 X174.555 Y119.551 E97.76439
G1 X173.324 Y121.51 E97.99525
G1 X174.088 Y123.694 E98.22611
G1 X176.272 Y124.458 E98.45698
G0 F9000 X176.222 Y124.017
;TYPE:WALL-OUTER
G1 F1500 X177.855 Y122.991 E98.64942
G1 X178.071 Y121.075 E98.84181
G1 X176.707 Y119.711 E99.03428
G1 X174.791 Y119.927 E99.22667
G1 X173.765 Y121.56 E99.41911
G1 X174.402 Y123.38 E99.61151
G1 X176.222 Y124.017 E99.80391
G0 F9000 X176.391 Y123.911
G0 X176.624 Y124.283
G1 F1500 E91.80391
G0 F9000 X176.656 Y124.334
G0 X124.881 Y175.081
;TYPE:WALL-INNER
G1 F1500 E99.80391
G1 X122.7 Y172.901 E100.1116
G1 X119.636 Y173.246 E100.41926
G1 X117.994 Y175.857 E100.72702
G1 X119.013 Y178.769 E101.03486
G1 X121.925 Y179.787 E101.34266
G1 X124.535 Y178.146 E101.65029
G1 X124.881 Y175.081 E101.95806
G0 F9000 X124.462 Y175.228
G1 F1500 X122.553 Y173.32 E102.22737
G1 X119.872 Y173.622 E102.49657
G1 X118.435 Y175.907 E102.76591
G1 X119.327 Y178.455 E103.03528
G1 X121.875 Y179.346 E103.30461
G1 X124.159 Y177.91 E103.57381
G1 X124.462 Y175.228 E103.84313
G0 F9000 X124.043 Y175.375
G1 F1500 X122.406 Y173.739 E104.07405
G1 X120.108 Y173.998 E104.3048
G1 X118.876 Y175.957 E104.53571
G1 X119.641 Y178.141 E104.76662
G1 X121.825 Y178.905 E104.99748
G1 X123.783 Y177.674 E105.22826
G1 X124.043 Y175.375 E105.45912
G0 F9000 X123.624 Y175.522
;TYPE:WALL-OUTER
G1 F1500 X122.259 Y174.158 E105.65166
G1 X120.344 Y174.374 E105.84395
G1 X119.317 Y176.007 E106.03644
G1 X119.955 Y177.827 E106.22887
G1 X121.775 Y178.464 E106.42128
G1 X123.407 Y177.438 E106.61362
G1 X123.624 Y175.522 E106.80603
G0 F9000 X123.483 Y175.381
G0 X123.794 Y175.071
G1 F1500 E98.80603
G0 F9000 X123.837 Y175.029
G0 X192.873 Y124.142
;TYPE:WALL-INNER
G1 F1500 E106.80603
G1 X124.142 Y192.873 E116.50471
G1 X27.127 Y95.858 E130.19458
G1 X95.858 Y27.127 E139.89326
G1 X192.873 Y124.142 E153.58313
G0 F9000 X193.439 Y124.142
G1 F1500 X124.142 Y193.439 E163.36168
G1 X26.561 Y95.858 E177.13142
G1 X95.858 Y26.561 E186.90997
G1 X193.439 Y124.142 E200.67971
G0 F9000 X194.005 Y124.142
G1 F1500 X124.142 Y194.005 E210.53813
G1 X25.995 Y95.858 E224.38773
G1 X95.858 Y25.995 E234.24615
G1 X194.005 Y124.142 E248.09576
G0 F9000 X194.571 Y124.142
;TYPE:WALL-OUTER
G1 F1500 X124.142 Y194.571 E258.03405
G1 X25.429 Y95.858 E271.96352
G1 X95.858 Y25.429 E281.90181
G1 X194.571 Y124.142 E295.83128
G0 F9000 X194.43 Y124.283
G0 X193.949 Y124.142
G0 X193.907 Y124.184
G0 X192.323 Y124.142
;TYPE:SKIN
G1 F1500 X124.142 Y192.323 E305.45236
G1 X27.677 Y95.858 E319.06461
G1 X95.858 Y27.677 E328.68569
G1 X192.323 Y124.142 E342.29794
G0 F9000 X179.35 Y123.929
G1 F1500 X179.737 Y120.491 E342.64315
G1 X177.291 Y118.045 E342.98831
G1 X173.853 Y118.432 E343.33352
G1 X172.011 Y121.361 E343.67877
G1 X173.154 Y124.628 E344.02413
G1 X176.421 Y125.771 E344.36948
G1 X179.35 Y123.929 E344.71473
G0 F9000 X176.276 Y124.497
G0 X155.898 Y123.724
G1 F1500 X154.888 Y121.295 E344.97721
G1 X152.459 Y120.285 E345.2397
G1 X150.029 Y121.295 E345.50227
G1 X149.022 Y123.724 E345.76464
G1 X150.029 Y126.154 E346.0271
G1 X152.459 Y127.161 E346.28956
G1 X154.888 Y126.154 E346.55193
G1 X155.898 Y123.724 E346.81451
G0 F9000 X154.006 Y122.177
G0 X152.614 Y121.599
G0 X128.318 Y117.36
G1 F1500 X127.311 Y114.931 E347.07688
G1 X124.881 Y113.921 E347.33946
G1 X122.452 Y114.931 E347.60194
G1 X121.442 Y117.36 E347.86442
G1 X122.452 Y119.79 E348.127
G1 X124.881 Y120.797 E348.38937
G1 X127.311 Y119.79 E348.65183
G1 X128.318 Y117.36 E348.91429
G0 F9000 X108.519 Y137.159
G1 F1500 X107.512 Y134.73 E349.17666
G1 X105.082 Y133.72 E349.43924
G1 X102.653 Y134.73 E349.70172
G1 X101.643 Y137.159 E349.9642
G1 X102.653 Y139.589 E350.22678
G1 X105.082 Y140.596 E350.48915
G1 X107.512 Y139.589 E350.75161
G1 X108.519 Y137.159 E351.01407
G1 F1500 E343.01407
G0 F9000 X125.29 Y174.938
G1 F1500 E351.01407
G1 X122.843 Y172.492 E351.3593
G1 X119.406 Y172.879 E351.70441
G1 X117.563 Y175.808 E352.04971
G1 X118.707 Y179.075 E352.3951
G1 X121.974 Y180.218 E352.74046
G1 X124.902 Y178.376 E353.08562
G1 X125.29 Y174.938 E353.43084
G1 F1500 E345.43084
G0 F9000 X71.75 Y100.39
G1 F1500 E353.43084
G1 X70.743 Y97.96 E353.6933
G1 X68.313 Y96.953 E353.95577
G1 X65.883 Y97.96 E354.21823
G1 X64.876 Y100.39 E354.48069
G1 X65.883 Y102.819 E354.74306
G1 X68.313 Y103.829 E355.00563
G1 X70.743 Y102.819 E355.26821
G1 X71.75 Y100.39 E355.53058
G0 F9000 X69.861 Y101.937
G0 X68.313 Y102.58
G0 X47.121 Y100.594
G1 F1500 X47.508 Y97.157 E355.87569
G1 X45.062 Y94.71 E356.22092
G1 X41.624 Y95.098 E356.56614
G1 X39.782 Y98.026 E356.9113
G1 X40.925 Y101.293 E357.25666
G1 X44.192 Y102.437 E357.60205
G1 X47.121 Y100.594 E357.94735
G1 F1500 E349.94735
G0 F9000 X101.855 Y73.121
G1 F1500 E357.94735
G1 X102.865 Y70.691 E358.20993
G1 X101.855 Y68.262 E358.47241
G1 X99.426 Y67.252 E358.73489
G1 X96.996 Y68.262 E358.99747
G1 X95.989 Y70.691 E359.25984
G1 X96.996 Y73.121 E359.5223
G1 X99.426 Y74.128 E359.78476
G1 X101.855 Y73.121 E360.04713
G0 F9000 X101.568 Y46.147
G1 F1500 X101.955 Y42.709 E360.39234
G1 X99.509 Y40.263 E360.7375
G1 X96.071 Y40.65 E361.08271
G1 X94.229 Y43.579 E361.42796
G1 X95.372 Y46.846 E361.77332
