;FLAVOR:Marlin
;TIME:443
;Filament used: 0.275768m
;Layer height: 0.2
;MINX:98.6
;MINY:101.1
;MINZ:0.3
;MAXX:121.4
;MAXY:118.904
;MAXZ:6.9
;Generated with Cura_SteamEngine 4.8.0
M140 S80
M105
M190 S80
M104 S230
M105
M109 S230
M82 ;absolute extrusion mode
G28 ;Home
G1 Z15.0 F2000 ;Move the platform
G92 E0
G92 E0
G1 F1500 E-8
;LAYER_COUNT:34
;LAYER:0
M107
M204 S1000
G0 F9000 X100.016 Y102.284 Z0.3
;TYPE:SKIRT
G1 F1500 E0
G1 F3000 X100.477 Y101.911 E0.05917
G1 X100.984 Y101.603 E0.11836
G1 X101.527 Y101.366 E0.17748
G1 X102.098 Y101.204 E0.2367
G1 X102.886 Y101.111 E0.31587
G1 X103.33 Y101.1 E0.36019
G1 X116.356 Y101.1 E1.65993
G1 X117.054 Y101.11 E1.72958
G1 X117.645 Y101.159 E1.78876
G1 X118.224 Y101.286 E1.8479
G1 X118.781 Y101.49 E1.90709
G1 X119.305 Y101.768 E1.96628
G1 X119.787 Y102.113 E2.02542
G1 X120.219 Y102.52 E2.08465
G1 X120.591 Y102.981 E2.14375
G1 X120.899 Y103.488 E2.20294
G1 X121.135 Y104.032 E2.26211
G1 X121.296 Y104.602 E2.32121
G1 X121.389 Y105.386 E2.39999
G1 X121.4 Y105.83 E2.44431
G1 X121.4 Y113.818 E3.24135
G1 X121.391 Y114.545 E3.3139
G1 X121.343 Y115.137 E3.37316
G1 X121.217 Y115.716 E3.43229
G1 X121.014 Y116.273 E3.49144
G1 X120.738 Y116.798 E3.55062
G1 X120.394 Y117.281 E3.60979
G1 X119.988 Y117.713 E3.66894
G1 X119.527 Y118.086 E3.72811
G1 X119.021 Y118.395 E3.78727
G1 X118.478 Y118.632 E3.84639
G1 X117.907 Y118.795 E3.90564
G1 X117.114 Y118.889 E3.98532
G1 X116.671 Y118.9 E4.02954
G1 X110.533 Y118.901 E4.64199
G1 X109.477 Y118.904 E4.74736
G1 X103.644 Y118.9 E5.32938
G1 X102.946 Y118.89 E5.39903
G1 X102.355 Y118.841 E5.4582
G1 X101.776 Y118.714 E5.51735
G1 X101.219 Y118.51 E5.57654
G1 X100.695 Y118.232 E5.63572
G1 X100.213 Y117.887 E5.69487
G1 X99.781 Y117.48 E5.75409
G1 X99.409 Y117.019 E5.8132
G1 X99.101 Y116.512 E5.87239
G1 X98.865 Y115.968 E5.93156
G1 X98.704 Y115.398 E5.99066
G1 X98.611 Y114.609 E6.06993
G1 X98.6 Y114.158 E6.11494
G1 X98.6 Y106.114 E6.91758
G1 X98.609 Y105.449 E6.98394
G1 X98.657 Y104.858 E7.0431
G1 X98.784 Y104.279 E7.10225
G1 X98.988 Y103.722 E7.16144
G1 X99.265 Y103.198 E7.22058
G1 X99.61 Y102.716 E7.27972
G1 X100.016 Y102.284 E7.33888
G0 F9000 X100.406 Y102.472
G1 F3000 X100.86 Y102.135 E7.39529
G1 X101.357 Y101.866 E7.45168
G1 X101.887 Y101.669 E7.5081
G1 X102.44 Y101.55 E7.56454
G1 X102.897 Y101.511 E7.61031
G1 X103.33 Y101.5 E7.65353
G1 X116.35 Y101.5 E8.95267
G1 X117.048 Y101.51 E9.02232
G1 X117.612 Y101.558 E9.0788
G1 X118.162 Y101.685 E9.13512
G1 X118.69 Y101.889 E9.1916
G1 X119.184 Y102.164 E9.24802
G1 X119.633 Y102.507 E9.3044
G1 X120.03 Y102.909 E9.36077
G1 X120.367 Y103.364 E9.41727
G1 X120.635 Y103.861 E9.47361
G1 X120.831 Y104.391 E9.52999
G1 X120.951 Y104.944 E9.58645
G1 X120.989 Y105.398 E9.63191
G1 X121 Y105.83 E9.67503
G1 X121 Y113.814 E10.47168
G1 X120.991 Y114.541 E10.54423
G1 X120.944 Y115.104 E10.6006
G1 X120.818 Y115.655 E10.657
G1 X120.616 Y116.183 E10.7134
G1 X120.341 Y116.677 E10.76982
G1 X119.999 Y117.127 E10.82621
G1 X119.597 Y117.525 E10.88266
G1 X119.144 Y117.862 E10.939
G1 X118.647 Y118.132 E10.99543
G1 X118.117 Y118.329 E11.05185
G1 X117.565 Y118.45 E11.10824
G1 X117.103 Y118.489 E11.1545
G1 X116.671 Y118.5 E11.19762
G1 X110.532 Y118.501 E11.81017
G1 X109.477 Y118.504 E11.91544
G1 X103.65 Y118.5 E12.49686
G1 X102.952 Y118.49 E12.56651
G1 X102.388 Y118.442 E12.62299
G1 X101.838 Y118.315 E12.67932
G1 X101.31 Y118.111 E12.7358
G1 X100.816 Y117.836 E12.79221
G1 X100.367 Y117.493 E12.84859
G1 X99.97 Y117.091 E12.90496
G1 X99.633 Y116.636 E12.96146
G1 X99.365 Y116.139 E13.0178
G1 X99.169 Y115.609 E13.07419
G1 X99.049 Y115.056 E13.13065
G1 X99.01 Y114.598 E13.17651
G1 X99.001 Y114.266 E13.20965
G1 X99 Y106.12 E14.02246
G1 X99.009 Y105.455 E14.08882
G1 X99.057 Y104.892 E14.1452
G1 X99.183 Y104.341 E14.2016
G1 X99.386 Y103.813 E14.25805
G1 X99.662 Y103.319 E14.31451
G1 X100.004 Y102.869 E14.37091
G1 X100.406 Y102.472 E14.42728
G0 F9000 X100.397 Y103.031
G1 F3000 X100.794 Y102.671 E14.48076
G1 X101.241 Y102.373 E14.53436
G1 X101.726 Y102.145 E14.58783
G1 X102.24 Y101.992 E14.64135
G1 X102.908 Y101.91 E14.7085
G1 X103.33 Y101.9 E14.75062
G1 X116.345 Y101.9 E16.04926
G1 X117.043 Y101.91 E16.11891
G1 X117.577 Y101.958 E16.17241
G1 X118.098 Y102.084 E16.2259
G1 X118.595 Y102.287 E16.27946
G1 X119.056 Y102.561 E16.33297
G1 X119.471 Y102.9 E16.38644
G1 X119.831 Y103.298 E16.43999
G1 X120.128 Y103.744 E16.49346
G1 X120.356 Y104.23 E16.54702
G1 X120.508 Y104.744 E16.6005
G1 X120.59 Y105.409 E16.66736
G1 X120.6 Y105.83 E16.70938
G1 X120.6 Y113.809 E17.50553
G1 X120.591 Y114.536 E17.57807
G1 X120.544 Y115.07 E17.63156
G1 X120.419 Y115.591 E17.68502
G1 X120.217 Y116.088 E17.73855
G1 X119.944 Y116.55 E17.7921
G1 X119.606 Y116.966 E17.84558
G1 X119.209 Y117.327 E17.89912
G1 X118.763 Y117.625 E17.95264
G1 X118.278 Y117.853 E18.00612
G1 X117.764 Y118.007 E18.05966
G1 X117.092 Y118.09 E18.12722
G1 X116.671 Y118.1 E18.16924
G1 X110.53 Y118.101 E18.78199
G1 X109.478 Y118.104 E18.88696
G1 X103.655 Y118.1 E19.46798
G1 X102.957 Y118.09 E19.53764
G1 X102.423 Y118.042 E19.59113
G1 X101.902 Y117.916 E19.64462
G1 X101.405 Y117.713 E19.69819
G1 X100.944 Y117.439 E19.7517
G1 X100.529 Y117.1 E19.80516
G1 X100.169 Y116.702 E19.85871
G1 X99.872 Y116.256 E19.91218
G1 X99.644 Y115.77 E19.96574
G1 X99.492 Y115.256 E20.01923
G1 X99.41 Y114.588 E20.08638
G1 X99.4 Y114.158 E20.1293
G1 X99.4 Y106.125 E20.93083
G1 X99.409 Y105.46 E20.99719
G1 X99.457 Y104.926 E21.05069
G1 X99.583 Y104.405 E21.10418
G1 X99.785 Y103.908 E21.15771
G1 X100.058 Y103.447 E21.21116
G1 X100.397 Y103.031 E21.26471
G0 F9000 X100.789 Y103.204
G1 F3000 X101.18 Y102.883 E21.31519
G1 X101.617 Y102.628 E21.36567
G1 X102.088 Y102.444 E21.41613
G1 X102.582 Y102.338 E21.46654
G1 X102.919 Y102.31 E21.50028
G1 X103.33 Y102.3 E21.54131
G1 X116.339 Y102.3 E22.83935
G1 X117.037 Y102.31 E22.909
G1 X117.54 Y102.357 E22.95941
G1 X118.03 Y102.483 E23.00989
G1 X118.494 Y102.685 E23.06039
G1 X118.92 Y102.957 E23.11082
G1 X119.298 Y103.292 E23.16122
G1 X119.618 Y103.683 E23.21163
G1 X119.873 Y104.12 E23.26212
G1 X120.056 Y104.591 E23.31254
G1 X120.163 Y105.085 E23.36297
G1 X120.19 Y105.42 E23.39651
G1 X120.2 Y105.83 E23.43743
G1 X120.2 Y113.804 E24.23308
G1 X120.191 Y114.531 E24.30562
G1 X120.145 Y115.034 E24.35602
G1 X120.02 Y115.524 E24.40648
G1 X119.819 Y115.988 E24.45694
G1 X119.548 Y116.415 E24.5074
G1 X119.213 Y116.794 E24.55787
G1 X118.823 Y117.115 E24.60827
G1 X118.387 Y117.371 E24.65872
G1 X117.916 Y117.554 E24.70914
G1 X117.422 Y117.662 E24.7596
G1 X117.081 Y117.69 E24.79373
G1 X116.671 Y117.7 E24.83466
G1 X110.529 Y117.701 E25.44751
G1 X109.478 Y117.704 E25.55238
G1 X103.661 Y117.7 E26.1328
G1 X102.963 Y117.69 E26.20245
G1 X102.46 Y117.643 E26.25286
G1 X101.97 Y117.517 E26.30335
G1 X101.506 Y117.315 E26.35384
G1 X101.08 Y117.043 E26.40427
G1 X100.702 Y116.708 E26.45467
G1 X100.382 Y116.317 E26.50508
G1 X100.127 Y115.88 E26.55557
G1 X99.944 Y115.409 E26.60599
G1 X99.837 Y114.915 E26.65642
G1 X99.81 Y114.577 E26.69026
G1 X99.8 Y114.158 E26.73208
G1 X99.8 Y106.131 E27.53301
G1 X99.809 Y105.466 E27.59937
G1 X99.856 Y104.962 E27.64988
G1 X99.982 Y104.473 E27.70027
G1 X100.183 Y104.009 E27.75072
G1 X100.454 Y103.582 E27.80119
G1 X100.789 Y103.204 E27.85158
G1 F1500 E19.85158
;MESH:end-stop-z.stl
G0 F9000 X103.414 Y105.914
G0 X111.835 Y107.186
G0 X114.125 Y110.058
G0 X114.422 Y113.1
;TYPE:WALL-INNER
G1 F1500 E27.85158
G1 X114.477 Y112.857 E27.87644
G1 X115.17 Y109.818 E28.18746
G1 X113.1 Y107.223 E28.51868
G1 X112.842 Y106.9 E28.55993
G1 X113.255 Y106.9 E28.58258
G1 X113.256 Y106.9 E28.58268
G1 X115.6 Y106.9 E28.81656
G1 X115.6 Y113.1 E29.4352
G1 X114.672 Y113.1 E29.5278
G1 X114.671 Y113.1 E29.5279
G1 X114.422 Y113.1 E29.54304
G0 F9000 X114.125 Y110.058
G0 X111.835 Y107.186
G0 X108.169 Y107.186
G0 X105.874 Y110.06
G0 X105.578 Y113.1
G1 F1500 X105.329 Y113.1 E29.56788
G1 X105.328 Y113.1 E29.56798
G1 X104.4 Y113.1 E29.66058
G1 X104.4 Y106.9 E30.27922
G1 X106.743 Y106.9 E30.513
G1 X106.744 Y106.9 E30.5131
G1 X107.156 Y106.9 E30.55421
G1 X106.899 Y107.223 E30.57686
G1 X104.83 Y109.82 E30.90817
G1 X105.523 Y112.857 E31.21899
G1 X105.578 Y113.1 E31.23414
G0 F9000 X106.08 Y113.5
G1 F1500 X105.831 Y113.5 E31.25899
G1 X105.83 Y113.5 E31.25909
G1 X104 Y113.5 E31.44168
G1 X104 Y106.5 E32.14015
G1 X107.609 Y106.5 E32.50025
G1 X107.902 Y106.5 E32.52949
G1 X112.108 Y106.5 E32.94917
G1 X112.395 Y106.5 E32.9778
G1 X116 Y106.5 E33.33751
G1 X116 Y113.5 E34.03598
G1 X114.17 Y113.5 E34.21857
G1 X114.169 Y113.5 E34.21867
G1 X113.92 Y113.5 E34.24352
G1 X113.975 Y113.257 E34.25867
G1 X114.737 Y109.917 E34.6005
G1 X112.287 Y106.846 E34.99249
G1 X112.108 Y106.622 E35.01213
G1 X107.902 Y106.622 E35.14045
G1 X107.716 Y106.848 E35.16047
G1 X107.523 Y107.082 E35.19074
G1 X105.263 Y109.919 E35.55265
G1 X106.025 Y113.257 E35.89429
G1 X106.08 Y113.5 E35.90944
G0 F9000 X106.853 Y113.9
G1 F1500 X106.548 Y113.9 E35.93987
G1 X106.391 Y113.9 E35.95554
G1 X103.6 Y113.9 E36.23403
G1 X103.6 Y106.1 E37.01231
G1 X116.4 Y106.1 E38.2895
G1 X116.4 Y113.9 E39.06779
G1 X113.609 Y113.9 E39.34628
G1 X113.452 Y113.9 E39.36194
G1 X113.147 Y113.9 E39.39237
G1 X113.452 Y113.753 E39.4006
G1 X113.486 Y113.6 E39.41237
G1 X114.304 Y110.016 E39.77918
G1 X111.915 Y107.022 E40.16137
G1 X108.091 Y107.022 E40.54293
G1 X107.834 Y107.334 E40.58327
G1 X105.696 Y110.018 E40.92566
G1 X106.514 Y113.6 E41.29227
G1 X106.548 Y113.753 E41.30192
G1 X106.853 Y113.9 E41.31014
G0 F9000 X108.507 Y114.278
G0 X108.605 Y114.3
;TYPE:WALL-OUTER
G1 F1500 X103.2 Y114.3 E41.84945
G1 X103.2 Y105.7 E42.70756
G1 X116.8 Y105.7 E44.06457
G1 X116.8 Y114.3 E44.92269
G1 X111.395 Y114.3 E45.462
G1 X113.105 Y113.476 E45.6514
G1 X113.871 Y110.115 E45.99536
G1 X111.722 Y107.422 E46.33914
G1 X108.28 Y107.422 E46.68258
G1 X108.145 Y107.586 E46.70378
G1 X106.129 Y110.117 E47.02665
G1 X106.895 Y113.476 E47.37041
G1 X108.605 Y114.3 E47.55981
G0 F9000 X108.405 Y114.3
G0 X108.382 Y114.248
G0 X107.274 Y113.909
G0 X105.089 Y112.71
;TYPE:SKIN
G1 F1500 X104.79 Y112.71 E47.58965
G1 X104.79 Y111.399 E47.72046
G1 X105.089 Y112.71 E47.85463
G0 F9000 X104.79 Y109.244
G1 F1500 X104.79 Y107.29 E48.0496
G1 X106.347 Y107.29 E48.20496
G1 X104.79 Y109.244 E48.45426
G0 F9000 X105.146 Y108.54
G1 F1500 X104.95 Y108.344 E48.48192
G0 F9000 X105.397 Y108.225
G1 F1500 X104.95 Y107.778 E48.54499
G0 F9000 X105.186 Y107.449
G1 F1500 X105.647 Y107.91 E48.61004
G0 F9000 X105.898 Y107.595
G1 F1500 X105.752 Y107.449 E48.63065
G0 F9000 X108.169 Y107.186
G0 X111.138 Y107.186
G0 X113.652 Y107.29
G1 F1500 X115.21 Y107.29 E48.7861
G1 X115.21 Y109.243 E48.98098
G1 X113.652 Y107.29 E49.23026
G0 F9000 X115.21 Y111.398
G1 F1500 X115.21 Y112.71 E49.36117
G1 X114.911 Y112.71 E49.391
G1 X115.21 Y111.398 E49.52527
G0 F9000 X115.049 Y108.261
G1 F1500 X114.238 Y107.449 E49.63978
G0 F9000 X114.803 Y107.449
G1 F1500 X115.049 Y107.695 E49.6745
;MESH:NONMESH
G0 F300 X115.049 Y107.695 Z0.5
G0 F9000 X112.554 Y106.9
;TIME_ELAPSED:24.290505
;LAYER:1
M106 S127.5
;TYPE:WALL-INNER
;MESH:end-stop-z.stl
G1 F1515.6 X112.967 Y106.9 E49.68823
G1 X112.968 Y106.9 E49.68827
G1 X115.6 Y106.9 E49.77581
G1 X115.6 Y113.1 E49.98202
G1 X114.441 Y113.1 E50.02057
G1 X114.44 Y113.1 E50.0206
G1 X114.191 Y113.1 E50.02888
G1 X114.246 Y112.857 E50.03394
G1 X114.926 Y109.876 E50.13563
G1 X112.812 Y107.223 E50.24846
G1 X112.554 Y106.9 E50.25601
G0 F12000 X107.446 Y106.9
G1 F1515.6 X107.188 Y107.223 E50.26976
G1 X105.074 Y109.876 E50.38259
G1 X105.754 Y112.857 E50.48429
G1 X105.809 Y113.099 E50.49254
G1 X105.561 Y113.099 E50.49757
G1 X105.56 Y113.099 E50.4976
G1 X104.599 Y113.1 E50.52957
G1 X104.4 Y113.1 E50.53619
G1 X104.4 Y112.901 E50.54047
G1 X104.4 Y106.9 E50.74006
G1 X107.032 Y106.9 E50.8276
G1 X107.033 Y106.9 E50.82764
G1 X107.446 Y106.9 E50.83519
G0 F12000 X107.967 Y106.888
G1 F1515.6 X105.507 Y109.975 E50.96647
G1 X106.256 Y113.256 E51.07841
G1 X106.311 Y113.499 E51.08669
G1 X106.062 Y113.499 E51.09174
G1 X106.061 Y113.499 E51.09178
G1 X104.199 Y113.5 E51.15371
G1 X104 Y113.5 E51.16032
G1 X104 Y113.301 E51.16461
G1 X104 Y106.5 E51.39081
G1 X107.947 Y106.5 E51.52209
G1 X108 Y106.5 E51.52385
G1 X112 Y106.5 E51.65689
G1 X112.053 Y106.5 E51.65865
G1 X116 Y106.5 E51.78993
G1 X116 Y113.5 E52.02275
G1 X113.939 Y113.5 E52.0913
G1 X113.938 Y113.5 E52.09133
G1 X113.689 Y113.5 E52.09962
G1 X113.744 Y113.257 E52.10467
G1 X114.493 Y109.975 E52.21663
G1 X112.033 Y106.888 E52.34792
G1 X112 Y106.847 E52.34957
G1 X108 Y106.847 E52.46527
G1 X107.967 Y106.888 E52.46691
G0 F12000 X108.193 Y107.247
G1 F1515.6 X105.94 Y110.074 E52.58715
G1 X106.73 Y113.539 E52.70535
G1 X106.743 Y113.597 E52.70733
G1 X107.372 Y113.899 E52.73054
G1 X106.744 Y113.899 E52.73807
G1 X106.684 Y113.899 E52.73988
G1 X103.799 Y113.9 E52.83583
G1 X103.6 Y113.9 E52.84245
G1 X103.6 Y113.701 E52.84673
G1 X103.6 Y106.1 E53.09954
G1 X116.4 Y106.1 E53.52527
G1 X116.4 Y113.9 E53.7847
G1 X113.317 Y113.9 E53.88724
G1 X113.257 Y113.9 E53.88924
G1 X112.628 Y113.9 E53.91016
G1 X113.257 Y113.597 E53.92004
G1 X113.27 Y113.539 E53.92183
G1 X114.06 Y110.074 E54.04003
G1 X111.807 Y107.247 E54.16027
G1 X108.193 Y107.247 E54.28047
G0 F12000 X108.386 Y107.647
;TYPE:WALL-OUTER
G1 F1515.6 X106.373 Y110.173 E54.3879
G1 X107.09 Y113.32 E54.49525
G1 X109.124 Y114.299 E54.57033
G1 X103.2 Y114.3 E54.76736
G1 X103.2 Y105.7 E55.0534
G1 X116.8 Y105.7 E55.50574
G1 X116.8 Y114.3 E55.79178
G1 X110.877 Y114.3 E55.98878
G1 X112.91 Y113.32 E56.06384
G1 X113.627 Y110.173 E56.17119
G1 X111.614 Y107.647 E56.27862
G1 X108.386 Y107.647 E56.38598
G0 F12000 X108.262 Y107.803
G0 X107.918 Y107.528
G0 X106.637 Y107.29
;TYPE:SKIN
G1 F1082.6 X104.79 Y109.607 E56.48454
G1 X104.79 Y107.29 E56.5616
G1 X106.637 Y107.29 E56.62303
G0 F12000 X104.79 Y110.385
G1 F1082.6 X105.32 Y112.709 E56.70231
G1 X104.79 Y112.71 E56.71994
G1 X104.79 Y110.385 E56.79727
G0 F12000 X104.95 Y112.273
G1 F1082.6 X105.036 Y112.186 E56.80134
G0 F12000 X104.95 Y108.878
G1 F1082.6 X106.008 Y107.821 E56.85108
G0 F12000 X105.814 Y107.449
G1 F1082.6 X104.95 Y108.313 E56.89172
G0 F12000 X104.95 Y107.747
G1 F1082.6 X105.248 Y107.449 E56.90574
G0 F12000 X113.363 Y107.29
G1 F1082.6 X115.21 Y107.29 E56.96717
G1 X115.21 Y109.607 E57.04423
G1 X113.363 Y107.29 E57.14279
G0 F12000 X115.21 Y110.385
G1 F1082.6 X115.21 Y112.71 E57.22012
G1 X114.68 Y112.71 E57.23774
G1 X115.21 Y110.385 E57.31706
G0 F12000 X114.888 Y112.516
G1 F1082.6 X115.049 Y112.356 E57.32461
G0 F12000 X114.966 Y109.045
G1 F1082.6 X115.049 Y108.962 E57.32851
G0 F12000 X114.715 Y108.73
G1 F1082.6 X115.049 Y108.396 E57.34422
G0 F12000 X115.049 Y107.83
G1 F1082.6 X114.464 Y108.415 E57.37174
G0 F12000 X114.213 Y108.101
G1 F1082.6 X114.864 Y107.449 E57.40238
G0 F12000 X114.298 Y107.449
G1 F1082.6 X113.962 Y107.785 E57.41819
;MESH:NONMESH
G0 F300 X113.962 Y107.785 Z0.7
G0 F12000 X111.727 Y107.411
G0 X108.273 Y107.411
G0 X106.119 Y110.116
G0 X105.994 Y113.1
;TIME_ELAPSED:37.769898
;LAYER:2
M106 S255
;TYPE:WALL-INNER
;MESH:end-stop-z.stl
G1 F1673.2 X105.745 Y113.1 E57.42647
G1 X105.744 Y113.1 E57.4265
G1 X104.4 Y113.1 E57.4712
G1 X104.4 Y106.9 E57.67742
G1 X107.262 Y106.9 E57.77261
G1 X107.263 Y106.9 E57.77264
G1 X107.676 Y106.9 E57.78638
G1 X107.418 Y107.223 E57.79393
G1 X105.272 Y109.916 E57.90847
G1 X105.499 Y110.931 E57.94306
G1 X105.939 Y112.857 E58.00877
G1 X105.994 Y113.1 E58.01382
G0 F15000 X106.314 Y110.158
G0 X108.36 Y107.591
G0 X111.641 Y107.591
G0 X113.687 Y110.16
G0 X114.007 Y113.1
G1 F1673.2 X114.062 Y112.857 E58.0221
G1 X114.732 Y109.92 E58.1223
G1 X112.583 Y107.223 E58.237
G1 X112.325 Y106.9 E58.25075
G1 X112.738 Y106.9 E58.2583
G1 X112.739 Y106.9 E58.25833
G1 X115.6 Y106.9 E58.35349
G1 X115.6 Y113.1 E58.5597
G1 X114.257 Y113.1 E58.60437
G1 X114.256 Y113.1 E58.6044
G1 X114.007 Y113.1 E58.60945
G0 F15000 X113.559 Y113.256
G1 F1673.2 X113.635 Y112.933 E58.62048
G1 X114.299 Y110.019 E58.71989
G1 X111.914 Y107.027 E58.84715
G1 X108.087 Y107.027 E58.97444
G1 X105.704 Y110.016 E59.10158
G1 X105.889 Y110.843 E59.12977
G1 X106.441 Y113.257 E59.21213
G1 X106.496 Y113.5 E59.22041
G1 X106.247 Y113.5 E59.22546
G1 X106.246 Y113.5 E59.22549
