;FLAVOR:Marlin
;TIME:6372
;Filament used: 15.4498m
;Layer height: 0.2
;MINX:19.5
;MINY:52.5
;MINZ:0.3
;MAXX:200.5
;MAXY:167.5
;MAXZ:1.9
;Generated with Cura_SteamEngine 4.8.0
M140 S80
M105
M190 S80
M104 S230
M105
M109 S230
M82 ;absolute extrusion mode
G28 ;Home
G1 Z15.0 F2000 ;Move the platform
G92 E0
G92 E0
G1 F1500 E-6.5
;LAYER_COUNT:9
;LAYER:0
M107
M204 S1000
G0 F7500 X23.118 Y52.844 Z0.3
;TYPE:SKIRT
G1 F1500 E0
G1 X23.753 Y52.654 E0.16534
G1 X24.406 Y52.542 E0.33061
G1 X24.855 Y52.511 E0.44288
G1 X25.176 Y52.502 E0.52299
G1 X25.33 Y52.5 E0.5614
G1 X194.293 Y52.5 E42.7094
G1 X195.07 Y52.511 E42.90324
G1 X195.731 Y52.56 E43.06858
G1 X196.381 Y52.689 E43.23388
G1 X197.012 Y52.895 E43.39946
G1 X197.612 Y53.175 E43.56463
G1 X198.175 Y53.526 E43.73013
G1 X198.692 Y53.941 E43.8955
G1 X199.154 Y54.416 E44.0608
G1 X199.557 Y54.943 E44.22629
G1 X199.892 Y55.515 E44.39164
G1 X200.157 Y56.123 E44.55709
G1 X200.347 Y56.758 E44.72243
G1 X200.458 Y57.412 E44.8879
G1 X200.489 Y57.855 E44.99868
G1 X200.498 Y58.175 E45.07854
G1 X200.5 Y58.33 E45.11721
G1 X200.5 Y161.332 E70.81116
G1 X200.491 Y162.059 E70.99252
G1 X200.442 Y162.72 E71.15786
G1 X200.315 Y163.371 E71.32332
G1 X200.11 Y164.002 E71.48882
G1 X199.831 Y164.603 E71.65411
G1 X199.482 Y165.166 E71.81934
G1 X199.067 Y165.684 E71.98491
G1 X198.593 Y166.147 E72.1502
G1 X198.067 Y166.551 E72.31565
G1 X197.496 Y166.888 E72.48104
G1 X196.888 Y167.153 E72.64649
G1 X196.253 Y167.344 E72.8119
G1 X195.6 Y167.457 E72.97721
G1 X195.145 Y167.489 E73.09099
G1 X194.824 Y167.498 E73.1711
G1 X194.67 Y167.5 E73.20952
G1 X25.636 Y167.5 E115.37522
G1 X24.938 Y167.491 E115.54935
G1 X24.277 Y167.442 E115.71469
G1 X23.626 Y167.314 E115.88019
G1 X22.996 Y167.109 E116.04546
G1 X22.394 Y166.83 E116.21097
G1 X21.831 Y166.48 E116.37634
G1 X21.314 Y166.065 E116.54171
G1 X20.851 Y165.591 E116.707
G1 X20.448 Y165.064 E116.87249
G1 X20.111 Y164.493 E117.03789
G1 X19.846 Y163.886 E117.2031
G1 X19.655 Y163.251 E117.36851
G1 X19.543 Y162.597 E117.53403
G1 X19.511 Y162.14 E117.64831
G1 X19.5 Y161.658 E117.76858
G1 X19.501 Y58.6 E143.4765
G1 X19.51 Y57.935 E143.6424
G1 X19.558 Y57.273 E143.80797
G1 X19.687 Y56.623 E143.97327
G1 X19.892 Y55.992 E144.13878
G1 X20.172 Y55.391 E144.30417
G1 X20.522 Y54.828 E144.46954
G1 X20.937 Y54.312 E144.63472
G1 X21.412 Y53.848 E144.80036
G1 X21.939 Y53.446 E144.9657
G1 X22.51 Y53.11 E145.13097
G1 X23.118 Y52.844 E145.29651
G0 F7500 X23.436 Y53.793
G1 F1500 X24.011 Y53.621 E145.44623
G1 X24.883 Y53.511 E145.66547
G1 X25.33 Y53.5 E145.77701
G1 X194.357 Y53.5 E187.94097
G1 X195.055 Y53.51 E188.1151
G1 X195.653 Y53.559 E188.26477
G1 X196.239 Y53.687 E188.4144
G1 X196.803 Y53.891 E188.56401
G1 X197.334 Y54.168 E188.71341
G1 X197.824 Y54.514 E188.86304
G1 X198.264 Y54.922 E189.01272
G1 X198.646 Y55.384 E189.16226
G1 X198.962 Y55.894 E189.31192
G1 X199.208 Y56.441 E189.46154
G1 X199.38 Y57.015 E189.61101
G1 X199.489 Y57.883 E189.82923
G1 X199.5 Y58.33 E189.94077
G1 X199.5 Y161.32 E215.63173
G1 X199.491 Y162.047 E215.8131
G1 X199.443 Y162.644 E215.9625
G1 X199.317 Y163.231 E216.11226
G1 X199.114 Y163.795 E216.26179
G1 X198.837 Y164.327 E216.41141
G1 X198.492 Y164.818 E216.5611
G1 X198.085 Y165.258 E216.71062
G1 X197.624 Y165.641 E216.86012
G1 X197.115 Y165.958 E217.0097
G1 X196.569 Y166.205 E217.15919
G1 X195.994 Y166.378 E217.30898
G1 X195.117 Y166.489 E217.52949
G1 X194.67 Y166.5 E217.64103
G1 X25.649 Y166.5 E259.80349
G1 X24.951 Y166.491 E259.97762
G1 X24.353 Y166.443 E260.12727
G1 X23.767 Y166.316 E260.27684
G1 X23.203 Y166.113 E260.42637
G1 X22.671 Y165.836 E260.57599
G1 X22.181 Y165.491 E260.72548
G1 X21.74 Y165.084 E260.87518
G1 X21.358 Y164.622 E261.02471
G1 X21.041 Y164.113 E261.1743
G1 X20.794 Y163.566 E261.32401
G1 X20.622 Y162.992 E261.47349
G1 X20.511 Y162.113 E261.6945
G1 X20.5 Y161.658 E261.80803
G1 X20.5 Y58.613 E287.51271
G1 X20.509 Y57.948 E287.67861
G1 X20.557 Y57.35 E287.82826
G1 X20.685 Y56.764 E287.97789
G1 X20.888 Y56.2 E288.12741
G1 X21.166 Y55.669 E288.27692
G1 X21.511 Y55.178 E288.42662
G1 X21.918 Y54.738 E288.57613
G1 X22.381 Y54.356 E288.72586
G1 X22.89 Y54.039 E288.87544
G1 X23.436 Y53.793 E289.02483
G0 F7500 X23.817 Y54.718
G1 F1500 X24.326 Y54.576 E289.15665
G1 X24.911 Y54.51 E289.3035
G1 X25.33 Y54.5 E289.40805
G1 X194.343 Y54.5 E331.56852
G1 X195.041 Y54.51 E331.74265
G1 X195.568 Y54.558 E331.87466
G1 X196.081 Y54.684 E332.00643
G1 X196.57 Y54.886 E332.13841
G1 X197.022 Y55.16 E332.27026
G1 X197.429 Y55.498 E332.40223
G1 X197.779 Y55.894 E332.53407
G1 X198.066 Y56.338 E332.66595
G1 X198.283 Y56.821 E332.79803
G1 X198.424 Y57.33 E332.92979
G1 X198.49 Y57.912 E333.0759
G1 X198.5 Y58.33 E333.1802
G1 X198.5 Y161.307 E358.86791
G1 X198.491 Y162.034 E359.04928
G1 X198.444 Y162.561 E359.18126
G1 X198.319 Y163.075 E359.31322
G1 X198.118 Y163.564 E359.4451
G1 X197.845 Y164.017 E359.57704
G1 X197.507 Y164.424 E359.70901
G1 X197.112 Y164.775 E359.84082
G1 X196.669 Y165.063 E359.97263
G1 X196.187 Y165.28 E360.10449
G1 X195.677 Y165.423 E360.23661
G1 X195.089 Y165.49 E360.38424
G1 X194.67 Y165.5 E360.48879
G1 X25.662 Y165.5 E402.64801
G1 X24.964 Y165.491 E402.82214
G1 X24.437 Y165.444 E402.95412
G1 X23.924 Y165.318 E403.08589
G1 X23.435 Y165.117 E403.21778
G1 X22.982 Y164.844 E403.34971
G1 X22.575 Y164.506 E403.48168
G1 X22.224 Y164.111 E403.6135
G1 X21.936 Y163.667 E403.74551
G1 X21.719 Y163.185 E403.87737
G1 X21.577 Y162.676 E404.00919
G1 X21.51 Y162.086 E404.15731
G1 X21.5 Y161.658 E404.26411
G1 X21.5 Y58.627 E429.9653
G1 X21.509 Y57.962 E430.1312
G1 X21.556 Y57.435 E430.26318
G1 X21.682 Y56.921 E430.39519
G1 X21.884 Y56.433 E430.52694
G1 X22.157 Y55.98 E430.65888
G1 X22.495 Y55.573 E430.79085
G1 X22.891 Y55.223 E430.92268
G1 X23.335 Y54.935 E431.0547
G1 X23.817 Y54.718 E431.18656
G1 F1500 E424.68656
;MESH:main-case-back.stl
G0 F7500 X25.514 Y58.514
G0 X26.447 Y62.507
G0 X26.545 Y62.488
;TYPE:WALL-OUTER
G1 F1500 E431.18656
G1 X26.688 Y62.957 E431.30887
G1 X26.919 Y63.39 E431.43129
G1 X27.231 Y63.769 E431.55375
G1 X27.61 Y64.081 E431.6762
G1 X28.043 Y64.312 E431.79862
G1 X28.512 Y64.455 E431.92093
G1 X29 Y64.502 E432.04323
G1 X29.488 Y64.455 E432.16552
G1 X29.957 Y64.312 E432.28783
G1 X30.39 Y64.081 E432.41026
G1 X30.769 Y63.769 E432.53271
G1 X31.081 Y63.39 E432.65517
G1 X31.312 Y62.957 E432.77759
G1 X31.455 Y62.488 E432.8999
G1 X31.502 Y62 E433.0222
G1 X31.455 Y61.512 E433.14449
G1 X31.312 Y61.043 E433.2668
G1 X31.081 Y60.61 E433.38922
G1 X30.769 Y60.231 E433.51168
G1 X30.39 Y59.919 E433.63413
G1 X29.957 Y59.688 E433.75656
G1 X29.488 Y59.545 E433.87887
G1 X29 Y59.498 E434.00116
G1 X28.512 Y59.545 E434.12346
G1 X28.043 Y59.688 E434.24577
G1 X27.61 Y59.919 E434.36819
G1 X27.231 Y60.231 E434.49064
G1 X26.919 Y60.61 E434.6131
G1 X26.688 Y61.043 E434.73552
G1 X26.545 Y61.512 E434.85783
G1 X26.498 Y62 E434.98013
G1 X26.545 Y62.488 E435.10242
G0 F7500 X26.603 Y62.679
G1 F1500 E428.60242
G0 F7500 X26.508 Y62.707
G0 X26.458 Y158
G0 X26.506 Y158.495
G0 X26.652 Y158.972
G0 X26.886 Y159.412
G0 X27.142 Y159.723
G0 X28.005 Y160.404
G0 X28.043 Y160.312
G1 F1500 E435.10242
G1 X28.512 Y160.455 E435.22473
G1 X29 Y160.502 E435.34703
G1 X29.488 Y160.455 E435.46932
G1 X29.957 Y160.312 E435.59163
G1 X30.39 Y160.081 E435.71406
G1 X30.769 Y159.769 E435.83651
G1 X31.081 Y159.39 E435.95897
G1 X31.312 Y158.957 E436.08139
G1 X31.455 Y158.488 E436.2037
G1 X31.502 Y158 E436.32599
G1 X31.455 Y157.512 E436.44829
G1 X31.312 Y157.043 E436.5706
G1 X31.081 Y156.61 E436.69302
G1 X30.769 Y156.231 E436.81548
G1 X30.39 Y155.919 E436.93793
G1 X29.957 Y155.688 E437.06036
G1 X29.488 Y155.545 E437.18266
G1 X29 Y155.498 E437.30496
G1 X28.512 Y155.545 E437.42726
G1 X28.043 Y155.688 E437.54957
G1 X27.61 Y155.919 E437.67199
G1 X27.231 Y156.231 E437.79444
G1 X26.919 Y156.61 E437.9169
G1 X26.688 Y157.043 E438.03932
G1 X26.545 Y157.512 E438.16163
G1 X26.498 Y158 E438.28393
G1 X26.545 Y158.488 E438.40622
G1 X26.688 Y158.957 E438.52853
G1 X26.919 Y159.39 E438.65095
G1 X27.231 Y159.769 E438.77341
G1 X27.61 Y160.081 E438.89587
G1 X28.043 Y160.312 E439.01829
G0 F7500 X28.234 Y160.37
G1 F1500 E432.51829
G0 F7500 X28.204 Y160.465
G0 X29 Y160.542
G0 X191 Y155.458
G0 X191.495 Y155.506
G0 X191.972 Y155.652
G0 X192.328 Y155.841
G0 X193.164 Y156.555
G0 X193.081 Y156.61
G1 F1500 E439.01829
G1 X192.769 Y156.231 E439.14074
G1 X192.39 Y155.919 E439.2632
G1 X191.957 Y155.688 E439.38562
G1 X191.488 Y155.545 E439.50793
G1 X191 Y155.498 E439.63023
G1 X190.512 Y155.545 E439.75252
G1 X190.043 Y155.688 E439.87483
G1 X189.61 Y155.919 E439.99725
G1 X189.231 Y156.231 E440.11971
G1 X188.919 Y156.61 E440.24217
G1 X188.688 Y157.043 E440.36459
G1 X188.545 Y157.512 E440.4869
G1 X188.498 Y158 E440.60919
G1 X188.545 Y158.488 E440.73149
G1 X188.688 Y158.957 E440.8538
G1 X188.919 Y159.39 E440.97622
G1 X189.231 Y159.769 E441.09868
G1 X189.61 Y160.081 E441.22113
G1 X190.043 Y160.312 E441.34355
G1 X190.512 Y160.455 E441.46586
G1 X191 Y160.502 E441.58816
G1 X191.488 Y160.455 E441.71045
G1 X191.957 Y160.312 E441.83276
G1 X192.39 Y160.081 E441.95519
G1 X192.769 Y159.769 E442.07764
G1 X193.081 Y159.39 E442.2001
G1 X193.312 Y158.957 E442.32252
G1 X193.455 Y158.488 E442.44483
G1 X193.502 Y158 E442.56712
G1 X193.455 Y157.512 E442.68942
G1 X193.312 Y157.043 E442.81173
G1 X193.081 Y156.61 E442.93415
G0 F7500 X192.954 Y156.456
G1 F1500 E436.43415
G0 F7500 X193.032 Y156.393
G0 X190.493 Y64.553
G0 X190.512 Y64.455
G1 F1500 E442.93415
G1 X191 Y64.502 E443.05645
G1 X191.488 Y64.455 E443.17874
G1 X191.957 Y64.312 E443.30105
G1 X192.39 Y64.081 E443.42347
G1 X192.769 Y63.769 E443.54593
G1 X193.081 Y63.39 E443.66839
G1 X193.312 Y62.957 E443.79081
G1 X193.455 Y62.488 E443.91312
G1 X193.502 Y62 E444.03541
G1 X193.455 Y61.512 E444.15771
G1 X193.312 Y61.043 E444.28002
G1 X193.081 Y60.61 E444.40244
G1 X192.769 Y60.231 E444.5249
G1 X192.39 Y59.919 E444.64735
G1 X191.957 Y59.688 E444.76977
G1 X191.488 Y59.545 E444.89208
G1 X191 Y59.498 E445.01438
G1 X190.512 Y59.545 E445.13667
G1 X190.043 Y59.688 E445.25898
G1 X189.61 Y59.919 E445.38141
G1 X189.231 Y60.231 E445.50386
G1 X188.919 Y60.61 E445.62632
G1 X188.688 Y61.043 E445.74874
G1 X188.545 Y61.512 E445.87105
G1 X188.498 Y62 E445.99335
G1 X188.545 Y62.488 E446.11564
G1 X188.688 Y62.957 E446.23795
G1 X188.919 Y63.39 E446.36037
G1 X189.231 Y63.769 E446.48283
G1 X189.61 Y64.081 E446.60528
G1 X190.043 Y64.312 E446.72771
G1 X190.512 Y64.455 E446.85002
G0 F7500 X190.711 Y64.474
G0 X190.605 Y65.569
G1 F1500 E440.35002
G0 F7500 X192.797 Y63.797
G0 X193.114 Y63.412
G0 X193.348 Y62.972
G0 X194.43 Y58.57
G0 X194.5 Y58.5
G1 F1500 E446.85002
G1 X194.5 Y161.5 E472.54347
G1 X25.5 Y161.5 E514.70069
G1 X25.5 Y58.5 E540.39415
G1 X194.5 Y58.5 E582.55137
G0 F7500 X194.5 Y58.7
G0 X194.4 Y58.7
G0 X193.51 Y59.49
;TYPE:SKIN
G1 F1500 X193.51 Y59.574 E582.57232
G1 X193.426 Y59.49 E582.60195
G1 X193.51 Y59.49 E582.62291
G0 F7500 X193.51 Y64.426
G1 F1500 X193.51 Y155.574 E605.35987
G1 X193.472 Y155.528 E605.37475
G1 X192.943 Y155.092 E605.54576
G1 X192.338 Y154.769 E605.71684
G1 X191.682 Y154.569 E605.88791
G1 X191 Y154.504 E606.05881
G1 X190.318 Y154.569 E606.22971
G1 X189.662 Y154.769 E606.40078
G1 X189.057 Y155.092 E606.57186
G1 X188.528 Y155.528 E606.74286
G1 X188.092 Y156.057 E606.91387
G1 X187.769 Y156.662 E607.08495
G1 X187.569 Y157.318 E607.25602
G1 X187.504 Y158 E607.42692
G1 X187.569 Y158.682 E607.59782
G1 X187.769 Y159.338 E607.76889
G1 X188.092 Y159.943 E607.93997
G1 X188.528 Y160.472 E608.11098
G1 X188.574 Y160.51 E608.12586
G1 X31.426 Y160.51 E647.32659
G1 X31.472 Y160.472 E647.34147
G1 X31.908 Y159.943 E647.51247
G1 X32.231 Y159.338 E647.68355
G1 X32.431 Y158.682 E647.85463
G1 X32.496 Y158 E648.02553
G1 X32.431 Y157.318 E648.19642
G1 X32.231 Y156.662 E648.3675
G1 X31.908 Y156.057 E648.53858
G1 X31.472 Y155.528 E648.70958
G1 X30.943 Y155.092 E648.88059
G1 X30.338 Y154.769 E649.05166
G1 X29.682 Y154.569 E649.22274
G1 X29 Y154.504 E649.39364
G1 X28.318 Y154.569 E649.56453
G1 X27.662 Y154.769 E649.73561
G1 X27.057 Y155.092 E649.90669
G1 X26.528 Y155.528 E650.07769
G1 X26.49 Y155.574 E650.09258
G1 X26.49 Y64.426 E672.82954
G1 X26.528 Y64.472 E672.84442
G1 X27.057 Y64.908 E673.01542
G1 X27.662 Y65.231 E673.1865
G1 X28.318 Y65.431 E673.35758
G1 X29 Y65.496 E673.52848
G1 X29.682 Y65.431 E673.69937
G1 X30.338 Y65.231 E673.87045
G1 X30.943 Y64.908 E674.04153
G1 X31.472 Y64.472 E674.21253
G1 X31.908 Y63.943 E674.38354
G1 X32.231 Y63.338 E674.55462
G1 X32.431 Y62.682 E674.72569
G1 X32.496 Y62 E674.89659
G1 X32.431 Y61.318 E675.06748
G1 X32.231 Y60.662 E675.23856
G1 X31.908 Y60.057 E675.40964
G1 X31.472 Y59.528 E675.58064
G1 X31.426 Y59.49 E675.59553
G1 X188.574 Y59.49 E714.79625
G1 X188.528 Y59.528 E714.81114
G1 X188.092 Y60.057 E714.98214
G1 X187.769 Y60.662 E715.15322
G1 X187.569 Y61.318 E715.3243
G1 X187.504 Y62 E715.49519
G1 X187.569 Y62.682 E715.66609
G1 X187.769 Y63.338 E715.83717
G1 X188.092 Y63.943 E716.00825
G1 X188.528 Y64.472 E716.17925
G1 X189.057 Y64.908 E716.35025
G1 X189.662 Y65.231 E716.52133
G1 X190.318 Y65.431 E716.69241
G1 X191 Y65.496 E716.86331
G1 X191.682 Y65.431 E717.0342
G1 X192.338 Y65.231 E717.20528
G1 X192.943 Y64.908 E717.37636
G1 X193.472 Y64.472 E717.54736
G1 X193.51 Y64.426 E717.56224
G0 F7500 X191 Y64.542
G0 X190.505 Y64.494
G0 X190.028 Y64.348
G0 X189.588 Y64.114
G0 X189.203 Y63.797
G0 X188.886 Y63.412
G0 X187.533 Y60.253
G1 F1500 X187.169 Y59.889 E717.69066
G0 F7500 X185.754 Y59.889
G1 F1500 X187.169 Y61.304 E718.18983
G0 F7500 X187.17 Y62.719
G1 F1500 X184.34 Y59.889 E719.18819
G0 F7500 X182.926 Y59.889
G1 F1500 X193.109 Y70.072 E722.78052
G0 F7500 X193.109 Y68.658
G1 F1500 X190.28 Y65.829 E723.77853
G0 F7500 X191.695 Y65.83
G1 F1500 X193.109 Y67.244 E724.27735
G0 F7500 X193.109 Y65.83
G1 F1500 X192.745 Y65.466 E724.40577
G0 F7500 X193.109 Y71.487
G1 F1500 X181.512 Y59.889 E728.4971
G0 F7500 X180.097 Y59.889
G1 F1500 X193.109 Y72.901 E733.08743
G0 F7500 X193.109 Y74.315
G1 F1500 X178.683 Y59.889 E738.17659
G0 F7500 X177.269 Y59.889
G1 F1500 X193.109 Y75.729 E743.76458
G0 F7500 X193.109 Y77.143
G1 F1500 X175.855 Y59.889 E749.85139
G0 F7500 X174.441 Y59.889
G1 F1500 X193.109 Y78.558 E756.43721
G0 F7500 X193.109 Y79.972
G1 F1500 X173.026 Y59.889 E763.52203
G0 F7500 X171.612 Y59.889
G1 F1500 X193.109 Y81.386 E771.10568
G0 F7500 X193.109 Y82.8
G1 F1500 X170.198 Y59.889 E779.18815
G0 F7500 X168.784 Y59.889
G1 F1500 X193.109 Y84.215 E787.76963
G0 F7500 X193.109 Y85.629
G1 F1500 X167.37 Y59.889 E796.84993
G0 F7500 X165.955 Y59.889
G1 F1500 X193.109 Y87.043 E806.42924
G0 F7500 X193.109 Y88.457
G1 F1500 X164.541 Y59.889 E816.50737
G0 F7500 X163.127 Y59.889
G1 F1500 X193.109 Y89.871 E827.08434
G0 F7500 X193.109 Y91.286
G1 F1500 X161.713 Y59.889 E838.1603
G0 F7500 X160.298 Y59.889
G1 F1500 X193.109 Y92.7 E849.73526
G0 F7500 X193.109 Y94.114
G1 F1500 X158.884 Y59.889 E861.80906
G0 F7500 X157.47 Y59.889
G1 F1500 X193.109 Y95.528 E874.38168
G0 F7500 X193.109 Y96.942
G1 F1500 X156.056 Y59.889 E887.45312
G0 F7500 X154.642 Y59.889
G1 F1500 X193.109 Y98.357 E901.02357
G0 F7500 X193.109 Y99.771
G1 F1500 X153.227 Y59.889 E915.09303
G0 F7500 X151.813 Y59.889
G1 F1500 X193.109 Y101.185 E929.66131
G0 F7500 X193.109 Y102.599
G1 F1500 X150.399 Y59.889 E944.72841
G0 F7500 X148.985 Y59.889
G1 F1500 X193.109 Y104.013 E960.29434
G0 F7500 X193.109 Y105.428
G1 F1500 X147.571 Y59.889 E976.35928
G0 F7500 X146.156 Y59.889
G1 F1500 X193.109 Y106.842 E992.92322
G0 F7500 X193.109 Y108.256
G1 F1500 X144.742 Y59.889 E1009.98598
G0 F7500 X143.328 Y59.889
G1 F1500 X193.109 Y109.67 E1027.54758
G0 F7500 X193.109 Y111.085
G1 F1500 X141.914 Y59.889 E1045.60817
G0 F7500 X140.499 Y59.889
G1 F1500 X193.109 Y112.499 E1064.16777
G0 F7500 X193.109 Y113.913
G1 F1500 X139.085 Y59.889 E1083.22619
G0 F7500 X137.671 Y59.889
G1 F1500 X193.109 Y115.327 E1102.78345
G0 F7500 X193.109 Y116.741
G1 F1500 X136.257 Y59.889 E1122.83952
G0 F7500 X134.843 Y59.889
G1 F1500 X193.109 Y118.156 E1143.39461
G0 F7500 X193.109 Y119.57
G1 F1500 X133.428 Y59.889 E1164.44869
G0 F7500 X132.014 Y59.889
G1 F1500 X193.109 Y120.984 E1186.0016
G0 F7500 X193.109 Y122.398
