;FLAVOR:Marlin
;TIME:1004
;Filament used: 0.738565m
;Layer height: 0.3
;MINX:90.596
;MINY:90.947
;MINZ:0.3
;MAXX:127.147
;MAXY:129.592
;MAXZ:12
;Generated with Cura_SteamEngine 4.8.0
M140 S80
M105
M190 S80
M104 S230
M105
M109 S230
M82 ;absolute extrusion mode
G28 ;Home
G1 Z15.0 F2000 ;Move the platform
G92 E0
G92 E0
G1 F1500 E-8
;LAYER_COUNT:40
;LAYER:0
M107
M204 S1000
G0 F9000 X92.715 Y100.863 Z0.3
;TYPE:SKIRT
G1 F1500 E0
G1 F3000 X93.685 Y99.997 E0.12975
G1 X93.793 Y99.903 E0.14403
G1 X95.783 Y98.073 E0.41379
G1 X97.757 Y96.154 E0.68849
G1 X99.634 Y94.221 E0.95734
G1 X99.911 Y93.919 E0.99823
G1 X100.879 Y92.89 E1.13919
G1 X101.201 Y92.584 E1.18351
G1 X101.491 Y92.346 E1.22095
G1 X101.759 Y92.144 E1.25443
G1 X102.236 Y91.835 E1.31114
G1 X102.49 Y91.699 E1.33989
G1 X102.809 Y91.54 E1.37546
G1 X103.305 Y91.333 E1.42908
G1 X103.619 Y91.233 E1.46197
G1 X103.968 Y91.136 E1.49811
G1 X104.523 Y91.023 E1.55462
G1 X104.839 Y90.987 E1.58636
G1 X105.197 Y90.958 E1.6222
G1 X105.65 Y90.947 E1.66741
G1 X106.141 Y90.964 E1.71643
G1 X107.908 Y91.048 E1.89294
G1 X110.617 Y91.101 E2.1633
G1 X113.334 Y91.076 E2.43441
G1 X115.032 Y91.007 E2.60398
G1 X116.44 Y90.965 E2.74454
G1 X116.985 Y90.986 E2.79896
G1 X117.322 Y91.027 E2.83283
G1 X117.652 Y91.079 E2.86616
G1 X118.194 Y91.203 E2.92164
G1 X118.508 Y91.305 E2.95458
G1 X118.847 Y91.428 E2.99057
G1 X119.362 Y91.657 E3.04681
G1 X119.669 Y91.826 E3.08177
G1 X119.955 Y91.998 E3.11507
G1 X120.38 Y92.293 E3.16669
G1 X120.66 Y92.524 E3.20291
G1 X120.92 Y92.757 E3.23775
G1 X121.323 Y93.175 E3.29569
G1 X121.518 Y93.415 E3.32654
G1 X121.728 Y93.692 E3.36123
G1 X122.043 Y94.178 E3.41901
G1 X122.172 Y94.418 E3.4462
G1 X122.387 Y94.849 E3.49426
G1 X122.657 Y95.432 E3.55837
G1 X123.83 Y97.872 E3.8285
G1 X124.668 Y99.502 E4.01138
G1 X124.959 Y100.086 E4.07649
G1 X125.168 Y100.588 E4.13074
G1 X125.281 Y100.945 E4.16811
G1 X125.371 Y101.273 E4.20205
G1 X125.476 Y101.782 E4.2539
G1 X125.518 Y102.13 E4.28888
G1 X125.542 Y102.422 E4.31811
G1 X125.809 Y105.168 E4.5934
G1 X126.15 Y107.876 E4.86574
G1 X126.569 Y110.578 E5.13857
G1 X127.055 Y113.227 E5.4073
G1 X127.1 Y113.535 E5.43836
G1 X127.118 Y113.708 E5.45571
G1 X127.137 Y114.002 E5.48511
G1 X127.147 Y114.334 E5.51825
G1 X127.126 Y114.883 E5.57307
G1 X127.085 Y115.216 E5.60655
G1 X127.033 Y115.546 E5.63988
G1 X126.909 Y116.088 E5.69536
G1 X126.808 Y116.4 E5.72808
G1 X126.686 Y116.737 E5.76385
G1 X126.455 Y117.256 E5.82053
G1 X126.304 Y117.53 E5.85175
G1 X126.127 Y117.827 E5.88624
G1 X125.817 Y118.275 E5.9406
G1 X125.578 Y118.564 E5.97802
G1 X125.367 Y118.8 E6.00961
G1 X125.171 Y119.004 E6.03784
G1 X123.145 Y120.971 E6.3196
G1 X121.176 Y122.997 E6.6015
G1 X120.228 Y124.002 E6.73935
G1 X119.879 Y124.33 E6.78714
G1 X119.615 Y124.544 E6.82105
G1 X119.35 Y124.745 E6.85423
G1 X118.883 Y125.05 E6.90989
G1 X118.617 Y125.198 E6.94026
G1 X117.992 Y125.529 E7.01083
G1 X116.121 Y126.533 E7.2227
G1 X113.769 Y127.876 E7.49295
G1 X112.419 Y128.688 E7.65014
G1 X112.126 Y128.848 E7.68345
G1 X111.841 Y128.985 E7.715
G1 X111.536 Y129.12 E7.74829
G1 X110.984 Y129.317 E7.80677
G1 X110.704 Y129.391 E7.83566
G1 X110.357 Y129.471 E7.8712
G1 X109.774 Y129.561 E7.93006
G1 X109.44 Y129.582 E7.96345
G1 X109.11 Y129.592 E7.99639
G1 X108.563 Y129.571 E8.05101
G1 X108.226 Y129.53 E8.08489
G1 X107.896 Y129.478 E8.11822
G1 X107.354 Y129.354 E8.1737
G1 X107.046 Y129.254 E8.20601
G1 X106.708 Y129.132 E8.24187
G1 X106.168 Y128.891 E8.30087
G1 X105.904 Y128.744 E8.33102
G1 X105.617 Y128.573 E8.36435
G1 X105.161 Y128.257 E8.41971
G1 X104.007 Y127.331 E8.56735
G1 X103.677 Y127.06 E8.60995
G1 X101.491 Y125.362 E8.88615
G1 X100.349 Y124.513 E9.02813
G1 X99.937 Y124.162 E9.08214
G1 X99.713 Y123.936 E9.11389
G1 X99.484 Y123.69 E9.14743
G1 X99.259 Y123.426 E9.18204
G1 X98.381 Y122.301 E9.32443
G1 X96.699 Y120.21 E9.59219
G1 X94.922 Y118.12 E9.86592
G1 X94.824 Y118.009 E9.8807
G1 X94.369 Y117.481 E9.95025
G1 X94.137 Y117.189 E9.98746
G1 X94.024 Y117.033 E10.00668
G1 X93.834 Y116.757 E10.04011
G1 X93.551 Y116.278 E10.09563
G1 X93.402 Y115.97 E10.12977
G1 X93.267 Y115.664 E10.16314
G1 X93.07 Y115.108 E10.222
G1 X93.009 Y114.883 E10.24526
G1 X92.925 Y114.555 E10.27904
G1 X92.199 Y111.858 E10.55773
G1 X91.429 Y109.285 E10.82571
G1 X91.085 Y108.235 E10.93596
G1 X90.86 Y107.507 E11.01199
G1 X90.796 Y107.257 E11.03774
G1 X90.716 Y106.907 E11.07357
G1 X90.627 Y106.325 E11.13231
G1 X90.606 Y105.994 E11.16541
G1 X90.596 Y105.662 E11.19855
G1 X90.619 Y105.094 E11.25527
G1 X90.657 Y104.788 E11.28604
G1 X90.709 Y104.457 E11.31947
G1 X90.828 Y103.935 E11.37289
G1 X90.94 Y103.586 E11.40946
G1 X91.064 Y103.248 E11.44539
G1 X91.286 Y102.75 E11.49979
G1 X91.439 Y102.472 E11.53145
G1 X91.611 Y102.182 E11.5651
G1 X91.922 Y101.732 E11.61968
G1 X92.156 Y101.448 E11.6564
G1 X92.401 Y101.175 E11.693
G1 X92.715 Y100.863 E11.73717
G0 F9000 X92.981 Y101.161
G1 F3000 X93.948 Y100.299 E11.86642
G1 X94.063 Y100.199 E11.88163
G1 X96.05 Y98.372 E12.15097
G1 X98.023 Y96.454 E12.42552
G1 X99.941 Y94.478 E12.7003
G1 X100.202 Y94.193 E12.73886
G1 X101.17 Y93.164 E12.87982
G1 X101.46 Y92.889 E12.9197
G1 X101.732 Y92.665 E12.95486
G1 X102 Y92.463 E12.98835
G1 X102.429 Y92.185 E13.03935
G1 X102.668 Y92.057 E13.06641
G1 X102.987 Y91.898 E13.10197
G1 X103.434 Y91.712 E13.15028
G1 X103.726 Y91.618 E13.18089
G1 X104.075 Y91.521 E13.21703
G1 X104.575 Y91.42 E13.26793
G1 X104.871 Y91.386 E13.29766
G1 X105.229 Y91.357 E13.3335
G1 X105.637 Y91.347 E13.37422
G1 X106.122 Y91.363 E13.42264
G1 X107.917 Y91.448 E13.60195
G1 X110.613 Y91.501 E13.87101
G1 X113.354 Y91.475 E14.14452
G1 X115.044 Y91.407 E14.31328
G1 X116.452 Y91.365 E14.45383
G1 X116.943 Y91.383 E14.50286
G1 X117.259 Y91.422 E14.53463
G1 X117.589 Y91.474 E14.56796
G1 X118.077 Y91.586 E14.61792
G1 X118.372 Y91.681 E14.64885
G1 X118.711 Y91.804 E14.68483
G1 X119.174 Y92.01 E14.73539
G1 X119.462 Y92.169 E14.76822
G1 X119.748 Y92.341 E14.80152
G1 X120.131 Y92.606 E14.84799
G1 X120.393 Y92.822 E14.88187
G1 X120.653 Y93.055 E14.91671
G1 X121.016 Y93.431 E14.96886
G1 X121.199 Y93.657 E14.99787
G1 X121.409 Y93.934 E15.03256
G1 X121.693 Y94.371 E15.08456
G1 X121.815 Y94.598 E15.11027
G1 X122.024 Y95.017 E15.15699
G1 X122.272 Y95.553 E15.21592
G1 X123.486 Y98.078 E15.49548
G1 X124.31 Y99.68 E15.67523
G1 X124.601 Y100.264 E15.74034
G1 X124.789 Y100.716 E15.78918
G1 X124.896 Y101.05 E15.82418
G1 X124.986 Y101.378 E15.85812
G1 X125.08 Y101.837 E15.90487
G1 X125.12 Y102.163 E15.93764
G1 X125.149 Y102.512 E15.97258
G1 X125.413 Y105.221 E16.24417
G1 X125.752 Y107.921 E16.51569
G1 X126.173 Y110.634 E16.78963
G1 X126.662 Y113.299 E17.05999
G1 X126.702 Y113.576 E17.08791
G1 X126.72 Y113.749 E17.10527
G1 X126.737 Y114.014 E17.13176
G1 X126.747 Y114.346 E17.16491
G1 X126.728 Y114.84 E17.21423
G1 X126.69 Y115.153 E17.2457
G1 X126.638 Y115.483 E17.27903
G1 X126.526 Y115.971 E17.32899
G1 X126.432 Y116.263 E17.3596
G1 X126.31 Y116.6 E17.39536
G1 X126.102 Y117.068 E17.44646
G1 X125.96 Y117.325 E17.47576
G1 X125.783 Y117.622 E17.51026
G1 X125.504 Y118.025 E17.55916
G1 X125.28 Y118.297 E17.59432
G1 X125.069 Y118.533 E17.62591
G1 X124.893 Y118.717 E17.65132
G1 X122.845 Y120.706 E17.93618
G1 X120.885 Y122.722 E18.21673
G1 X119.937 Y123.727 E18.35459
G1 X119.623 Y124.023 E18.39765
G1 X119.374 Y124.225 E18.42964
G1 X119.109 Y124.426 E18.46283
G1 X118.688 Y124.701 E18.513
G1 X118.43 Y124.844 E18.54243
G1 X117.805 Y125.175 E18.613
G1 X115.957 Y126.166 E18.82224
G1 X113.544 Y127.545 E19.09955
G1 X112.213 Y128.345 E19.2545
G1 X111.949 Y128.489 E19.28451
G1 X111.679 Y128.619 E19.31441
G1 X111.374 Y128.754 E19.34769
G1 X110.877 Y128.932 E19.40037
G1 X110.614 Y129.001 E19.4275
G1 X110.267 Y129.081 E19.46303
G1 X109.742 Y129.162 E19.51603
G1 X109.428 Y129.182 E19.54743
G1 X109.098 Y129.192 E19.58037
G1 X108.605 Y129.174 E19.62959
G1 X108.289 Y129.135 E19.66136
G1 X107.959 Y129.083 E19.6947
G1 X107.471 Y128.971 E19.74466
G1 X107.182 Y128.878 E19.77495
G1 X106.844 Y128.756 E19.8108
G1 X106.358 Y128.539 E19.86391
G1 X106.108 Y128.401 E19.89241
G1 X105.821 Y128.23 E19.92574
G1 X105.412 Y127.945 E19.97548
G1 X104.261 Y127.022 E20.12269
G1 X103.914 Y126.737 E20.1675
G1 X101.765 Y125.068 E20.439
G1 X100.587 Y124.192 E20.58548
G1 X100.217 Y123.876 E20.63403
G1 X100.006 Y123.664 E20.66388
G1 X99.777 Y123.418 E20.69741
G1 X99.574 Y123.18 E20.72862
G1 X98.728 Y122.096 E20.86583
G1 X96.982 Y119.924 E21.14389
G1 X95.188 Y117.817 E21.42001
G1 X94.672 Y117.22 E21.49875
G1 X94.455 Y116.947 E21.53355
G1 X94.354 Y116.806 E21.55085
G1 X94.164 Y116.53 E21.58429
G1 X93.909 Y116.099 E21.63425
G1 X93.768 Y115.808 E21.66652
G1 X93.633 Y115.502 E21.69989
G1 X93.455 Y115.002 E21.75285
G1 X93.396 Y114.784 E21.77538
G1 X93.299 Y114.403 E21.81461
G1 X92.592 Y111.777 E22.08597
G1 X91.809 Y109.16 E22.35853
G1 X91.467 Y108.117 E22.46805
G1 X91.28 Y107.516 E22.53086
G1 X91.186 Y107.168 E22.56682
G1 X91.106 Y106.818 E22.60265
G1 X91.026 Y106.294 E22.65554
G1 X91.006 Y105.982 E22.68673
G1 X90.996 Y105.65 E22.71988
G1 X91.017 Y105.139 E22.77091
G1 X91.053 Y104.85 E22.79997
G1 X91.105 Y104.519 E22.8334
G1 X91.211 Y104.049 E22.88147
G1 X91.315 Y103.724 E22.91552
G1 X91.439 Y103.386 E22.95145
G1 X91.639 Y102.938 E23.0004
G1 X91.783 Y102.677 E23.03014
G1 X91.955 Y102.387 E23.06379
G1 X92.235 Y101.981 E23.113
G1 X92.454 Y101.716 E23.1473
G1 X92.699 Y101.443 E23.1839
G1 X92.981 Y101.161 E23.22369
G0 F9000 X93.247 Y101.46
G1 F3000 X94.21 Y100.601 E23.35246
G1 X94.313 Y100.512 E23.36604
G1 X96.353 Y98.636 E23.64257
G1 X98.306 Y96.737 E23.91438
G1 X100.198 Y94.789 E24.18534
G1 X100.493 Y94.467 E24.22892
G1 X101.461 Y93.438 E24.36988
G1 X101.719 Y93.193 E24.40538
G1 X101.973 Y92.985 E24.43814
G1 X102.241 Y92.783 E24.47163
G1 X102.622 Y92.536 E24.51693
G1 X102.847 Y92.415 E24.54242
G1 X103.166 Y92.256 E24.57799
G1 X103.562 Y92.091 E24.62079
G1 X103.833 Y92.004 E24.64919
G1 X104.182 Y91.907 E24.68534
G1 X104.626 Y91.817 E24.73054
G1 X104.904 Y91.784 E24.75848
G1 X105.262 Y91.755 E24.79431
G1 X105.624 Y91.747 E24.83044
G1 X106.103 Y91.763 E24.87826
G1 X107.89 Y91.848 E25.05677
G1 X110.609 Y91.901 E25.32813
G1 X113.373 Y91.875 E25.60393
G1 X115.056 Y91.806 E25.772
G1 X116.464 Y91.764 E25.91256
G1 X116.9 Y91.781 E25.9561
G1 X117.197 Y91.817 E25.98595
G1 X117.527 Y91.869 E26.01928
G1 X117.961 Y91.969 E26.06372
G1 X118.235 Y92.057 E26.09244
G1 X118.574 Y92.18 E26.12842
G1 X118.987 Y92.363 E26.17349
G1 X119.256 Y92.512 E26.20418
G1 X119.542 Y92.684 E26.23748
G1 X119.883 Y92.92 E26.27886
G1 X120.126 Y93.12 E26.31026
G1 X120.386 Y93.353 E26.34509
G1 X120.708 Y93.687 E26.39139
G1 X120.88 Y93.899 E26.41863
G1 X121.09 Y94.176 E26.45331
G1 X121.342 Y94.564 E26.49947
G1 X121.458 Y94.778 E26.52376
G1 X121.661 Y95.185 E26.56914
G1 X121.926 Y95.757 E26.63205
G1 X123.113 Y98.226 E26.9054
G1 X123.952 Y99.859 E27.08858
G1 X124.243 Y100.443 E27.15369
G1 X124.41 Y100.844 E27.19703
G1 X124.51 Y101.156 E27.22972
G1 X124.6 Y101.484 E27.26366
G1 X124.684 Y101.892 E27.30523
G1 X124.721 Y102.196 E27.33578
G1 X124.746 Y102.5 E27.36622
G1 X125.016 Y105.273 E27.64422
G1 X125.358 Y107.995 E27.91796
G1 X125.777 Y110.696 E28.19069
G1 X126.268 Y113.371 E28.46206
G1 X126.322 Y113.791 E28.50431
G1 X126.338 Y114.026 E28.52781
G1 X126.348 Y114.358 E28.56096
G1 X126.331 Y114.797 E28.60479
G1 X126.295 Y115.091 E28.63435
G1 X126.243 Y115.421 E28.66768
G1 X126.143 Y115.855 E28.71212
G1 X126.056 Y116.127 E28.74061
G1 X125.934 Y116.464 E28.77638
G1 X125.749 Y116.88 E28.8218
G1 X125.617 Y117.12 E28.84913
G1 X125.44 Y117.417 E28.88363
G1 X125.192 Y117.775 E28.92709
G1 X124.982 Y118.031 E28.96013
G1 X124.771 Y118.267 E28.99171
G1 X124.614 Y118.43 E29.0143
G1 X122.58 Y120.405 E29.29718
G1 X120.594 Y122.448 E29.58148
G1 X119.646 Y123.453 E29.71933
G1 X119.367 Y123.715 E29.75752
G1 X119.132 Y123.907 E29.7878
G1 X118.867 Y124.108 E29.82099
G1 X118.493 Y124.352 E29.86555
G1 X118.243 Y124.491 E29.89409
G1 X117.618 Y124.822 E29.96466
G1 X115.748 Y125.825 E30.17639
G1 X113.372 Y127.183 E30.44946
G1 X112.007 Y128.003 E30.60835
G1 X111.772 Y128.131 E30.63505
G1 X111.517 Y128.253 E30.66325
G1 X111.212 Y128.388 E30.69654
G1 X110.771 Y128.546 E30.74328
G1 X110.524 Y128.611 E30.76876
G1 X110.177 Y128.691 E30.80429
G1 X109.71 Y128.763 E30.85144
G1 X109.416 Y128.783 E30.88085
G1 X109.086 Y128.793 E30.91379
G1 X108.648 Y128.776 E30.95753
G1 X108.351 Y128.74 E30.98738
G1 X108.021 Y128.688 E31.02071
G1 X107.587 Y128.588 E31.06515
G1 X107.318 Y128.502 E31.09333
G1 X106.98 Y128.38 E31.12918
G1 X106.547 Y128.187 E31.17649
G1 X106.313 Y128.057 E31.2032
G1 X106.026 Y127.886 E31.23653
G1 X105.662 Y127.633 E31.28076
G1 X104.515 Y126.713 E31.42748
G1 X104.168 Y126.427 E31.47235
G1 X101.994 Y124.739 E31.74698
G1 X100.826 Y123.871 E31.89218
G1 X100.497 Y123.59 E31.93535
G1 X100.299 Y123.391 E31.96337
G1 X100.07 Y123.145 E31.9969
G1 X99.889 Y122.934 E32.02464
G1 X99.011 Y121.809 E32.16703
G1 X97.283 Y119.659 E32.44226
G1 X95.539 Y117.611 E32.71067
G1 X95.43 Y117.487 E32.72714
G1 X94.975 Y116.959 E32.79669
G1 X94.774 Y116.704 E32.82908
G1 X94.683 Y116.58 E32.84443
G1 X94.493 Y116.304 E32.87787
G1 X94.267 Y115.92 E32.92232
G1 X94.134 Y115.647 E32.95262
G1 X93.999 Y115.341 E32.986
G1 X93.841 Y114.896 E33.03312
G1 X93.784 Y114.686 E33.05483
G1 X93.687 Y114.305 E33.09406
G1 X92.976 Y111.664 E33.36696
G1 X92.189 Y109.035 E33.64078
G1 X91.848 Y107.998 E33.74971
G1 X91.661 Y107.397 E33.81251
G1 X91.575 Y107.079 E33.84538
G1 X91.495 Y106.729 E33.8812
G1 X91.425 Y106.263 E33.92822
G1 X91.405 Y105.97 E33.95753
G1 X91.395 Y105.638 E33.99067
G1 X91.414 Y105.183 E34.03611
G1 X91.448 Y104.912 E34.06336
G1 X91.5 Y104.581 E34.09679
G1 X91.594 Y104.163 E34.13954
G1 X91.691 Y103.862 E34.1711
G1 X91.815 Y103.524 E34.20702
G1 X91.993 Y103.125 E34.25062
G1 X92.127 Y102.881 E34.27839
G1 X92.299 Y102.591 E34.31204
G1 X92.547 Y102.23 E34.35574
G1 X92.751 Y101.983 E34.3877
G1 X92.996 Y101.71 E34.4243
G1 X93.247 Y101.46 E34.45965
;MESH:washer.stl(17)
G0 F9000 X95.223 Y104.343
G0 X95.138 Y105.195
G0 X95.235 Y105.218
;TYPE:WALL-OUTER
G1 F1500 X95.183 Y105.575 E34.49565
G1 X95.199 Y105.931 E34.53121
G1 X95.285 Y106.288 E34.56785
G1 X95.435 Y106.617 E34.60393
G1 X95.645 Y106.911 E34.63998
G1 X95.907 Y107.16 E34.67604
G1 X96.211 Y107.356 E34.71213
G1 X96.546 Y107.49 E34.74813
G1 X96.901 Y107.558 E34.7842
G1 X97.262 Y107.558 E34.82022
G1 X97.617 Y107.49 E34.85629
G1 X97.953 Y107.356 E34.89238
G1 X98.256 Y107.16 E34.92839
G1 X98.518 Y106.911 E34.96445
G1 X98.728 Y106.617 E35.0005
G1 X98.878 Y106.288 E35.03658
G1 X98.963 Y105.937 E35.07262
G1 X98.981 Y105.576 E35.10868
G1 X98.929 Y105.218 E35.14478
G1 X98.811 Y104.876 E35.18088
G1 X98.63 Y104.563 E35.21696
G1 X98.394 Y104.291 E35.25289
G1 X98.11 Y104.067 E35.28898
G1 X97.788 Y103.901 E35.32513
G1 X97.441 Y103.8 E35.36119
G1 X97.082 Y103.765 E35.39718
G1 X96.722 Y103.8 E35.43327
G1 X96.375 Y103.901 E35.46933
G1 X96.054 Y104.067 E35.50539
G1 X95.769 Y104.291 E35.54156
G1 X95.533 Y104.563 E35.57749
G1 X95.352 Y104.877 E35.61365
G1 X95.235 Y105.218 E35.64963
G0 F9000 X95.207 Y105.416
G0 X95.108 Y105.401
G0 X95.248 Y106.301
G0 X95.615 Y106.937
G0 X96.193 Y107.391
G0 X96.763 Y107.557
G0 X98.093 Y107.622
G0 X98.138 Y107.71
G1 F1500 X97.727 Y107.874 E35.69378
G1 X97.302 Y107.956 E35.73697
G1 X96.861 Y107.956 E35.78097
G1 X96.436 Y107.874 E35.82416
G1 X96.026 Y107.71 E35.86822
G1 X95.662 Y107.476 E35.9114
G1 X95.343 Y107.172 E35.95537
G1 X95.09 Y106.816 E35.99895
G1 X94.907 Y106.416 E36.04284
G1 X94.805 Y105.997 E36.08587
G1 X94.785 Y105.555 E36.13001
G1 X94.846 Y105.124 E36.17345
G1 X94.991 Y104.709 E36.21731
G1 X95.207 Y104.332 E36.26067
G1 X95.494 Y104.001 E36.30438
G1 X95.837 Y103.731 E36.34794
G1 X96.228 Y103.529 E36.39185
G1 X96.646 Y103.407 E36.4353
G1 X97.082 Y103.365 E36.479
G1 X97.516 Y103.407 E36.52251
G1 X97.935 Y103.529 E36.56605
G1 X98.327 Y103.731 E36.61006
G1 X98.669 Y104.001 E36.65353
G1 X98.956 Y104.332 E36.69725
G1 X99.172 Y104.709 E36.7406
G1 X99.317 Y105.124 E36.78447
G1 X99.379 Y105.556 E36.82801
G1 X99.358 Y105.997 E36.87206
G1 X99.256 Y106.416 E36.91509
G1 X99.073 Y106.816 E36.95898
