;FLAVOR:Marlin
;TIME:5945
;Filament used: 3.88576m
;Layer height: 0.2
;MINX:81.282
;MINY:84.91
;MINZ:0.2
;MAXX:130.54
;MAXY:127
;MAXZ:37.8
;Generated with Cura_SteamEngine 4.8.0
M140 S80
M105
M190 S80
M104 S230
M105
M109 S230
M82 ;absolute extrusion mode
G28 ;Home
G1 Z15.0 F2000 ;Move the platform
G92 E0
G92 E0
G1 F1500 E-6.5
;LAYER_COUNT:189
;LAYER:0
M107
M204 S1000
G0 F7500 X97.612 Y89.553 Z0.2
;TYPE:SKIRT
G1 F1500 E0
G1 X98.005 Y89.146 E0.03764
G1 X98.273 Y88.925 E0.06074
G1 X99.046 Y88.343 E0.12511
G1 X99.583 Y87.954 E0.16922
G1 X100.16 Y87.546 E0.21622
G1 X100.643 Y87.253 E0.2538
G1 X101.163 Y87.031 E0.29141
G1 X101.709 Y86.885 E0.32901
G1 X102.399 Y86.813 E0.37516
G1 X103.38 Y86.796 E0.44043
G1 X104.036 Y86.796 E0.48406
G1 X104.737 Y86.806 E0.5307
G1 X105.3 Y86.854 E0.56828
G1 X105.621 Y86.918 E0.59006
G1 X106.179 Y87.053 E0.62825
G1 X108.843 Y87.667 E0.8101
G1 X111.531 Y88.206 E0.99247
G1 X114.171 Y88.659 E1.17065
G1 X116.888 Y89.046 E1.35321
G1 X119.586 Y89.352 E1.53383
G1 X120.112 Y89.404 E1.56899
G1 X120.669 Y89.5 E1.60659
G1 X121.207 Y89.672 E1.64416
G1 X121.716 Y89.919 E1.6818
G1 X122.022 Y90.115 E1.70597
G1 X122.496 Y90.449 E1.74454
G1 X122.598 Y90.523 E1.75292
G1 X122.865 Y90.724 E1.77516
G1 X123.359 Y91.165 E1.81921
G1 X124.368 Y92.228 E1.9167
G1 X124.584 Y92.46 E1.93778
G1 X126.458 Y94.373 E2.11592
G1 X127.722 Y95.588 E2.23255
G1 X128.288 Y96.144 E2.28533
G1 X128.745 Y96.68 E2.33218
G1 X129.04 Y97.162 E2.36977
G1 X129.265 Y97.681 E2.4074
G1 X129.413 Y98.226 E2.44497
G1 X129.488 Y98.882 E2.48889
G1 X129.5 Y99.33 E2.5187
G1 X129.5 Y120.351 E3.91703
G1 X129.49 Y121.04 E3.96286
G1 X129.441 Y121.603 E4.00046
G1 X129.314 Y122.154 E4.03807
G1 X129.111 Y122.682 E4.0757
G1 X128.699 Y123.37 E4.12904
G1 X128.225 Y124.007 E4.18186
G1 X128.145 Y124.111 E4.19059
G1 X127.848 Y124.484 E4.22231
G1 X127.466 Y124.9 E4.25987
G1 X127.028 Y125.258 E4.2975
G1 X126.545 Y125.551 E4.33508
G1 X126.125 Y125.737 E4.36564
G1 X125.818 Y125.851 E4.38742
G1 X125.578 Y125.935 E4.40434
G1 X123.655 Y126.587 E4.53941
G1 X123.008 Y126.796 E4.58464
G1 X122.459 Y126.932 E4.62226
G1 X121.898 Y126.988 E4.65976
G1 X121.478 Y126.999 E4.68771
G1 X98.87 Y127 E6.1916
G1 X98.166 Y126.99 E6.23844
G1 X97.603 Y126.942 E6.27602
G1 X97.046 Y126.813 E6.31406
G1 X96.692 Y126.704 E6.3387
G1 X94.636 Y126.007 E6.48311
G1 X93.946 Y125.763 E6.53179
G1 X93.428 Y125.537 E6.56939
G1 X92.947 Y125.241 E6.60695
G1 X92.583 Y124.946 E6.63812
G1 X92.296 Y124.684 E6.66397
G1 X90.7 Y123.193 E6.80926
G1 X88.68 Y121.409 E6.98853
G1 X86.586 Y119.664 E7.16985
G1 X83.774 Y117.471 E7.40706
G1 X83.652 Y117.38 E7.41719
G1 X83.225 Y117.01 E7.45477
G1 X82.854 Y116.583 E7.4924
G1 X82.547 Y116.108 E7.53002
G1 X82.271 Y115.485 E7.57535
G1 X81.988 Y114.663 E7.63318
G1 X81.667 Y113.677 E7.70216
G1 X81.459 Y113.003 E7.74908
G1 X81.331 Y112.452 E7.78671
G1 X81.282 Y111.889 E7.8243
G1 X81.312 Y111.324 E7.86194
G1 X81.456 Y110.652 E7.90765
G1 X81.736 Y109.74 E7.97111
G1 X82.037 Y108.818 E8.03563
G1 X82.262 Y108.159 E8.08195
G1 X82.482 Y107.638 E8.11957
G1 X82.773 Y107.153 E8.1572
G1 X83.053 Y106.798 E8.18727
G1 X83.449 Y106.352 E8.22695
G1 X84.618 Y105.069 E8.34241
G1 X86.385 Y103.016 E8.52259
G1 X88.104 Y100.901 E8.70389
G1 X89.751 Y98.754 E8.88389
G1 X90.898 Y97.16 E9.01452
G1 X91.276 Y96.648 E9.05686
G1 X91.545 Y96.321 E9.08502
G1 X91.747 Y96.102 E9.10484
G1 X93.444 Y94.328 E9.26815
G1 X95.275 Y92.302 E9.4498
G1 X96.801 Y90.523 E9.60571
G1 X97.612 Y89.553 E9.68982
G0 F7500 X97.919 Y89.81
G1 F1500 X98.293 Y89.425 E9.72552
G1 X98.514 Y89.245 E9.74448
G1 X99.282 Y88.667 E9.80842
G1 X99.814 Y88.281 E9.85215
G1 X100.391 Y87.873 E9.89915
G1 X100.85 Y87.596 E9.93482
G1 X101.346 Y87.392 E9.97049
G1 X101.866 Y87.263 E10.00613
G1 X102.406 Y87.213 E10.0422
G1 X103.38 Y87.196 E10.10701
G1 X104.03 Y87.196 E10.15024
G1 X104.731 Y87.206 E10.19688
G1 X105.527 Y87.307 E10.25025
G1 X106.092 Y87.444 E10.28893
G1 X108.739 Y88.053 E10.46961
G1 X111.463 Y88.6 E10.65442
G1 X114.113 Y89.055 E10.83328
G1 X116.823 Y89.441 E11.01537
G1 X119.546 Y89.75 E11.19767
G1 X120.072 Y89.802 E11.23283
G1 X120.6 Y89.895 E11.26849
G1 X121.109 Y90.065 E11.30419
G1 X121.792 Y90.442 E11.35609
G1 X122.266 Y90.776 E11.39466
G1 X122.624 Y91.044 E11.42441
G1 X123.069 Y91.441 E11.46407
G1 X124.076 Y92.501 E11.56133
G1 X124.289 Y92.73 E11.58214
G1 X126.18 Y94.66 E11.76187
G1 X127.442 Y95.874 E11.87836
G1 X128.008 Y96.43 E11.93114
G1 X128.419 Y96.913 E11.97332
G1 X128.698 Y97.371 E12.009
G1 X128.905 Y97.866 E12.04469
G1 X129.036 Y98.386 E12.08036
G1 X129.088 Y98.894 E12.11433
G1 X129.1 Y99.33 E12.14334
G1 X129.1 Y120.345 E13.54127
G1 X129.09 Y121.034 E13.5871
G1 X129.042 Y121.568 E13.62277
G1 X128.915 Y122.09 E13.6585
G1 X128.713 Y122.586 E13.69413
G1 X128.378 Y123.131 E13.73668
G1 X127.904 Y123.768 E13.7895
G1 X127.535 Y124.234 E13.82904
G1 X127.171 Y124.628 E13.86472
G1 X126.752 Y124.963 E13.90041
G1 X126.288 Y125.232 E13.93609
G1 X125.985 Y125.362 E13.95802
G1 X125.686 Y125.473 E13.97923
G1 X125.45 Y125.556 E13.99588
G1 X123.532 Y126.207 E14.13061
G1 X122.885 Y126.416 E14.17584
G1 X122.363 Y126.542 E14.21156
G1 X121.886 Y126.588 E14.24344
G1 X121.478 Y126.599 E14.27059
G1 X98.876 Y126.6 E15.77408
G1 X98.172 Y126.59 E15.82091
G1 X97.638 Y126.542 E15.85658
G1 X97.164 Y126.431 E15.88896
G1 X96.711 Y126.29 E15.92052
G1 X94.77 Y125.63 E16.0569
G1 X94.08 Y125.386 E16.10558
G1 X93.589 Y125.17 E16.14126
G1 X93.136 Y124.884 E16.1769
G1 X92.853 Y124.651 E16.20129
G1 X92.569 Y124.392 E16.22685
G1 X90.975 Y122.902 E16.372
G1 X88.915 Y121.084 E16.55476
G1 X86.857 Y119.368 E16.73301
G1 X84.003 Y117.143 E16.97373
G1 X83.892 Y117.06 E16.98295
G1 X83.488 Y116.707 E17.01864
G1 X83.141 Y116.298 E17.05432
G1 X82.859 Y115.842 E17.08998
G1 X82.649 Y115.355 E17.12526
G1 X82.368 Y114.539 E17.18267
G1 X82.049 Y113.559 E17.25123
G1 X81.841 Y112.885 E17.29815
G1 X81.722 Y112.362 E17.33383
G1 X81.681 Y111.827 E17.36952
G1 X81.72 Y111.292 E17.40521
G1 X81.839 Y110.769 E17.44088
G1 X82.117 Y109.863 E17.50393
G1 X82.415 Y108.947 E17.568
G1 X82.64 Y108.288 E17.61432
G1 X82.851 Y107.795 E17.64999
G1 X83.132 Y107.338 E17.68568
G1 X83.353 Y107.063 E17.70915
G1 X83.744 Y106.622 E17.74835
G1 X84.918 Y105.334 E17.86428
G1 X86.682 Y103.284 E18.04419
G1 X88.423 Y101.142 E18.2278
G1 X90.076 Y98.986 E18.40852
G1 X91.22 Y97.398 E18.53871
G1 X91.598 Y96.886 E18.58105
G1 X91.84 Y96.591 E18.60643
G1 X92.036 Y96.379 E18.62563
G1 X93.731 Y94.608 E18.7887
G1 X95.575 Y92.567 E18.97168
G1 X97.133 Y90.75 E19.13089
G1 X97.919 Y89.81 E19.2124
G0 F7500 X98.226 Y90.067
G1 F1500 X98.754 Y89.564 E19.26091
G1 X99.517 Y88.99 E19.32442
G1 X100.044 Y88.607 E19.36776
G1 X100.621 Y88.199 E19.41477
G1 X101.056 Y87.941 E19.44841
G1 X101.526 Y87.754 E19.48206
G1 X102.019 Y87.644 E19.51566
G1 X102.413 Y87.612 E19.54196
G1 X103.324 Y87.596 E19.60257
G1 X104.025 Y87.596 E19.6492
G1 X104.726 Y87.606 E19.69583
G1 X105.433 Y87.696 E19.74324
G1 X105.999 Y87.833 E19.78198
G1 X108.676 Y88.45 E19.96472
G1 X111.348 Y88.986 E20.14601
G1 X114.061 Y89.451 E20.32911
G1 X116.758 Y89.836 E20.51033
G1 X119.553 Y90.154 E20.69745
G1 X120.033 Y90.201 E20.72954
G1 X120.53 Y90.29 E20.76312
G1 X121.008 Y90.456 E20.79678
G1 X121.561 Y90.769 E20.83905
G1 X122.117 Y91.162 E20.88434
G1 X122.384 Y91.363 E20.90657
G1 X122.779 Y91.716 E20.94181
G1 X123.783 Y92.773 E21.03879
G1 X124.013 Y93.019 E21.06119
G1 X125.916 Y94.962 E21.2421
G1 X127.161 Y96.159 E21.35699
G1 X127.727 Y96.715 E21.40977
G1 X128.094 Y97.145 E21.44737
G1 X128.354 Y97.578 E21.48097
G1 X128.543 Y98.047 E21.51461
G1 X128.656 Y98.54 E21.54825
G1 X128.688 Y98.907 E21.57276
G1 X128.7 Y99.33 E21.60091
G1 X128.7 Y120.339 E22.99843
G1 X128.69 Y121.028 E23.04427
G1 X128.642 Y121.532 E23.07795
G1 X128.516 Y122.021 E23.11154
G1 X128.315 Y122.485 E23.14517
G1 X128.057 Y122.892 E23.17723
G1 X127.583 Y123.529 E23.23005
G1 X127.222 Y123.985 E23.26873
G1 X126.877 Y124.355 E23.30239
G1 X126.478 Y124.665 E23.336
G1 X125.844 Y124.988 E23.38333
G1 X125.554 Y125.096 E23.40391
G1 X125.321 Y125.177 E23.42032
G1 X123.409 Y125.826 E23.55464
G1 X122.762 Y126.035 E23.59987
G1 X122.27 Y126.152 E23.63351
G1 X121.874 Y126.189 E23.65996
G1 X121.574 Y126.198 E23.67993
G1 X98.882 Y126.2 E25.18941
G1 X98.178 Y126.19 E25.23624
G1 X97.674 Y126.143 E25.26991
G1 X97.281 Y126.048 E25.29681
G1 X96.84 Y125.911 E25.32753
G1 X94.903 Y125.253 E25.46361
G1 X94.213 Y125.009 E25.51229
G1 X93.751 Y124.803 E25.54594
G1 X93.328 Y124.527 E25.57954
G1 X93.122 Y124.355 E25.59739
G1 X92.842 Y124.099 E25.62263
G1 X91.249 Y122.61 E25.76768
G1 X89.19 Y120.793 E25.95035
G1 X87.109 Y119.058 E26.13058
G1 X84.232 Y116.815 E26.37325
G1 X84.132 Y116.74 E26.38156
G1 X83.753 Y116.406 E26.41517
G1 X83.431 Y116.016 E26.44881
G1 X83.175 Y115.58 E26.48244
G1 X83.027 Y115.224 E26.50809
G1 X82.748 Y114.415 E26.56501
G1 X82.431 Y113.441 E26.63315
G1 X82.223 Y112.767 E26.68007
G1 X82.113 Y112.273 E26.71374
G1 X82.081 Y111.769 E26.74733
G1 X82.13 Y111.265 E26.78101
G1 X82.221 Y110.886 E26.80694
G1 X82.497 Y109.987 E26.8695
G1 X82.794 Y109.076 E26.93324
G1 X83.019 Y108.417 E26.97956
G1 X83.219 Y107.953 E27.01317
G1 X83.491 Y107.526 E27.04685
G1 X83.652 Y107.329 E27.06377
G1 X84.04 Y106.891 E27.10269
G1 X85.216 Y105.601 E27.21881
G1 X87.012 Y103.513 E27.40202
G1 X88.729 Y101.402 E27.58303
G1 X90.393 Y99.232 E27.76493
G1 X91.542 Y97.635 E27.8958
G1 X91.92 Y97.123 E27.93814
G1 X92.135 Y96.862 E27.96063
G1 X92.325 Y96.656 E27.97927
G1 X94.018 Y94.887 E28.14215
G1 X95.875 Y92.832 E28.3264
G1 X97.437 Y91.01 E28.48604
G1 X98.226 Y90.067 E28.56783
G1 F1500 E22.06783
G0 F7500 X92.531 Y93.964
G0 X89.464 Y97.031
G0 X89.291 Y111.779
G1 F1500 E28.56783
G1 X89.33 Y111.833 E28.57226
G1 X89.27 Y111.833 E28.57625
G1 X89.291 Y111.779 E28.5801
G0 F7500 X89.161 Y111.379
G1 F1500 X89.439 Y111.379 E28.5986
G1 X89.67 Y111.547 E28.6176
G1 X89.757 Y111.814 E28.63628
G1 X89.67 Y112.081 E28.65496
G1 X89.439 Y112.249 E28.67396
G1 X89.161 Y112.249 E28.69245
G1 X88.93 Y112.081 E28.71145
G1 X88.843 Y111.814 E28.73013
G1 X88.93 Y111.547 E28.74881
G1 X89.161 Y111.379 E28.76781
G0 F7500 X89.03 Y110.979
G1 F1500 X89.57 Y110.979 E28.80373
G1 X90.011 Y111.3 E28.84002
G1 X90.178 Y111.814 E28.87597
G1 X90.011 Y112.328 E28.91192
G1 X89.57 Y112.649 E28.9482
G1 X89.03 Y112.649 E28.98412
G1 X88.589 Y112.328 E29.02041
G1 X88.422 Y111.814 E29.05636
G1 X88.589 Y111.3 E29.09231
G1 X89.03 Y110.979 E29.12859
G0 F7500 X88.9 Y110.579
G1 F1500 X89.7 Y110.579 E29.18181
G1 X90.351 Y111.053 E29.23538
G1 X90.599 Y111.814 E29.28862
G1 X90.351 Y112.575 E29.34186
G1 X89.7 Y113.049 E29.39543
G1 X88.9 Y113.049 E29.44864
G1 X88.249 Y112.575 E29.50221
G1 X88.001 Y111.814 E29.55545
G1 X88.249 Y111.053 E29.60869
G1 X88.9 Y110.579 E29.66226
G0 F7500 X88.769 Y110.179
G1 F1500 X89.831 Y110.179 E29.73291
G1 X90.691 Y110.805 E29.80367
G1 X91.019 Y111.814 E29.87424
G1 X90.691 Y112.823 E29.94482
G1 X89.831 Y113.449 E30.01558
G1 X88.769 Y113.449 E30.08622
G1 X87.909 Y112.823 E30.15698
G1 X87.581 Y111.814 E30.22755
G1 X87.909 Y110.805 E30.29813
G1 X88.769 Y110.179 E30.36889
G0 F7500 X88.64 Y109.779
G1 F1500 X89.96 Y109.779 E30.4567
G1 X91.032 Y110.56 E30.54492
G1 X91.441 Y111.814 E30.63266
G1 X91.032 Y113.068 E30.72041
G1 X89.96 Y113.849 E30.80863
G1 X88.64 Y113.849 E30.89644
G1 X87.568 Y113.068 E30.98467
G1 X87.159 Y111.814 E31.07241
G1 X87.568 Y110.56 E31.16015
G1 X88.64 Y109.779 E31.24838
G0 F7500 X88.51 Y109.379
G1 F1500 X90.09 Y109.379 E31.35348
G1 X91.371 Y110.312 E31.4589
G1 X91.861 Y111.814 E31.56399
G1 X91.371 Y113.316 E31.66909
G1 X90.09 Y114.249 E31.77451
G1 X88.51 Y114.249 E31.87961
G1 X87.229 Y113.316 E31.98503
G1 X86.739 Y111.814 E32.09012
G1 X87.229 Y110.312 E32.19522
G1 X88.51 Y109.379 E32.30064
G0 F7500 X88.379 Y108.979
G1 F1500 X90.221 Y108.979 E32.42317
G1 X91.711 Y110.064 E32.54578
G1 X92.281 Y111.814 E32.66821
G1 X91.711 Y113.564 E32.79064
G1 X90.221 Y114.649 E32.91325
G1 X88.379 Y114.649 E33.03578
G1 X86.889 Y113.564 E33.15839
G1 X86.319 Y111.814 E33.28082
G1 X86.889 Y110.064 E33.40325
G1 X88.379 Y108.979 E33.52585
G0 F7500 X88.249 Y108.579
G1 F1500 X90.351 Y108.579 E33.66568
G1 X92.052 Y109.818 E33.80567
G1 X92.702 Y111.814 E33.9453
G1 X92.052 Y113.81 E34.08494
G1 X90.351 Y115.049 E34.22493
G1 X88.249 Y115.049 E34.36475
G1 X86.548 Y113.81 E34.50474
G1 X85.898 Y111.814 E34.64438
G1 X86.548 Y109.818 E34.78401
G1 X88.249 Y108.579 E34.924
G0 F7500 X88.12 Y108.179
G1 F1500 X90.48 Y108.179 E35.08099
G1 X92.392 Y109.571 E35.23831
G1 X93.123 Y111.814 E35.39524
G1 X92.392 Y114.057 E35.55217
G1 X90.48 Y115.449 E35.70949
G1 X88.12 Y115.449 E35.86648
G1 X86.208 Y114.057 E36.0238
G1 X85.477 Y111.814 E36.18073
G1 X86.208 Y109.571 E36.33766
G1 X88.12 Y108.179 E36.49498
G1 F1500 E29.99498
G0 F7500 X89.464 Y97.031
G0 X92.531 Y93.964
G0 X96.901 Y93.96
G0 X96.901 Y98.1
G1 F1500 E36.49498
G1 X97.035 Y97.276 E36.55051
G1 X97.643 Y96.833 E36.60056
G1 X98.409 Y96.833 E36.65151
G1 X99.017 Y97.276 E36.70155
G1 X99.151 Y98.1 E36.75708
G1 X96.901 Y98.1 E36.90675
G0 F7500 X97.371 Y97.7
G1 F1500 X97.403 Y97.502 E36.9201
G1 X97.772 Y97.233 E36.95047
G1 X98.28 Y97.233 E36.98426
G1 X98.649 Y97.502 E37.01464
G1 X98.681 Y97.7 E37.02798
G1 X97.371 Y97.7 E37.11512
G0 F7500 X100.854 Y96.177
G1 F1500 X100.211 Y94.2 E37.25342
G1 X100.854 Y92.223 E37.39171
G1 X102.54 Y90.996 E37.53042
G1 X104.62 Y90.996 E37.66878
G1 X106.306 Y92.223 E37.80749
G1 X106.949 Y94.2 E37.94578
G1 X106.306 Y96.177 E38.08407
G1 X104.62 Y97.404 E38.22278
G1 X102.54 Y97.404 E38.36114
G1 X100.854 Y96.177 E38.49985
G0 F7500 X101.195 Y95.931
G1 F1500 X100.632 Y94.2 E38.62093
G1 X101.195 Y92.469 E38.74202
G1 X102.669 Y91.396 E38.8633
G1 X104.491 Y91.396 E38.9845
G1 X105.965 Y92.469 E39.10578
G1 X106.528 Y94.2 E39.22686
G1 X105.965 Y95.931 E39.34794
G1 X104.491 Y97.004 E39.46922
G1 X102.669 Y97.004 E39.59042
G1 X101.195 Y95.931 E39.7117
G0 F7500 X101.535 Y95.684
G1 F1500 X101.052 Y94.2 E39.81551
G1 X101.535 Y92.716 E39.91933
G1 X102.799 Y91.796 E40.02332
G1 X104.361 Y91.796 E40.12723
G1 X105.625 Y92.716 E40.23122
G1 X106.108 Y94.2 E40.33504
G1 X105.625 Y95.684 E40.43885
G1 X104.361 Y96.604 E40.54284
G1 X102.799 Y96.604 E40.64675
G1 X101.535 Y95.684 E40.75074
G0 F7500 X101.874 Y95.436
G1 F1500 X101.473 Y94.2 E40.83718
G1 X101.874 Y92.964 E40.92362
G1 X102.93 Y92.196 E41.01048
G1 X104.23 Y92.196 E41.09695
G1 X105.286 Y92.964 E41.18381
G1 X105.687 Y94.2 E41.27025
G1 X105.286 Y95.436 E41.35669
G1 X104.23 Y96.204 E41.44355
G1 X102.93 Y96.204 E41.53002
G1 X101.874 Y95.436 E41.61688
G0 F7500 X102.216 Y95.19
G1 F1500 X101.894 Y94.2 E41.68613
G1 X102.216 Y93.21 E41.75538
G1 X103.059 Y92.596 E41.82476
G1 X104.101 Y92.596 E41.89407
G1 X104.944 Y93.21 E41.96344
G1 X105.266 Y94.2 E42.0327
G1 X104.944 Y95.19 E42.10195
G1 X104.101 Y95.804 E42.17132
G1 X103.059 Y95.804 E42.24063
G1 X102.216 Y95.19 E42.31001
G0 F7500 X102.555 Y94.941
G1 F1500 X102.314 Y94.2 E42.36184
G1 X102.555 Y93.459 E42.41367
G1 X103.191 Y92.996 E42.46601
G1 X103.969 Y92.996 E42.51776
G1 X104.605 Y93.459 E42.57009
G1 X104.846 Y94.2 E42.62192
G1 X104.605 Y94.941 E42.67375
G1 X103.969 Y95.404 E42.72608
G1 X103.191 Y95.404 E42.77784
G1 X102.555 Y94.941 E42.83017
G0 F7500 X102.897 Y94.696
G1 F1500 X102.735 Y94.2 E42.86488
G1 X102.897 Y93.704 E42.89959
G1 X103.32 Y93.396 E42.93439
G1 X103.84 Y93.396 E42.96898
G1 X104.263 Y93.704 E43.00379
G1 X104.425 Y94.2 E43.0385
G1 X104.263 Y94.696 E43.07321
G1 X103.84 Y95.004 E43.10802
G1 X103.32 Y95.004 E43.14261
G1 X102.897 Y94.696 E43.17741
G0 F7500 X103.236 Y94.448
G1 F1500 X103.155 Y94.2 E43.19477
G1 X103.236 Y93.952 E43.21212
G1 X103.45 Y93.796 E43.22974
G1 X103.71 Y93.796 E43.24703
G1 X103.924 Y93.952 E43.26465
G1 X104.005 Y94.2 E43.282
G1 X103.924 Y94.448 E43.29936
G1 X103.71 Y94.604 E43.31698
G1 X103.45 Y94.604 E43.33427
G1 X103.236 Y94.448 E43.35189
G1 F1500 E36.85189
G0 F7500 X103.236 Y93.96
G0 X118.258 Y93.96
G0 X118.258 Y95.514
G1 F1500 E43.35189
G1 X118.017 Y94.775 E43.40359
G1 X118.258 Y94.036 E43.4553
G1 X118.889 Y93.577 E43.5072
G1 X119.665 Y93.577 E43.55882
G1 X120.296 Y94.036 E43.61073
G1 X120.537 Y94.775 E43.66244
