;FLAVOR:Marlin
;TIME:6727
;Filament used: 12.7724m
;Layer height: 0.2
;MINX:30.474
;MINY:12.11
;MINZ:0.3
;MAXX:187.485
;MAXY:195.95
;MAXZ:1.9
;Generated with Cura_SteamEngine 4.8.0
M140 S80
M105
M190 S80
M104 S230
M105
M109 S230
M82 ;absolute extrusion mode
G28 ;Home
G1 Z15.0 F2000 ;Move the platform
G92 E0
G92 E0
G1 F1500 E-6.5
;LAYER_COUNT:9
;LAYER:0
M107
M204 S1000
G0 F7500 X62.557 Y45.102 Z0.3
;TYPE:SKIRT
G1 F1500 E0
G1 X62.973 Y44.626 E0.12616
G1 X63.445 Y44.206 E0.25224
G1 X63.967 Y43.849 E0.37844
G1 X64.529 Y43.56 E0.50456
G1 X65.158 Y43.335 E0.63787
G1 X65.908 Y43.122 E0.79346
G1 X180.625 Y12.424 E24.49197
G1 X181.268 Y12.262 E24.6243
G1 X181.89 Y12.146 E24.75057
G1 X182.521 Y12.11 E24.87669
G1 X183.152 Y12.154 E25.00292
G1 X183.772 Y12.277 E25.12906
G1 X184.371 Y12.477 E25.25509
G1 X184.941 Y12.752 E25.38138
G1 X185.471 Y13.096 E25.50747
G1 X185.954 Y13.504 E25.63365
G1 X186.381 Y13.97 E25.75978
G1 X186.746 Y14.486 E25.88591
G1 X187.043 Y15.044 E26.01206
G1 X187.267 Y15.635 E26.13819
G1 X187.415 Y16.25 E26.26442
G1 X187.485 Y16.878 E26.39052
G1 X187.474 Y17.51 E26.51666
G1 X187.337 Y18.336 E26.68375
G1 X187.153 Y19.064 E26.8336
G1 X140.902 Y191.673 E62.49474
G1 X140.721 Y192.313 E62.62747
G1 X140.511 Y192.909 E62.75358
G1 X140.227 Y193.474 E62.87977
G1 X139.875 Y193.998 E63.00575
G1 X139.459 Y194.474 E63.1319
G1 X138.986 Y194.894 E63.25813
G1 X138.464 Y195.251 E63.38434
G1 X137.901 Y195.538 E63.51045
G1 X137.307 Y195.753 E63.63651
G1 X136.69 Y195.891 E63.76268
G1 X136.06 Y195.95 E63.88896
G1 X135.428 Y195.929 E64.01515
G1 X134.756 Y195.817 E64.1511
G1 X134.304 Y195.708 E64.24389
G1 X34.748 Y169.031 E84.81227
G1 X34.109 Y168.85 E84.9448
G1 X33.513 Y168.639 E85.07098
G1 X32.948 Y168.355 E85.19717
G1 X32.424 Y168.003 E85.32314
G1 X31.948 Y167.586 E85.44943
G1 X31.529 Y167.113 E85.57553
G1 X31.172 Y166.591 E85.70173
G1 X30.885 Y166.028 E85.82784
G1 X30.67 Y165.434 E85.95391
G1 X30.533 Y164.817 E86.08004
G1 X30.474 Y164.187 E86.20631
G1 X30.495 Y163.555 E86.3325
G1 X30.604 Y162.896 E86.4658
G1 X30.67 Y162.615 E86.5234
G1 X30.708 Y162.464 E86.55448
G1 X61.523 Y47.464 E110.31358
G1 X61.713 Y46.789 E110.45352
G1 X61.922 Y46.193 E110.57956
G1 X62.205 Y45.628 E110.70567
G1 X62.557 Y45.102 E110.83197
G0 F7500 X63.283 Y45.475
G1 F1500 X63.681 Y45.055 E110.94744
G1 X64.133 Y44.692 E111.06313
G1 X64.631 Y44.396 E111.17874
G1 X65.377 Y44.104 E111.33861
G1 X66.115 Y43.895 E111.49168
G1 X180.821 Y13.199 E135.18797
G1 X181.464 Y13.037 E135.3203
G1 X182.034 Y12.935 E135.43585
G1 X182.613 Y12.912 E135.55149
G1 X183.189 Y12.969 E135.667
G1 X183.753 Y13.104 E135.78273
G1 X184.292 Y13.316 E135.89831
G1 X184.797 Y13.6 E136.01394
G1 X185.258 Y13.951 E136.12956
G1 X185.666 Y14.362 E136.24513
G1 X186.014 Y14.825 E136.36072
G1 X186.295 Y15.332 E136.4764
G1 X186.503 Y15.872 E136.59188
G1 X186.636 Y16.436 E136.70752
G1 X186.689 Y17.013 E136.82315
G1 X186.662 Y17.592 E136.93882
G1 X186.562 Y18.14 E137.04999
G1 X186.38 Y18.857 E137.19761
G1 X140.132 Y191.455 E172.85648
G1 X139.951 Y192.095 E172.98921
G1 X139.756 Y192.64 E173.10472
G1 X139.487 Y193.153 E173.22031
G1 X139.15 Y193.625 E173.33605
G1 X138.751 Y194.045 E173.45166
G1 X138.299 Y194.407 E173.56722
G1 X137.801 Y194.702 E173.68273
G1 X137.267 Y194.927 E173.79837
G1 X136.707 Y195.076 E173.91401
G1 X136.132 Y195.146 E174.02961
G1 X135.552 Y195.137 E174.14537
G1 X134.941 Y195.039 E174.26886
G1 X134.629 Y194.965 E174.33285
G1 X134.511 Y194.935 E174.35715
G1 X34.966 Y168.261 E194.92325
G1 X34.327 Y168.08 E195.05579
G1 X33.782 Y167.884 E195.17137
G1 X33.269 Y167.615 E195.28696
G1 X32.798 Y167.278 E195.40254
G1 X32.378 Y166.879 E195.51814
G1 X32.016 Y166.426 E195.63386
G1 X31.721 Y165.928 E195.74937
G1 X31.497 Y165.394 E195.86493
G1 X31.348 Y164.834 E195.98058
G1 X31.278 Y164.259 E196.09617
G1 X31.287 Y163.68 E196.21173
G1 X31.383 Y163.079 E196.33319
G1 X31.449 Y162.798 E196.39079
G1 X31.481 Y162.671 E196.41693
G1 X62.293 Y47.681 E220.17395
G1 X62.483 Y47.006 E220.31389
G1 X62.678 Y46.461 E220.4294
G1 X62.946 Y45.947 E220.54508
G1 X63.283 Y45.475 E220.66082
G0 F7500 X63.684 Y46.277
G1 F1500 X64.003 Y45.865 E220.7648
G1 X64.381 Y45.506 E220.86884
G1 X64.809 Y45.209 E220.9728
G1 X65.278 Y44.981 E221.07686
G1 X65.596 Y44.874 E221.14382
G1 X66.322 Y44.668 E221.29442
G1 X181.016 Y13.975 E244.98824
G1 X181.659 Y13.813 E245.12057
G1 X182.173 Y13.725 E245.22464
G1 X182.694 Y13.716 E245.32862
G1 X183.21 Y13.787 E245.43257
G1 X183.71 Y13.936 E245.53669
G1 X184.18 Y14.16 E245.64059
G1 X184.611 Y14.453 E245.74459
G1 X184.993 Y14.808 E245.84866
G1 X185.315 Y15.218 E245.9527
G1 X185.571 Y15.672 E246.05671
G1 X185.754 Y16.16 E246.16071
G1 X185.861 Y16.67 E246.26471
G1 X185.889 Y17.19 E246.36863
G1 X185.786 Y17.944 E246.52049
G1 X185.607 Y18.65 E246.66584
G1 X139.363 Y191.237 E282.32238
G1 X139.182 Y191.877 E282.45511
G1 X139.002 Y192.366 E282.5591
G1 X138.749 Y192.822 E282.66317
G1 X138.43 Y193.234 E282.76715
G1 X138.052 Y193.593 E282.87118
G1 X137.623 Y193.889 E282.9752
G1 X137.154 Y194.116 E283.07918
G1 X136.656 Y194.269 E283.18314
G1 X136.14 Y194.344 E283.2872
G1 X135.619 Y194.34 E283.39117
G1 X135.125 Y194.26 E283.49104
G1 X134.718 Y194.162 E283.57458
G1 X35.184 Y167.491 E304.13841
G1 X34.545 Y167.31 E304.27095
G1 X34.056 Y167.13 E304.37493
G1 X33.601 Y166.878 E304.47873
G1 X33.189 Y166.558 E304.58284
G1 X32.83 Y166.18 E304.68687
G1 X32.534 Y165.751 E304.79088
G1 X32.307 Y165.282 E304.89486
G1 X32.155 Y164.783 E304.99896
G1 X32.08 Y164.268 E305.10282
G1 X32.085 Y163.747 E305.20679
G1 X32.162 Y163.262 E305.30479
G1 X32.254 Y162.878 E305.38359
G1 X63.063 Y47.898 E329.13853
G1 X63.253 Y47.223 E329.27847
G1 X63.432 Y46.733 E329.38258
G1 X63.684 Y46.277 E329.48655
G1 F1500 E322.98655
;MESH:main-case-right.stl
G0 F7500 X66.859 Y48.475
G0 X71.228 Y51.385
G0 X71.153 Y51.45
;TYPE:WALL-OUTER
G1 F1500 E329.48655
G1 X70.81 Y51.128 E329.58043
G1 X70.41 Y50.879 E329.67446
G1 X69.969 Y50.714 E329.76843
G1 X69.504 Y50.637 E329.86249
G1 X69.033 Y50.653 E329.95653
G1 X68.575 Y50.759 E330.05035
G1 X68.146 Y50.954 E330.14439
G1 X67.763 Y51.228 E330.23837
G1 X67.441 Y51.571 E330.33225
G1 X67.192 Y51.971 E330.42628
G1 X67.027 Y52.412 E330.52024
G1 X66.95 Y52.877 E330.6143
G1 X66.966 Y53.348 E330.70835
G1 X67.072 Y53.806 E330.80216
G1 X67.267 Y54.235 E330.89621
G1 X67.541 Y54.617 E330.99002
G1 X67.885 Y54.939 E331.08405
G1 X68.284 Y55.187 E331.1778
G1 X68.725 Y55.354 E331.27191
G1 X69.19 Y55.43 E331.36594
G1 X69.66 Y55.416 E331.45977
G1 X70.119 Y55.309 E331.55382
G1 X70.548 Y55.114 E331.64787
G1 X70.931 Y54.839 E331.74196
G1 X71.253 Y54.496 E331.83584
G1 X71.502 Y54.096 E331.92987
G1 X71.667 Y53.655 E332.02384
G1 X71.744 Y53.19 E332.1179
G1 X71.728 Y52.72 E332.21174
G1 X71.622 Y52.262 E332.30556
G1 X71.427 Y51.833 E332.3996
G1 X71.153 Y51.45 E332.49358
G0 F7500 X71.008 Y51.313
G0 X71.61 Y50.672
G1 F1500 E325.99358
G0 F7500 X127.923 Y70.898
G0 X127.872 Y70.983
G1 F1500 E332.49358
G1 X127.437 Y70.777 E332.58963
G1 X127.019 Y70.666 E332.67593
G1 X126.564 Y70.633 E332.76697
G1 X126.11 Y70.687 E332.85821
G1 X125.675 Y70.828 E332.94947
G1 X125.274 Y71.046 E333.04055
G1 X124.921 Y71.338 E333.13198
G1 X124.63 Y71.691 E333.22327
G1 X124.411 Y72.092 E333.31445
G1 X124.271 Y72.528 E333.40583
G1 X124.217 Y72.983 E333.49727
G1 X124.25 Y73.439 E333.58851
G1 X124.369 Y73.88 E333.67966
G1 X124.568 Y74.292 E333.77097
G1 X124.841 Y74.658 E333.86209
G1 X125.179 Y74.966 E333.95335
G1 X125.57 Y75.203 E334.04459
G1 X125.998 Y75.363 E334.13578
G1 X126.448 Y75.439 E334.22685
G1 X126.906 Y75.428 E334.31827
G1 X127.352 Y75.331 E334.40936
G1 X127.773 Y75.15 E334.50081
G1 X128.151 Y74.894 E334.59192
G1 X128.475 Y74.571 E334.68321
G1 X128.731 Y74.191 E334.77465
G1 X128.911 Y73.771 E334.86584
G1 X129.008 Y73.324 E334.95712
G1 X129.019 Y72.866 E335.04854
G1 X128.943 Y72.416 E335.13962
G1 X128.784 Y71.988 E335.23073
G1 X128.546 Y71.597 E335.32208
G1 X128.239 Y71.258 E335.41335
G1 X127.872 Y70.983 E335.50487
G0 F7500 X127.692 Y70.898
G0 X128.069 Y70.103
G1 F1500 E329.00487
G0 F7500 X127.653 Y65.605
G0 X127.424 Y62.387
G0 X127.806 Y59.182
G0 X131.881 Y44.066
G0 X132.054 Y43.624
G0 X132.136 Y43.679
G1 F1500 E335.50487
G1 X131.917 Y44.081 E335.59622
G1 X131.777 Y44.517 E335.68761
G1 X131.723 Y44.97 E335.77865
G1 X131.756 Y45.426 E335.86989
G1 X131.873 Y45.868 E335.96113
G1 X132.074 Y46.28 E336.05261
G1 X132.347 Y46.646 E336.14373
G1 X132.685 Y46.954 E336.23499
G1 X133.076 Y47.191 E336.32623
G1 X133.504 Y47.351 E336.41742
G1 X133.954 Y47.427 E336.50849
G1 X134.412 Y47.416 E336.59992
G1 X134.858 Y47.319 E336.691
G1 X135.279 Y47.138 E336.78245
G1 X135.657 Y46.882 E336.87356
G1 X135.98 Y46.559 E336.96471
G1 X136.237 Y46.18 E337.0561
G1 X136.417 Y45.759 E337.14747
G1 X136.514 Y45.312 E337.23875
G1 X136.525 Y44.854 E337.33017
G1 X136.449 Y44.404 E337.42125
G1 X136.29 Y43.976 E337.51236
G1 X136.052 Y43.585 E337.60371
G1 X135.744 Y43.246 E337.69511
G1 X135.378 Y42.972 E337.78635
G1 X134.968 Y42.773 E337.8773
G1 X134.526 Y42.654 E337.96865
G1 X134.07 Y42.621 E338.05989
G1 X133.616 Y42.676 E338.15115
G1 X133.181 Y42.816 E338.24234
G1 X132.78 Y43.034 E338.33343
G1 X132.427 Y43.326 E338.42485
G1 X132.136 Y43.679 E338.51615
G0 F7500 X132.041 Y43.854
G0 X131.267 Y43.432
G1 F1500 E332.01615
G0 F7500 X133.608 Y42.637
G0 X134.07 Y42.582
G0 X134.532 Y42.615
G0 X150.31 Y46.878
G0 X153.211 Y48.286
G0 X154.673 Y49.382
G0 X159.792 Y53.408
G0 X159.885 Y53.374
G1 F1500 E338.51615
G1 X160.085 Y53.785 E338.60736
G1 X160.358 Y54.151 E338.69848
G1 X160.697 Y54.46 E338.79002
G1 X161.088 Y54.697 E338.88126
G1 X161.516 Y54.857 E338.97245
G1 X161.966 Y54.933 E339.06352
G1 X162.424 Y54.922 E339.15495
G1 X162.87 Y54.825 E339.24603
G1 X163.291 Y54.644 E339.33748
G1 X163.669 Y54.388 E339.42859
G1 X163.992 Y54.065 E339.51974
G1 X164.249 Y53.686 E339.61113
G1 X164.429 Y53.265 E339.7025
G1 X164.526 Y52.818 E339.79378
G1 X164.537 Y52.36 E339.8852
G1 X164.461 Y51.909 E339.97648
G1 X164.301 Y51.481 E340.06766
G1 X164.064 Y51.09 E340.1589
G1 X163.756 Y50.752 E340.25016
G1 X163.39 Y50.478 E340.3414
G1 X162.98 Y50.279 E340.43235
G1 X162.538 Y50.16 E340.52369
G1 X162.081 Y50.127 E340.61513
G1 X161.628 Y50.181 E340.70617
G1 X161.192 Y50.321 E340.79756
G1 X160.791 Y50.54 E340.88874
G1 X160.439 Y50.832 E340.98001
G1 X160.147 Y51.185 E341.07143
G1 X159.929 Y51.586 E341.16251
G1 X159.789 Y52.022 E341.2539
G1 X159.735 Y52.477 E341.34533
G1 X159.768 Y52.932 E341.43637
G1 X159.885 Y53.374 E341.52762
G0 F7500 X159.972 Y53.553
G1 F1500 E335.02762
G0 F7500 X159.883 Y53.595
G0 X161.298 Y61.57
G0 X161.22 Y64.796
G0 X160.535 Y67.95
G0 X159.317 Y70.946
G0 X159.23 Y70.899
G1 F1500 E341.52762
G1 X160.497 Y67.938 E342.17034
G1 X161.181 Y64.792 E342.81282
G1 X161.259 Y61.572 E343.4556
G1 X160.726 Y58.397 E344.09807
G1 X159.603 Y55.381 E344.74031
G1 X157.929 Y52.631 E345.38279
G1 X155.765 Y50.25 E346.02487
G1 X153.191 Y48.32 E346.66689
G1 X150.297 Y46.915 E347.30889
G1 X147.191 Y46.082 E347.95063
G1 X143.981 Y45.852 E348.59286
G1 X140.787 Y46.236 E349.23485
G1 X137.723 Y47.218 E349.87694
G1 X134.899 Y48.761 E350.51913
G1 X132.418 Y50.812 E351.16152
G1 X130.368 Y53.296 E351.80424
G1 X128.826 Y56.123 E352.44687
G1 X127.845 Y59.19 E353.08947
G1 X127.463 Y62.387 E353.732
G1 X127.692 Y65.599 E354.37462
G1 X128.523 Y68.709 E355.01702
G1 X129.928 Y71.605 E355.65938
G1 X131.856 Y74.183 E356.3018
G1 X134.235 Y76.349 E356.94386
G1 X136.981 Y78.023 E357.58565
G1 X139.995 Y79.148 E358.22766
G1 X143.167 Y79.681 E358.86954
G1 X146.384 Y79.604 E359.51171
G1 X149.528 Y78.918 E360.15389
G1 X152.486 Y77.65 E360.79614
G1 X155.15 Y75.844 E361.43842
G1 X157.426 Y73.567 E362.0809
G1 X159.23 Y70.899 E362.72361
G0 F7500 X159.308 Y70.716
G0 X160.117 Y71.063
G1 F1500 E356.22361
G0 F7500 X156.961 Y81.288
G0 X156.778 Y81.717
G0 X156.516 Y82.101
G0 X156.188 Y82.429
G0 X155.804 Y82.691
G0 X155.376 Y82.875
G0 X154.922 Y82.973
G0 X154.66 Y82.978
G0 X153.539 Y82.798
G0 X153.582 Y82.709
G1 F1500 E362.72361
G1 X154.01 Y82.869 E362.8148
G1 X154.46 Y82.945 E362.90587
G1 X154.918 Y82.934 E362.9973
G1 X155.364 Y82.837 E363.08838
G1 X155.785 Y82.656 E363.17983
G1 X156.163 Y82.399 E363.27105
G1 X156.486 Y82.076 E363.36221
G1 X156.743 Y81.698 E363.45343
G1 X156.923 Y81.276 E363.54498
G1 X157.02 Y80.83 E363.63607
G1 X157.031 Y80.372 E363.72749
G1 X156.955 Y79.921 E363.81876
G1 X156.795 Y79.493 E363.90995
G1 X156.558 Y79.102 E364.00119
G1 X156.25 Y78.764 E364.09245
G1 X155.884 Y78.49 E364.18369
G1 X155.474 Y78.289 E364.27481
G1 X155.031 Y78.172 E364.36625
G1 X154.576 Y78.139 E364.45729
G1 X154.123 Y78.193 E364.54833
G1 X153.687 Y78.333 E364.63971
G1 X153.285 Y78.552 E364.73107
G1 X152.933 Y78.844 E364.82234
G1 X152.642 Y79.197 E364.91363
G1 X152.423 Y79.598 E365.00481
G1 X152.283 Y80.034 E365.0962
G1 X152.229 Y80.487 E365.18724
G1 X152.262 Y80.944 E365.27867
G1 X152.379 Y81.387 E365.37011
G1 X152.58 Y81.797 E365.46123
G1 X152.853 Y82.163 E365.55235
G1 X153.191 Y82.471 E365.64361
G1 X153.582 Y82.709 E365.73496
G0 F7500 X153.769 Y82.779
G0 X153.461 Y83.603
G1 F1500 E359.23496
G0 F7500 X155.804 Y82.691
G0 X156.188 Y82.429
G0 X156.516 Y82.101
G0 X156.778 Y81.717
G0 X179.445 Y22.488
G0 X179.567 Y21.53
G0 X179.468 Y21.543
G1 F1500 E365.73496
G1 X179.362 Y21.085 E365.82877
G1 X179.167 Y20.656 E365.92281
G1 X178.893 Y20.273 E366.01679
G1 X178.55 Y19.951 E366.11067
G1 X178.15 Y19.702 E366.2047
G1 X177.709 Y19.537 E366.29867
G1 X177.244 Y19.46 E366.39272
G1 X176.773 Y19.476 E366.48677
G1 X176.316 Y19.582 E366.58039
G1 X175.886 Y19.777 E366.67462
G1 X175.504 Y20.051 E366.76843
G1 X175.182 Y20.394 E366.86232
G1 X174.933 Y20.794 E366.95634
G1 X174.768 Y21.235 E367.05031
G1 X174.691 Y21.7 E367.14437
G1 X174.707 Y22.171 E367.23841
G1 X174.813 Y22.628 E367.33203
G1 X175.007 Y23.058 E367.42617
G1 X175.282 Y23.44 E367.52011
G1 X175.625 Y23.762 E367.61399
G1 X176.025 Y24.011 E367.70802
G1 X176.466 Y24.176 E367.80198
G1 X176.931 Y24.253 E367.89604
G1 X177.401 Y24.237 E367.98989
G1 X177.859 Y24.131 E368.0837
G1 X178.288 Y23.937 E368.17766
G1 X178.671 Y23.662 E368.27176
G1 X178.993 Y23.319 E368.36564
G1 X179.242 Y22.919 E368.45967
G1 X179.407 Y22.478 E368.55363
G1 X179.484 Y22.013 E368.64769
G1 X179.468 Y21.543 E368.74154
G0 F7500 X179.423 Y21.349
G1 F1500 E362.24154
G0 F7500 X179.521 Y21.327
G0 X179.523 Y22.015
G0 X134.969 Y184.415
G0 X134.894 Y184.48
G1 F1500 E368.74154
G1 X134.551 Y184.158 E368.83543
G1 X134.151 Y183.909 E368.92945
G1 X133.71 Y183.744 E369.02342
G1 X133.245 Y183.667 E369.11748
G1 X132.774 Y183.683 E369.21152
G1 X132.316 Y183.789 E369.30534
G1 X131.887 Y183.984 E369.39938
G1 X131.504 Y184.258 E369.49336
G1 X131.182 Y184.601 E369.58724
G1 X130.933 Y185.001 E369.68127
G1 X130.768 Y185.442 E369.77523
G1 X130.691 Y185.907 E369.86929
G1 X130.707 Y186.378 E369.96334
G1 X130.813 Y186.836 E370.05716
G1 X131.008 Y187.265 E370.1512
G1 X131.283 Y187.648 E370.24529
G1 X131.626 Y187.97 E370.33918
G1 X132.026 Y188.219 E370.4332
G1 X132.467 Y188.384 E370.52717
G1 X132.931 Y188.461 E370.62103
G1 X133.402 Y188.445 E370.71508
G1 X133.86 Y188.339 E370.80889
G1 X134.289 Y188.144 E370.90293
G1 X134.672 Y187.87 E370.99691
G1 X134.994 Y187.526 E371.09094
G1 X135.242 Y187.127 E371.18469
G1 X135.408 Y186.686 E371.27873
G1 X135.485 Y186.221 E371.37279
G1 X135.469 Y185.75 E371.46683
G1 X135.363 Y185.292 E371.56065
G1 X135.168 Y184.863 E371.65469
G1 X134.894 Y184.48 E371.74867
G0 F7500 X134.749 Y184.343
G0 X135.351 Y183.702
G1 F1500 E365.24867
G0 F7500 X39.728 Y163.575
G0 X39.28 Y163.407
G0 X38.873 Y163.154
G0 X38.524 Y162.827
G0 X38.299 Y162.512
G0 X37.878 Y161.542
G0 X37.977 Y161.53
G1 F1500 E371.74867
G1 X38.084 Y161.989 E371.84272
G1 X38.279 Y162.418 E371.93676
G1 X38.554 Y162.801 E372.03086
G1 X38.897 Y163.123 E372.12474
G1 X39.297 Y163.372 E372.21877
G1 X39.738 Y163.537 E372.31273
G1 X40.203 Y163.614 E372.40679
G1 X40.673 Y163.598 E372.50064
G1 X41.131 Y163.492 E372.59445
G1 X41.56 Y163.297 E372.6885
G1 X41.943 Y163.023 E372.78247
G1 X42.265 Y162.68 E372.87636
G1 X42.514 Y162.28 E372.97038
G1 X42.679 Y161.839 E373.06435
G1 X42.756 Y161.374 E373.15841
