;FLAVOR:Marlin
;TIME:4918
;Filament used: 4.01463m
;Layer height: 0.2
;MINX:41.363
;MINY:34.745
;MINZ:0.3
;MAXX:185.417
;MAXY:178.983
;MAXZ:9.9
;Generated with Cura_SteamEngine 4.8.0
M140 S80
M105
M190 S80
M104 S230
M105
M109 S230
M82 ;absolute extrusion mode
G28 ;Home
G1 Z15.0 F2000 ;Move the platform
G92 E0
G92 E0
G1 F1500 E-6.5
;LAYER_COUNT:49
;LAYER:0
M107
M204 S1000
G0 F7500 X45.108 Y49.03 Z0.3
;TYPE:SKIRT
G1 F1500 E0
G1 X55.741 Y38.396 E1.5005
G1 X56.221 Y37.928 E1.56739
G1 X56.652 Y37.563 E1.62375
G1 X57.131 Y37.262 E1.6802
G1 X57.647 Y37.032 E1.73657
G1 X58.191 Y36.877 E1.79301
G1 X58.751 Y36.801 E1.8494
G1 X59.317 Y36.804 E1.90587
G1 X59.876 Y36.886 E1.96225
G1 X60.418 Y37.047 E2.01866
G1 X60.932 Y37.282 E2.07506
G1 X61.407 Y37.588 E2.13144
G1 X61.758 Y37.882 E2.17712
G1 X61.987 Y38.098 E2.20853
G1 X181.607 Y157.717 E19.08814
G1 X182.075 Y158.198 E19.1551
G1 X182.44 Y158.63 E19.21153
G1 X182.74 Y159.109 E19.26793
G1 X182.969 Y159.625 E19.32425
G1 X183.124 Y160.169 E19.3807
G1 X183.2 Y160.729 E19.43708
G1 X183.196 Y161.295 E19.49356
G1 X183.113 Y161.854 E19.54995
G1 X182.952 Y162.396 E19.60637
G1 X182.716 Y162.909 E19.66271
G1 X182.41 Y163.385 E19.71917
G1 X182.12 Y163.729 E19.76407
G1 X181.91 Y163.952 E19.79463
G1 X171.276 Y174.588 E21.29535
G1 X170.785 Y175.066 E21.36372
G1 X170.353 Y175.431 E21.42015
G1 X169.874 Y175.731 E21.47655
G1 X169.358 Y175.961 E21.53292
G1 X168.814 Y176.115 E21.58933
G1 X168.254 Y176.192 E21.64573
G1 X167.688 Y176.188 E21.70221
G1 X167.134 Y176.106 E21.75809
G1 X166.87 Y176.048 E21.78506
G1 X164.148 Y175.484 E22.06243
G1 X161.471 Y175.007 E22.33375
G1 X158.82 Y174.612 E22.60119
G1 X156.074 Y174.283 E22.87715
G1 X153.41 Y174.038 E23.14408
G1 X151.948 Y173.945 E23.29026
G1 X151.247 Y173.89 E23.36042
G1 X150.688 Y173.806 E23.41682
G1 X150.146 Y173.644 E23.47327
G1 X149.633 Y173.407 E23.52965
G1 X149.158 Y173.101 E23.58603
G1 X148.818 Y172.814 E23.63043
G1 X148.579 Y172.589 E23.66318
G1 X141.923 Y165.936 E24.6022
G1 X141.453 Y165.453 E24.66945
G1 X141.089 Y165.021 E24.72581
G1 X140.695 Y164.355 E24.80302
G1 X140.551 Y164.008 E24.84051
G1 X140.129 Y162.841 E24.96433
G1 X139.167 Y160.294 E25.236
G1 X138.139 Y157.789 E25.50618
G1 X137.05 Y155.334 E25.77416
G1 X135.867 Y152.861 E26.04769
G1 X134.62 Y150.431 E26.32022
G1 X133.316 Y148.058 E26.5904
G1 X131.938 Y145.711 E26.86196
G1 X130.519 Y143.443 E27.12891
G1 X128.992 Y141.149 E27.40388
G1 X127.424 Y138.933 E27.67475
G1 X125.81 Y136.784 E27.94292
G1 X124.096 Y134.629 E28.21766
G1 X122.374 Y132.588 E28.48411
G1 X120.555 Y130.551 E28.75661
G1 X118.673 Y128.558 E29.03012
G1 X117.713 Y127.583 E29.16665
G1 X92.425 Y102.295 E32.73506
G1 X90.426 Y100.353 E33.01315
G1 X88.459 Y98.546 E33.27967
G1 X86.387 Y96.749 E33.55333
G1 X84.291 Y95.03 E33.82381
G1 X82.113 Y93.346 E34.09852
G1 X79.943 Y91.765 E34.36641
G1 X77.722 Y90.242 E34.63513
G1 X75.414 Y88.751 E34.90929
G1 X73.091 Y87.343 E35.18034
G1 X70.74 Y86.006 E35.4502
G1 X68.347 Y84.735 E35.72057
G1 X65.933 Y83.538 E35.98942
G1 X63.419 Y82.381 E36.26556
G1 X60.954 Y81.328 E36.53302
G1 X58.387 Y80.315 E36.80838
G1 X56.248 Y79.544 E37.03525
G1 X55.936 Y79.427 E37.0685
G1 X55.422 Y79.192 E37.12489
G1 X54.946 Y78.886 E37.18136
G1 X54.609 Y78.605 E37.22514
G1 X54.38 Y78.391 E37.25641
G1 X54.282 Y78.296 E37.27003
G1 X47.698 Y71.711 E38.19917
G1 X47.228 Y71.227 E38.26649
G1 X46.864 Y70.794 E38.32293
G1 X46.565 Y70.315 E38.37928
G1 X46.336 Y69.798 E38.4357
G1 X46.182 Y69.254 E38.49211
G1 X46.107 Y68.705 E38.5474
G1 X46.056 Y67.94 E38.6239
G1 X45.838 Y65.158 E38.90234
G1 X45.553 Y62.497 E39.16937
G1 X45.184 Y59.774 E39.44356
G1 X44.747 Y57.116 E39.71234
G1 X44.226 Y54.432 E39.98515
G1 X44.129 Y53.997 E40.02962
G1 X43.884 Y52.821 E40.14948
G1 X43.808 Y52.261 E40.20587
G1 X43.812 Y51.695 E40.26234
G1 X43.896 Y51.136 E40.31875
G1 X44.057 Y50.594 E40.37516
G1 X44.293 Y50.081 E40.43151
G1 X44.6 Y49.606 E40.48794
G1 X44.895 Y49.255 E40.53369
G1 X45.108 Y49.03 E40.56461
G0 F7500 X45.467 Y49.234
G1 F1500 X56.02 Y38.682 E42.05368
G1 X56.5 Y38.214 E42.12057
G1 X56.911 Y37.87 E42.17405
G1 X57.368 Y37.59 E42.22753
G1 X57.862 Y37.381 E42.28105
G1 X58.382 Y37.248 E42.3346
G1 X58.915 Y37.193 E42.38807
G1 X59.451 Y37.219 E42.44161
G1 X59.977 Y37.323 E42.49512
G1 X60.481 Y37.505 E42.54858
G1 X60.953 Y37.76 E42.60211
G1 X61.483 Y38.173 E42.66916
G1 X61.788 Y38.462 E42.71108
G1 X181.32 Y157.996 E59.57848
G1 X181.788 Y158.477 E59.64544
G1 X182.133 Y158.888 E59.69899
G1 X182.412 Y159.345 E59.75241
G1 X182.62 Y159.84 E59.80599
G1 X182.753 Y160.359 E59.85945
G1 X182.807 Y160.893 E59.913
G1 X182.781 Y161.428 E59.96645
G1 X182.676 Y161.954 E60.01997
G1 X182.493 Y162.459 E60.07356
G1 X182.238 Y162.93 E60.127
G1 X181.829 Y163.455 E60.19341
G1 X181.544 Y163.756 E60.23477
G1 X170.997 Y174.302 E61.72299
G1 X170.506 Y174.78 E61.79137
G1 X170.095 Y175.124 E61.84485
G1 X169.637 Y175.403 E61.89836
G1 X169.143 Y175.612 E61.95188
G1 X168.624 Y175.745 E62.00534
G1 X168.09 Y175.799 E62.05889
G1 X167.555 Y175.773 E62.11234
G1 X167.22 Y175.716 E62.14625
G1 X166.907 Y175.647 E62.17823
G1 X164.229 Y175.092 E62.45112
G1 X161.569 Y174.618 E62.72071
G1 X158.825 Y174.209 E62.99754
G1 X156.157 Y173.889 E63.26566
G1 X153.435 Y173.639 E63.5384
G1 X151.979 Y173.546 E63.68398
G1 X151.278 Y173.491 E63.75414
G1 X150.748 Y173.409 E63.80765
G1 X150.236 Y173.25 E63.86115
G1 X149.754 Y173.016 E63.91461
G1 X149.311 Y172.713 E63.96816
G1 X149.092 Y172.523 E63.99709
G1 X148.775 Y172.223 E64.04064
G1 X142.21 Y165.657 E64.96711
G1 X141.74 Y165.174 E65.03435
G1 X141.396 Y164.762 E65.08791
G1 X141.058 Y164.185 E65.15463
G1 X140.928 Y163.872 E65.18845
G1 X140.523 Y162.753 E65.30719
G1 X139.535 Y160.137 E65.58621
G1 X138.516 Y157.654 E65.85402
G1 X137.399 Y155.136 E66.12888
G1 X136.226 Y152.684 E66.40009
G1 X134.969 Y150.234 E66.67485
G1 X133.669 Y147.868 E66.94422
G1 X132.289 Y145.518 E67.21615
G1 X130.848 Y143.215 E67.48722
G1 X129.319 Y140.919 E67.76246
G1 X127.755 Y138.708 E68.03269
G1 X126.128 Y136.54 E68.30316
G1 X124.415 Y134.388 E68.57761
G1 X122.659 Y132.307 E68.8493
G1 X120.846 Y130.276 E69.12095
G1 X118.966 Y128.286 E69.39411
G1 X118.016 Y127.322 E69.52916
G1 X92.666 Y101.972 E73.10632
G1 X90.729 Y100.09 E73.37579
G1 X88.708 Y98.233 E73.64965
G1 X86.618 Y96.42 E73.92572
G1 X84.544 Y94.719 E74.19337
G1 X82.371 Y93.039 E74.46743
G1 X80.175 Y91.44 E74.73848
G1 X77.943 Y89.909 E75.00855
G1 X75.633 Y88.416 E75.283
G1 X73.301 Y87.003 E75.55507
G1 X70.92 Y85.649 E75.82837
G1 X68.548 Y84.389 E76.09637
G1 X66.058 Y83.154 E76.3737
G1 X63.608 Y82.027 E76.64279
G1 X61.109 Y80.959 E76.91396
G1 X58.543 Y79.947 E77.18919
G1 X56.34 Y79.152 E77.42288
G1 X56.076 Y79.053 E77.45101
G1 X55.589 Y78.828 E77.50454
G1 X55.141 Y78.533 E77.55806
G1 X54.882 Y78.312 E77.59204
G1 X54.653 Y78.098 E77.62331
G1 X54.565 Y78.013 E77.63552
G1 X47.985 Y71.432 E78.5641
G1 X47.515 Y70.948 E78.63141
G1 X47.171 Y70.536 E78.68497
G1 X46.892 Y70.078 E78.73848
G1 X46.685 Y69.584 E78.79192
G1 X46.553 Y69.064 E78.84546
G1 X46.506 Y68.679 E78.88416
G1 X46.452 Y67.866 E78.96546
G1 X46.239 Y65.155 E79.2368
G1 X45.945 Y62.401 E79.51315
G1 X45.582 Y59.726 E79.78251
G1 X45.141 Y57.047 E80.05342
G1 X44.621 Y54.367 E80.32582
G1 X44.521 Y53.915 E80.37201
G1 X44.276 Y52.739 E80.49187
G1 X44.206 Y52.208 E80.54531
G1 X44.215 Y51.671 E80.5989
G1 X44.305 Y51.143 E80.65235
G1 X44.472 Y50.633 E80.70589
G1 X44.712 Y50.154 E80.75935
G1 X45.186 Y49.53 E80.83754
G1 X45.467 Y49.234 E80.87827
G0 F7500 X45.75 Y49.517
G1 F1500 X56.299 Y38.969 E82.36677
G1 X56.779 Y38.501 E82.43366
G1 X57.168 Y38.178 E82.48412
G1 X57.603 Y37.92 E82.53458
G1 X58.073 Y37.733 E82.58505
G1 X58.566 Y37.623 E82.63545
G1 X59.071 Y37.593 E82.68593
G1 X59.574 Y37.642 E82.73636
G1 X60.063 Y37.769 E82.78677
G1 X60.526 Y37.972 E82.83721
G1 X60.951 Y38.246 E82.88767
G1 X61.209 Y38.464 E82.92137
G1 X61.505 Y38.745 E82.9621
G1 X181.034 Y158.274 E99.82893
G1 X181.502 Y158.755 E99.89589
G1 X181.824 Y159.145 E99.94636
G1 X182.082 Y159.58 E99.99682
G1 X182.268 Y160.05 E100.04726
G1 X182.377 Y160.543 E100.09764
G1 X182.407 Y161.048 E100.14811
G1 X182.358 Y161.551 E100.19854
G1 X182.23 Y162.04 E100.24898
G1 X182.026 Y162.503 E100.29946
G1 X181.752 Y162.928 E100.34992
G1 X181.538 Y163.181 E100.38298
G1 X181.261 Y163.473 E100.42314
G1 X170.718 Y174.015 E101.9108
G1 X170.227 Y174.493 E101.97918
G1 X169.838 Y174.816 E102.02963
G1 X169.403 Y175.073 E102.08004
G1 X168.933 Y175.259 E102.13048
G1 X168.44 Y175.369 E102.18088
G1 X167.935 Y175.399 E102.23136
G1 X167.306 Y175.325 E102.29455
G1 X166.993 Y175.256 E102.32653
G1 X164.308 Y174.699 E102.60015
G1 X161.627 Y174.222 E102.87186
G1 X158.895 Y173.815 E103.14747
G1 X156.205 Y173.492 E103.41781
G1 X153.462 Y173.24 E103.69266
G1 X152.011 Y173.147 E103.83773
G1 X151.31 Y173.092 E103.90789
G1 X150.81 Y173.013 E103.9584
G1 X150.33 Y172.856 E104.0088
G1 X149.88 Y172.625 E104.05927
G1 X149.367 Y172.232 E104.12375
G1 X149.058 Y171.94 E104.16617
G1 X142.497 Y165.378 E105.09207
G1 X142.027 Y164.895 E105.15931
G1 X141.704 Y164.506 E105.20976
G1 X141.42 Y164.016 E105.26628
G1 X141.304 Y163.736 E105.29652
G1 X140.897 Y162.611 E105.41589
G1 X139.908 Y159.992 E105.69523
G1 X138.875 Y157.476 E105.96661
G1 X137.774 Y154.993 E106.23763
G1 X136.579 Y152.493 E106.51411
G1 X135.34 Y150.08 E106.78477
G1 X134.006 Y147.653 E107.0611
G1 X132.63 Y145.309 E107.33231
G1 X131.177 Y142.987 E107.60562
G1 X129.662 Y140.712 E107.87835
G1 X128.068 Y138.459 E108.15373
G1 X126.445 Y136.297 E108.42348
G1 X124.719 Y134.127 E108.70014
G1 X122.964 Y132.048 E108.97162
G1 X121.134 Y129.998 E109.24581
G1 X119.275 Y128.03 E109.51594
G1 X118.282 Y127.022 E109.65712
G1 X92.949 Y101.689 E113.23188
G1 X90.977 Y99.774 E113.50616
G1 X88.978 Y97.937 E113.77705
G1 X86.889 Y96.125 E114.05298
G1 X84.798 Y94.41 E114.32282
G1 X82.622 Y92.728 E114.59725
G1 X80.398 Y91.108 E114.87179
G1 X78.141 Y89.559 E115.14493
G1 X75.867 Y88.091 E115.415
G1 X73.5 Y86.656 E115.6912
G1 X71.125 Y85.306 E115.96378
G1 X68.692 Y84.013 E116.2387
G1 X66.266 Y82.81 E116.5089
G1 X63.77 Y81.661 E116.78307
G1 X61.247 Y80.583 E117.05683
G1 X58.66 Y79.563 E117.3343
G1 X56.48 Y78.777 E117.56553
G1 X56.216 Y78.678 E117.59367
G1 X55.759 Y78.464 E117.64402
G1 X55.155 Y78.02 E117.71882
G1 X54.848 Y77.731 E117.76089
G1 X48.272 Y71.153 E118.68897
G1 X47.802 Y70.669 E118.75629
G1 X47.48 Y70.28 E118.80668
G1 X47.223 Y69.845 E118.85709
G1 X47.037 Y69.374 E118.90762
G1 X46.905 Y68.652 E118.98085
G1 X46.851 Y67.839 E119.06215
G1 X46.637 Y65.114 E119.33489
G1 X46.345 Y62.376 E119.60964
G1 X45.979 Y59.679 E119.88122
G1 X45.529 Y56.943 E120.15788
G1 X45.011 Y54.276 E120.42897
G1 X44.912 Y53.834 E120.47417
G1 X44.667 Y52.658 E120.59403
G1 X44.604 Y52.156 E120.64451
G1 X44.62 Y51.651 E120.69492
G1 X44.715 Y51.154 E120.74541
G1 X44.888 Y50.679 E120.79585
G1 X45.133 Y50.237 E120.84628
G1 X45.476 Y49.805 E120.90132
G1 X45.75 Y49.517 E120.94098
;MESH:main-case-cover-left-right-connector.stl
G0 F7500 X48.657 Y52.003
G0 X49.769 Y52.003
;TYPE:WALL-INNER
G1 F1500 X49.909 Y51.863 E120.96074
G1 X51.895 Y49.877 E121.24098
G1 X51.921 Y49.851 E121.24465
G1 X52.349 Y49.423 E121.30505
G1 X52.183 Y50.112 E121.3418
G1 X52.182 Y50.15 E121.34547
G1 X52.153 Y50.953 E121.42564
G1 X52.362 Y51.808 E121.51347
G1 X52.695 Y52.301 E121.57283
G1 X52.835 Y52.544 E121.60081
G1 X53.641 Y53.087 E121.69778
G1 X54.497 Y53.296 E121.7857
G1 X55.338 Y53.266 E121.86967
G1 X56.152 Y53.069 E121.95324
G1 X56.941 Y52.739 E122.03857
G1 X57.705 Y52.297 E122.12664
G1 X58.438 Y51.759 E122.21737
G1 X59.119 Y51.14 E122.3092
G1 X59.738 Y50.459 E122.40102
G1 X60.275 Y49.727 E122.49161
G1 X60.717 Y48.963 E122.57968
G1 X61.048 Y48.173 E122.66514
G1 X61.244 Y47.359 E122.74869
G1 X61.274 Y46.521 E122.83236
G1 X61.125 Y45.909 E122.89521
G1 X61.044 Y45.637 E122.92352
G1 X60.713 Y45.137 E122.98336
G1 X60.529 Y44.885 E123.01449
G1 X59.998 Y44.524 E123.07856
G1 X59.752 Y44.378 E123.1071
G1 X59.135 Y44.224 E123.17055
G1 X58.902 Y44.177 E123.19427
G1 X58.128 Y44.203 E123.27154
G1 X58.091 Y44.204 E123.27524
G1 X57.401 Y44.371 E123.34607
G1 X57.829 Y43.943 E123.3725
G1 X57.855 Y43.917 E123.37604
G1 X59.013 Y42.759 E123.53944
G1 X177.241 Y160.987 E140.22269
G1 X176.083 Y162.145 E140.3861
G1 X176.055 Y162.173 E140.39005
G1 X175.629 Y162.599 E140.45016
G1 X175.795 Y161.913 E140.48662
G1 X175.796 Y161.873 E140.49047
G1 X175.827 Y161.07 E140.57065
G1 X175.676 Y160.454 E140.63394
G1 X175.595 Y160.187 E140.66178
G1 X175.265 Y159.69 E140.72131
G1 X175.08 Y159.436 E140.75266
G1 X174.555 Y159.081 E140.8159
G1 X174.312 Y158.931 E140.84439
G1 X173.685 Y158.776 E140.90884
G1 X173.456 Y158.729 E140.93216
G1 X172.801 Y158.746 E140.99754
G1 X172.61 Y158.763 E141.01667
G1 X171.827 Y158.952 E141.09705
G1 X171.037 Y159.283 E141.18251
G1 X170.273 Y159.725 E141.27058
G1 X169.54 Y160.263 E141.36131
G1 X168.86 Y160.881 E141.45299
G1 X168.241 Y161.562 E141.54482
G1 X167.703 Y162.295 E141.63554
G1 X167.261 Y163.059 E141.72361
G1 X166.931 Y163.849 E141.80904
G1 X166.783 Y164.458 E141.87158
G1 X166.746 Y164.603 E141.88651
G1 X166.734 Y164.646 E141.89096
G1 X166.704 Y165.503 E141.97653
G1 X166.915 Y166.362 E142.06479
G1 X167.234 Y166.834 E142.12163
G1 X167.386 Y167.095 E142.15177
G1 X168.193 Y167.638 E142.24882
G1 X169.049 Y167.848 E142.33677
G1 X169.852 Y167.817 E142.41695
G1 X169.891 Y167.816 E142.42084
G1 X170.577 Y167.651 E142.49124
G1 X170.152 Y168.076 E142.51742
G1 X170.125 Y168.103 E142.52109
G1 X168.137 Y170.091 E142.80162
G1 X167.997 Y170.231 E142.82138
G1 X167.857 Y170.091 E142.83411
G1 X158.628 Y160.861 E144.1365
G1 X155.413 Y164.076 E144.59017
G1 X155.135 Y164.354 E144.6294
G1 X154.683 Y164.807 E144.69325
G1 X154.627 Y164.863 E144.70115
G1 X154.677 Y164.802 E144.70117
G1 X154.992 Y164.212 E144.72012
G1 X155.106 Y163.835 E144.74995
G1 X155.186 Y163.57 E144.77757
G1 X155.252 Y162.907 E144.84405
G1 X155.186 Y162.244 E144.91053
G1 X154.992 Y161.603 E144.97736
G1 X154.677 Y161.012 E145.04418
G1 X154.253 Y160.499 E145.11059
G1 X153.74 Y160.075 E145.177
G1 X153.146 Y159.757 E145.24422
G1 X152.508 Y159.567 E145.31065
G1 X151.845 Y159.5 E145.37714
G1 X151.182 Y159.567 E145.44363
G1 X150.544 Y159.757 E145.51005
G1 X149.95 Y160.075 E145.57728
G1 X149.437 Y160.499 E145.64369
G1 X149.013 Y161.012 E145.7101
G1 X148.698 Y161.603 E145.77692
G1 X148.504 Y162.244 E145.84375
G1 X148.438 Y162.907 E145.91023
G1 X148.504 Y163.57 E145.97671
G1 X148.698 Y164.212 E146.04363
G1 X149.013 Y164.802 E146.11036
G1 X149.122 Y164.934 E146.12744
G1 X149.437 Y165.315 E146.17677
G1 X149.818 Y165.63 E146.2261
G1 X149.95 Y165.739 E146.24318
G1 X150.541 Y166.054 E146.31
G1 X151.182 Y166.248 E146.37683
G1 X151.845 Y166.314 E146.44331
G1 X152.508 Y166.248 E146.50979
G1 X152.774 Y166.167 E146.53754
G1 X153.149 Y166.054 E146.57661
G1 X153.74 Y165.739 E146.64344
G1 X153.801 Y165.688 E146.65137
G1 X153.746 Y165.744 E146.65139
G1 X153.293 Y166.197 E146.66924
G1 X153.016 Y166.474 E146.69896
G1 X151.557 Y167.933 E146.90484
G1 X149.538 Y165.914 E147.18974
G1 X149.188 Y165.564 E147.23622
G1 X148.838 Y165.214 E147.2827
G1 X146.429 Y162.805 E147.62264
G1 X146.289 Y162.665 E147.6424
G1 X146.429 Y162.525 E147.65513
G1 X153.361 Y155.594 E148.63324
G1 X64.546 Y66.779 E161.166
G1 X64.406 Y66.639 E161.18575
G1 X64.266 Y66.779 E161.19849
G1 X57.475 Y73.571 E162.15684
G1 X57.335 Y73.711 E162.1766
G1 X57.195 Y73.571 E162.18933
G1 X54.786 Y71.162 E162.52927
G1 X54.436 Y70.812 E162.57866
G1 X54.086 Y70.462 E162.62805
G1 X52.067 Y68.443 E162.91295
G1 X53.525 Y66.985 E163.11869
G1 X53.802 Y66.708 E163.15778
G1 X54.255 Y66.255 E163.2217
G1 X54.312 Y66.199 E163.22967
G1 X54.261 Y66.26 E163.22969
G1 X53.946 Y66.851 E163.24874
G1 X53.833 Y67.226 E163.27846
G1 X53.752 Y67.492 E163.3062
G1 X53.686 Y68.155 E163.37269
G1 X53.752 Y68.818 E163.43917
G1 X53.946 Y69.459 E163.50599
G1 X54.261 Y70.05 E163.57281
G1 X54.37 Y70.182 E163.5899
G1 X54.685 Y70.563 E163.63632
G1 X55.066 Y70.878 E163.68274
G1 X55.198 Y70.987 E163.69982
G1 X55.79 Y71.305 E163.76687
G1 X56.43 Y71.495 E163.83349
G1 X57.093 Y71.562 E163.89998
G1 X57.756 Y71.495 E163.96647
