;FLAVOR:Marlin
;TIME:3630
;Filament used: 2.89197m
;Layer height: 0.2
;MINX:36.066
;MINY:42.354
;MINZ:0.3
;MAXX:175.153
;MAXY:180.8
;MAXZ:8.9
;Generated with Cura_SteamEngine 4.8.0
M140 S80
M105
M190 S80
M104 S230
M105
M109 S230
M82 ;absolute extrusion mode
G28 ;Home
G1 Z15.0 F2000 ;Move the platform
G92 E0
G92 E0
G1 F1500 E-6.5
;LAYER_COUNT:44
;LAYER:0
M107
M204 S1000
G0 F7500 X47.64 Y46.495 Z0.3
;TYPE:SKIRT
G1 F1500 E0
G1 X48.166 Y45.982 E0.07331
G1 X48.598 Y45.617 E0.12974
G1 X49.077 Y45.317 E0.18614
G1 X49.593 Y45.087 E0.24251
G1 X50.137 Y44.931 E0.29898
G1 X50.697 Y44.855 E0.35537
G1 X51.262 Y44.857 E0.41174
G1 X51.821 Y44.94 E0.46813
G1 X52.154 Y45.029 E0.50252
G1 X53.197 Y45.356 E0.61159
G1 X53.539 Y45.469 E0.64753
G1 X56.175 Y46.259 E0.92211
G1 X58.765 Y46.957 E1.18976
G1 X61.424 Y47.592 E1.46254
G1 X64.111 Y48.156 E1.73649
G1 X66.364 Y48.558 E1.96485
G1 X66.74 Y48.631 E2.00306
G1 X67.286 Y48.778 E2.05948
G1 X67.806 Y49 E2.1159
G1 X68.289 Y49.293 E2.17227
G1 X68.713 Y49.639 E2.22687
G1 X68.952 Y49.863 E2.25956
G1 X75.618 Y56.527 E3.20006
G1 X76.091 Y57.014 E3.2678
G1 X76.456 Y57.446 E3.32423
G1 X76.755 Y57.926 E3.38066
G1 X76.901 Y58.231 E3.4144
G1 X77.229 Y59 E3.49782
G1 X77.697 Y60.141 E3.62087
G1 X78.808 Y62.643 E3.89403
G1 X79.979 Y65.093 E4.16498
G1 X81.211 Y67.492 E4.43407
G1 X82.517 Y69.867 E4.70452
G1 X83.893 Y72.21 E4.97564
G1 X85.332 Y74.509 E5.24626
G1 X86.85 Y76.788 E5.51949
G1 X88.417 Y79.002 E5.79014
G1 X90.048 Y81.175 E6.06124
G1 X91.712 Y83.265 E6.32781
G1 X93.488 Y85.372 E6.60277
G1 X95.276 Y87.373 E6.87052
G1 X98.16 Y90.382 E7.2864
G1 X129.64 Y121.862 E11.72857
G1 X131.629 Y123.794 E12.00525
G1 X133.625 Y125.628 E12.27571
G1 X135.678 Y127.408 E12.54684
G1 X137.79 Y129.14 E12.81937
G1 X139.933 Y130.797 E13.08967
G1 X142.123 Y132.392 E13.36
G1 X144.343 Y133.915 E13.62863
G1 X146.651 Y135.406 E13.9028
G1 X148.974 Y136.814 E14.17384
G1 X151.325 Y138.151 E14.4437
G1 X153.718 Y139.422 E14.71407
G1 X156.132 Y140.619 E14.98293
G1 X158.641 Y141.774 E15.25853
G1 X161.243 Y142.884 E15.54079
G1 X161.717 Y143.078 E15.5919
G1 X162.224 Y143.328 E15.6483
G1 X162.69 Y143.648 E15.70471
G1 X162.95 Y143.873 E15.73901
G1 X163.187 Y144.097 E15.77155
G1 X169.836 Y150.744 E16.70966
G1 X170.294 Y151.214 E16.77514
G1 X170.659 Y151.646 E16.83157
G1 X171.007 Y152.217 E16.89829
G1 X171.024 Y152.251 E16.90209
G1 X171.24 Y152.773 E16.95845
G1 X171.383 Y153.336 E17.01641
G1 X171.597 Y154.531 E17.13755
G1 X172.123 Y157.248 E17.41369
G1 X172.713 Y159.889 E17.6837
G1 X173.384 Y162.543 E17.95685
G1 X174.116 Y165.127 E18.22483
G1 X174.97 Y167.842 E18.50882
G1 X175.101 Y168.392 E18.56523
G1 X175.153 Y168.955 E18.62165
G1 X175.125 Y169.52 E18.67809
G1 X175.018 Y170.075 E18.73449
G1 X174.834 Y170.609 E18.79085
G1 X174.576 Y171.112 E18.84726
G1 X174.25 Y171.574 E18.90367
G1 X174.055 Y171.795 E18.93308
G1 X173.797 Y172.066 E18.97042
G1 X166.724 Y179.141 E19.96864
G1 X166.178 Y179.673 E20.0447
G1 X165.747 Y180.038 E20.10106
G1 X165.268 Y180.338 E20.15745
G1 X164.751 Y180.568 E20.21391
G1 X164.208 Y180.723 E20.27026
G1 X163.647 Y180.8 E20.32676
G1 X163.082 Y180.796 E20.38314
G1 X162.523 Y180.714 E20.43951
G1 X161.981 Y180.553 E20.49593
G1 X161.467 Y180.317 E20.55236
G1 X160.991 Y180.011 E20.60882
G1 X160.651 Y179.726 E20.65309
G1 X160.411 Y179.501 E20.68592
G1 X40.791 Y59.882 E37.56552
G1 X40.324 Y59.402 E37.63234
G1 X39.959 Y58.97 E37.68877
G1 X39.659 Y58.491 E37.74517
G1 X39.43 Y57.975 E37.8015
G1 X39.275 Y57.431 E37.85794
G1 X39.199 Y56.87 E37.91443
G1 X39.203 Y56.305 E37.9708
G1 X39.286 Y55.746 E38.02719
G1 X39.447 Y55.204 E38.08361
G1 X39.683 Y54.69 E38.14004
G1 X39.989 Y54.215 E38.19642
G1 X40.277 Y53.873 E38.24104
G1 X40.568 Y53.566 E38.28324
G1 X47.64 Y46.495 E39.28111
G0 F7500 X47.919 Y46.782
G1 F1500 X48.445 Y46.269 E39.35442
G1 X48.856 Y45.924 E39.40796
G1 X49.314 Y45.644 E39.46153
G1 X49.808 Y45.435 E39.51505
G1 X50.327 Y45.302 E39.56851
G1 X50.861 Y45.247 E39.62207
G1 X51.396 Y45.273 E39.67552
G1 X52.034 Y45.41 E39.74063
G1 X53.071 Y45.735 E39.84906
G1 X53.458 Y45.863 E39.88974
G1 X56.047 Y46.639 E40.15942
G1 X58.69 Y47.351 E40.43254
G1 X61.336 Y47.983 E40.70399
G1 X64.024 Y48.547 E40.97804
G1 X66.288 Y48.951 E41.20751
G1 X66.664 Y49.024 E41.24573
G1 X67.182 Y49.165 E41.2993
G1 X67.672 Y49.382 E41.35277
G1 X68.125 Y49.668 E41.40622
G1 X68.44 Y49.931 E41.44717
G1 X68.763 Y50.236 E41.4915
G1 X75.331 Y56.806 E42.41845
G1 X75.804 Y57.293 E42.48619
G1 X76.148 Y57.704 E42.53967
G1 X76.533 Y58.388 E42.61799
G1 X76.859 Y59.152 E42.70087
G1 X77.338 Y60.319 E42.82674
G1 X78.433 Y62.786 E43.09606
G1 X79.627 Y65.283 E43.37223
G1 X80.848 Y67.661 E43.63896
G1 X82.171 Y70.067 E43.91293
G1 X83.552 Y72.418 E44.18499
G1 X85.003 Y74.737 E44.45795
G1 X86.522 Y77.019 E44.73148
G1 X88.086 Y79.228 E45.00154
G1 X89.73 Y81.418 E45.27478
G1 X91.409 Y83.526 E45.54369
G1 X93.183 Y85.63 E45.81829
G1 X94.986 Y87.649 E46.08838
G1 X97.818 Y90.604 E46.49678
G1 X129.397 Y122.183 E50.95292
G1 X131.381 Y124.11 E51.22889
G1 X133.339 Y125.909 E51.4942
G1 X135.447 Y127.737 E51.77261
G1 X137.52 Y129.438 E52.04018
G1 X139.693 Y131.117 E52.31418
G1 X141.89 Y132.717 E52.58537
G1 X144.122 Y134.248 E52.85544
G1 X146.432 Y135.741 E53.12988
G1 X148.764 Y137.154 E53.40195
G1 X151.145 Y138.508 E53.67526
G1 X153.517 Y139.768 E53.94326
G1 X156.007 Y141.003 E54.22059
G1 X158.452 Y142.128 E54.48914
G1 X161.083 Y143.251 E54.77458
G1 X161.565 Y143.448 E54.82653
G1 X162.045 Y143.688 E54.88008
G1 X162.675 Y144.164 E54.95887
G1 X162.985 Y144.458 E55.0015
G1 X169.549 Y151.024 E55.92789
G1 X170.007 Y151.494 E55.99337
G1 X170.352 Y151.904 E56.04684
G1 X170.649 Y152.396 E56.10418
G1 X170.666 Y152.43 E56.10797
G1 X170.869 Y152.926 E56.16145
G1 X170.99 Y153.406 E56.21084
G1 X171.214 Y154.658 E56.33775
G1 X171.733 Y157.339 E56.61023
G1 X172.321 Y159.969 E56.87913
G1 X172.989 Y162.613 E57.15124
G1 X173.746 Y165.283 E57.42815
G1 X174.588 Y167.962 E57.70836
G1 X174.711 Y168.484 E57.76187
G1 X174.754 Y169.019 E57.81542
G1 X174.717 Y169.554 E57.86893
G1 X174.602 Y170.078 E57.92246
G1 X174.41 Y170.578 E57.9759
G1 X174.145 Y171.045 E58.02948
G1 X173.765 Y171.52 E58.09018
G1 X173.514 Y171.783 E58.12645
G1 X166.445 Y178.854 E59.12411
G1 X165.899 Y179.386 E59.20017
G1 X165.488 Y179.731 E59.25371
G1 X165.031 Y180.011 E59.30719
G1 X164.537 Y180.219 E59.36067
G1 X164.017 Y180.352 E59.41423
G1 X163.484 Y180.407 E59.4677
G1 X162.948 Y180.381 E59.52124
G1 X162.422 Y180.276 E59.57476
G1 X161.918 Y180.094 E59.62823
G1 X161.446 Y179.84 E59.68171
G1 X160.925 Y179.434 E59.74762
G1 X160.601 Y179.129 E59.79202
G1 X41.078 Y59.603 E76.65822
G1 X40.611 Y59.123 E76.72504
G1 X40.266 Y58.712 E76.77858
G1 X39.987 Y58.254 E76.83209
G1 X39.779 Y57.76 E76.88557
G1 X39.646 Y57.241 E76.93903
G1 X39.592 Y56.707 E76.99259
G1 X39.618 Y56.171 E77.04613
G1 X39.723 Y55.646 E77.09955
G1 X39.906 Y55.141 E77.15315
G1 X40.161 Y54.669 E77.20668
G1 X40.568 Y54.147 E77.27273
G1 X40.773 Y53.929 E77.30259
G1 X47.919 Y46.782 E78.31103
G0 F7500 X48.199 Y47.068
G1 F1500 X48.725 Y46.555 E78.38435
G1 X49.113 Y46.232 E78.43472
G1 X49.548 Y45.974 E78.48519
G1 X50.018 Y45.787 E78.53566
G1 X50.512 Y45.677 E78.58616
G1 X51.016 Y45.647 E78.63654
G1 X51.519 Y45.695 E78.68695
G1 X51.915 Y45.792 E78.72763
G1 X52.945 Y46.115 E78.83534
G1 X53.323 Y46.24 E78.87507
G1 X55.934 Y47.023 E79.14706
G1 X58.598 Y47.74 E79.42233
G1 X61.232 Y48.37 E79.69257
G1 X63.969 Y48.944 E79.97161
G1 X66.212 Y49.344 E80.19894
G1 X66.588 Y49.417 E80.23716
G1 X67.075 Y49.552 E80.28759
G1 X67.535 Y49.762 E80.33804
G1 X67.956 Y50.042 E80.38849
G1 X68.166 Y50.223 E80.41616
G1 X68.48 Y50.519 E80.45921
G1 X75.044 Y57.084 E81.38554
G1 X75.517 Y57.571 E81.45328
G1 X75.84 Y57.961 E81.5038
G1 X76.165 Y58.545 E81.57049
G1 X76.489 Y59.304 E81.65284
G1 X76.961 Y60.454 E81.77687
G1 X78.085 Y62.985 E82.0532
G1 X79.248 Y65.418 E82.32228
G1 X80.522 Y67.899 E82.60056
G1 X81.818 Y70.257 E82.86904
G1 X83.201 Y72.612 E83.14155
G1 X84.674 Y74.966 E83.41862
G1 X86.179 Y77.226 E83.68955
G1 X87.773 Y79.476 E83.96469
G1 X89.397 Y81.64 E84.23466
G1 X91.124 Y83.809 E84.5113
G1 X92.863 Y85.871 E84.78045
G1 X94.709 Y87.939 E85.05705
G1 X97.535 Y90.887 E85.46453
G1 X129.116 Y122.468 E89.92095
G1 X131.078 Y124.374 E90.19388
G1 X133.106 Y126.237 E90.46866
G1 X135.176 Y128.032 E90.74205
G1 X137.267 Y129.747 E91.01189
G1 X139.442 Y131.428 E91.28617
G1 X141.667 Y133.049 E91.56086
G1 X143.924 Y134.598 E91.834
G1 X146.198 Y136.066 E92.10407
G1 X148.565 Y137.501 E92.38026
G1 X150.94 Y138.851 E92.65285
G1 X153.373 Y140.144 E92.92777
G1 X155.799 Y141.347 E93.19796
G1 X158.307 Y142.501 E93.47343
G1 X160.913 Y143.613 E93.75614
G1 X161.414 Y143.818 E93.81016
G1 X161.865 Y144.046 E93.86058
G1 X162.4 Y144.454 E93.92772
G1 X162.702 Y144.741 E93.96929
G1 X169.263 Y151.303 E94.89519
G1 X169.721 Y151.773 E94.96067
G1 X170.044 Y152.162 E95.01112
G1 X170.291 Y152.575 E95.05913
G1 X170.308 Y152.609 E95.06293
G1 X170.498 Y153.078 E95.11342
G1 X170.596 Y153.476 E95.15432
G1 X170.812 Y154.683 E95.27667
G1 X171.346 Y157.438 E95.55668
G1 X171.935 Y160.074 E95.82618
G1 X172.602 Y162.715 E96.09798
G1 X173.356 Y165.374 E96.37376
G1 X174.207 Y168.082 E96.65699
G1 X174.32 Y168.575 E96.70746
G1 X174.354 Y169.079 E96.75786
G1 X174.308 Y169.583 E96.80836
G1 X174.183 Y170.073 E96.85882
G1 X173.983 Y170.537 E96.90923
G1 X173.712 Y170.964 E96.95969
G1 X173.475 Y171.245 E96.99637
G1 X173.231 Y171.5 E97.03159
G1 X166.166 Y178.568 E98.02875
G1 X165.62 Y179.1 E98.10481
G1 X165.231 Y179.423 E98.15527
G1 X164.796 Y179.681 E98.20573
G1 X164.326 Y179.867 E98.25617
G1 X163.833 Y179.977 E98.30657
G1 X163.328 Y180.007 E98.35704
G1 X162.825 Y179.958 E98.40747
G1 X162.336 Y179.83 E98.45791
G1 X161.873 Y179.627 E98.50835
G1 X161.448 Y179.354 E98.55875
G1 X161.198 Y179.143 E98.5914
G1 X160.958 Y178.918 E98.62422
G1 X41.395 Y59.356 E115.49578
G1 X40.897 Y58.844 E115.56705
G1 X40.575 Y58.455 E115.61744
G1 X40.317 Y58.02 E115.6679
G1 X40.131 Y57.55 E115.71834
G1 X40.022 Y57.057 E115.76872
G1 X39.992 Y56.552 E115.81919
G1 X40.041 Y56.049 E115.86962
G1 X40.169 Y55.56 E115.92006
G1 X40.373 Y55.097 E115.97054
G1 X40.647 Y54.672 E116.021
G1 X40.86 Y54.421 E116.05384
G1 X41.133 Y54.132 E116.09351
G1 X48.199 Y47.068 E117.09046
;MESH:main-case-back-left-right-connector.stl
G0 F7500 X50.885 Y49.755
G0 X50.957 Y50.815
;TYPE:WALL-INNER
G1 F1500 X60.186 Y60.045 E118.39284
G1 X60.326 Y60.185 E118.4126
G1 X60.466 Y60.045 E118.42533
G1 X62.125 Y58.386 E118.65944
G1 X62.401 Y58.11 E118.69838
G1 X62.857 Y57.654 E118.76273
G1 X62.904 Y57.607 E118.76936
G1 X62.862 Y57.658 E118.76941
G1 X62.544 Y58.252 E118.7884
G1 X62.433 Y58.627 E118.81805
G1 X62.354 Y58.89 E118.84546
G1 X62.287 Y59.554 E118.91205
G1 X62.354 Y60.217 E118.97854
G1 X62.544 Y60.855 E119.04496
G1 X62.862 Y61.449 E119.11219
G1 X63.286 Y61.964 E119.17875
G1 X63.802 Y62.385 E119.2452
G1 X64.39 Y62.7 E119.31176
G1 X65.028 Y62.894 E119.3783
G1 X65.694 Y62.961 E119.44509
G1 X66.359 Y62.894 E119.51178
G1 X66.999 Y62.7 E119.57851
G1 X67.586 Y62.385 E119.64498
G1 X68.102 Y61.964 E119.71143
G1 X68.526 Y61.449 E119.77799
G1 X68.841 Y60.858 E119.84481
G1 X69.035 Y60.217 E119.91164
G1 X69.101 Y59.554 E119.97812
G1 X69.035 Y58.89 E120.0447
G1 X68.841 Y58.249 E120.11152
G1 X68.526 Y57.658 E120.17835
G1 X68.423 Y57.533 E120.19451
G1 X68.102 Y57.143 E120.24491
G1 X67.727 Y56.837 E120.2932
G1 X67.586 Y56.722 E120.31136
G1 X66.999 Y56.407 E120.37783
G1 X66.357 Y56.213 E120.44475
G1 X65.694 Y56.147 E120.51123
G1 X65.031 Y56.213 E120.57771
G1 X64.765 Y56.294 E120.60546
G1 X64.39 Y56.407 E120.64454
G1 X63.802 Y56.722 E120.7111
G1 X63.731 Y56.78 E120.72024
G1 X63.795 Y56.716 E120.7203
G1 X64.247 Y56.264 E120.73665
G1 X64.524 Y55.987 E120.76637
G1 X65.983 Y54.528 E120.97225
G1 X68.008 Y56.553 E121.258
G1 X68.35 Y56.895 E121.30329
G1 X68.707 Y57.252 E121.35058
G1 X71.25 Y59.795 E121.70942
G1 X65.593 Y65.452 E122.50769
G1 X154.548 Y154.407 E135.0602
G1 X160.205 Y148.75 E135.85846
G1 X162.748 Y151.293 E136.21731
G1 X163.105 Y151.65 E136.26768
G1 X163.447 Y151.992 E136.31594
G1 X165.472 Y154.017 E136.60169
G1 X164.013 Y155.476 E136.80757
G1 X163.736 Y155.753 E136.84666
G1 X163.285 Y156.204 E136.9103
G1 X163.22 Y156.269 E136.91947
G1 X163.278 Y156.198 E136.91953
G1 X163.593 Y155.61 E136.93874
G1 X163.707 Y155.234 E136.96855
G1 X163.787 Y154.972 E136.99589
G1 X163.854 Y154.306 E137.06267
G1 X163.787 Y153.641 E137.12936
G1 X163.593 Y153.001 E137.19609
G1 X163.278 Y152.414 E137.26257
G1 X163.163 Y152.273 E137.28072
G1 X162.857 Y151.898 E137.32606
G1 X162.467 Y151.577 E137.37337
G1 X162.342 Y151.474 E137.38953
G1 X161.751 Y151.159 E137.45635
G1 X161.11 Y150.965 E137.52318
G1 X160.446 Y150.899 E137.58976
G1 X159.783 Y150.965 E137.65624
G1 X159.142 Y151.159 E137.72306
G1 X158.551 Y151.474 E137.78989
G1 X158.036 Y151.898 E137.85645
G1 X157.615 Y152.414 E137.9229
G1 X157.3 Y153.001 E137.98937
G1 X157.106 Y153.643 E138.05629
G1 X157.04 Y154.306 E138.12277
G1 X157.106 Y154.969 E138.18925
G1 X157.3 Y155.61 E138.25608
G1 X157.615 Y156.198 E138.32264
G1 X158.036 Y156.714 E138.38908
G1 X158.551 Y157.138 E138.45565
G1 X159.145 Y157.456 E138.52288
G1 X159.783 Y157.646 E138.5893
G1 X160.447 Y157.713 E138.65589
G1 X161.11 Y157.646 E138.72238
G1 X161.373 Y157.567 E138.74978
G1 X161.748 Y157.456 E138.7888
G1 X162.342 Y157.138 E138.85603
G1 X162.393 Y157.096 E138.86262
G1 X162.347 Y157.142 E138.86267
G1 X161.891 Y157.598 E138.8804
G1 X161.615 Y157.874 E138.90997
G1 X159.955 Y159.534 E139.14421
G1 X159.815 Y159.674 E139.16397
G1 X159.955 Y159.814 E139.1767
G1 X169.185 Y169.043 E140.47909
G1 X163.527 Y174.702 E141.27756
G1 X163.387 Y174.842 E141.29732
G1 X163.247 Y174.702 E141.31005
G1 X45.298 Y56.753 E157.95393
G1 X45.158 Y56.613 E157.97369
G1 X45.298 Y56.473 E157.98642
G1 X50.957 Y50.815 E158.7849
G0 F7500 X60.326 Y59.093
G0 X64.226 Y61.75
G0 X64.683 Y61.994
G0 X64.963 Y62.078
G0 X66.845 Y62.329
G1 F1500 X67.363 Y62.051 E158.84356
G1 X67.818 Y61.679 E158.9022
G1 X68.192 Y61.225 E158.96089
G1 X68.47 Y60.704 E159.01981
G1 X68.641 Y60.139 E159.07872
G1 X68.699 Y59.554 E159.13737
G1 X68.641 Y58.968 E159.19613
G1 X68.47 Y58.403 E159.25503
G1 X68.192 Y57.882 E159.31396
G1 X67.818 Y57.428 E159.37265
G1 X67.363 Y57.056 E159.43129
G1 X66.845 Y56.778 E159.48995
G1 X66.279 Y56.607 E159.54895
G1 X65.694 Y56.549 E159.6076
G1 X65.109 Y56.607 E159.66626
G1 X64.544 Y56.778 E159.72516
G1 X64.025 Y57.056 E159.78391
G1 X63.57 Y57.428 E159.84255
G1 X63.196 Y57.882 E159.90124
G1 X62.916 Y58.405 E159.96044
G1 X62.748 Y58.968 E160.01906
G1 X62.689 Y59.554 E160.07783
G1 X62.748 Y60.139 E160.1365
G1 X62.916 Y60.702 E160.19512
G1 X63.196 Y61.225 E160.25431
G1 X63.57 Y61.679 E160.31301
G1 X64.025 Y62.051 E160.37165
G1 X64.544 Y62.329 E160.4304
G1 X65.107 Y62.5 E160.48911
G1 X65.694 Y62.559 E160.54797
G1 X66.28 Y62.5 E160.60674
G1 X66.845 Y62.329 E160.66564
G0 F7500 X66.691 Y61.958
G1 F1500 X67.14 Y61.717 E160.71649
G1 X67.534 Y61.394 E160.76732
G1 X67.858 Y61.001 E160.81815
G1 X68.099 Y60.55 E160.86917
G1 X68.247 Y60.061 E160.92015
G1 X68.297 Y59.554 E160.97098
G1 X68.247 Y59.046 E161.02191
G1 X68.099 Y58.557 E161.07289
G1 X67.858 Y58.106 E161.12392
G1 X67.534 Y57.713 E161.17474
G1 X67.14 Y57.39 E161.22557
G1 X66.691 Y57.149 E161.27642
G1 X66.201 Y57.001 E161.32749
G1 X65.694 Y56.951 E161.37833
G1 X65.187 Y57.001 E161.42916
G1 X64.698 Y57.149 E161.48014
G1 X64.248 Y57.39 E161.53108
G1 X63.854 Y57.713 E161.58191
G1 X63.53 Y58.106 E161.63273
G1 X63.288 Y58.558 E161.68389
G1 X63.142 Y59.046 E161.73472
G1 X63.091 Y59.554 E161.78566
G1 X63.142 Y60.061 E161.8365
G1 X63.288 Y60.549 E161.88733
G1 X63.53 Y61.001 E161.93849
G1 X63.854 Y61.394 E161.98931
G1 X64.248 Y61.717 E162.04014
G1 X64.698 Y61.958 E162.09108
G1 X65.186 Y62.106 E162.14196
G1 X65.694 Y62.157 E162.19291
G1 X66.201 Y62.106 E162.24375
G1 X66.691 Y61.958 E162.29482
G0 F7500 X66.537 Y61.587
;TYPE:WALL-OUTER
G1 F1500 X66.917 Y61.383 E162.33786
G1 X67.25 Y61.11 E162.38082
G1 X67.524 Y60.777 E162.42385
G1 X67.728 Y60.396 E162.46698
G1 X67.853 Y59.983 E162.51003
G1 X67.895 Y59.554 E162.55304
