;FLAVOR:Marlin
;TIME:1300
;Filament used: 0.729335m
;Layer height: 0.2
;MINX:90.547
;MINY:90.355
;MINZ:0.2
;MAXX:129.74
;MAXY:129.453
;MAXZ:16.8
;Generated with Cura_SteamEngine 4.8.0
M140 S80
M105
M190 S80
M104 S230
M105
M109 S230
M82 ;absolute extrusion mode
G28 ;Home
G1 Z15.0 F2000 ;Move the platform
G92 E0
G92 E0
G1 F1500 E-6.5
;LAYER_COUNT:85
;LAYER:0
M107
M204 S1000
G0 F7500 X91.558 Y91.957 Z0.2
;TYPE:SKIRT
G1 F1500 E0
G1 X91.961 Y91.561 E0.03758
G1 X92.361 Y91.26 E0.07088
G1 X92.431 Y91.214 E0.07646
G1 X92.924 Y90.938 E0.11404
G1 X93.452 Y90.734 E0.15169
G1 X94.002 Y90.606 E0.18926
G1 X94.57 Y90.557 E0.22718
G1 X95.317 Y90.547 E0.27688
G1 X124.782 Y90.55 E2.2369
G1 X125.472 Y90.56 E2.2828
G1 X126.035 Y90.609 E2.32039
G1 X126.586 Y90.736 E2.35801
G1 X127.114 Y90.939 E2.39563
G1 X127.607 Y91.215 E2.43322
G1 X128.057 Y91.557 E2.47082
G1 X128.454 Y91.96 E2.50845
G1 X128.79 Y92.414 E2.54602
G1 X129.059 Y92.912 E2.58367
G1 X129.255 Y93.442 E2.62126
G1 X129.391 Y94.134 E2.66817
G1 X129.409 Y94.302 E2.67941
G1 X129.431 Y94.648 E2.70247
G1 X129.453 Y95.778 E2.77766
G1 X129.452 Y124.756 E4.70528
G1 X129.442 Y125.459 E4.75205
G1 X129.394 Y126.022 E4.78964
G1 X129.267 Y126.573 E4.82725
G1 X129.063 Y127.101 E4.8649
G1 X128.788 Y127.594 E4.90245
G1 X128.445 Y128.044 E4.94009
G1 X128.043 Y128.441 E4.97767
G1 X127.508 Y128.827 E5.02156
G1 X127.445 Y128.865 E5.02645
G1 X126.941 Y129.122 E5.06409
G1 X126.407 Y129.306 E5.10166
G1 X125.851 Y129.412 E5.13931
G1 X125.443 Y129.439 E5.16651
G1 X124.57 Y129.453 E5.22459
G1 X95.23 Y129.452 E7.17629
G1 X94.545 Y129.442 E7.22186
G1 X93.981 Y129.393 E7.25952
G1 X93.43 Y129.266 E7.29714
G1 X92.903 Y129.063 E7.3347
G1 X92.41 Y128.787 E7.37229
G1 X91.96 Y128.444 E7.40993
G1 X91.563 Y128.042 E7.44751
G1 X91.26 Y127.639 E7.48105
G1 X91.214 Y127.569 E7.48662
G1 X90.938 Y127.076 E7.52421
G1 X90.734 Y126.548 E7.56186
G1 X90.606 Y125.998 E7.59942
G1 X90.557 Y125.427 E7.63754
G1 X90.547 Y124.648 E7.68937
G1 X90.548 Y95.19 E9.64892
G1 X90.558 Y94.541 E9.6921
G1 X90.607 Y93.978 E9.72969
G1 X90.735 Y93.427 E9.76732
G1 X90.939 Y92.9 E9.80491
G1 X91.215 Y92.407 E9.8425
G1 X91.558 Y91.957 E9.88013
G0 F7500 X91.951 Y92.12
G1 F1500 X92.349 Y91.761 E9.91579
G1 X92.581 Y91.594 E9.9348
G1 X92.651 Y91.548 E9.94037
G1 X93.12 Y91.288 E9.97605
G1 X93.622 Y91.1 E10.0117
G1 X94.147 Y90.989 E10.0474
G1 X94.576 Y90.957 E10.07602
G1 X95.317 Y90.947 E10.12531
G1 X124.776 Y90.95 E12.08493
G1 X125.466 Y90.96 E12.13084
G1 X126 Y91.008 E12.1665
G1 X126.521 Y91.135 E12.20217
G1 X127.018 Y91.337 E12.23786
G1 X127.479 Y91.611 E12.27353
G1 X127.894 Y91.951 E12.30922
G1 X128.254 Y92.348 E12.34487
G1 X128.551 Y92.795 E12.38057
G1 X128.779 Y93.28 E12.41622
G1 X128.932 Y93.794 E12.45189
G1 X128.994 Y94.176 E12.47764
G1 X129.012 Y94.344 E12.48888
G1 X129.031 Y94.656 E12.50967
G1 X129.053 Y95.778 E12.58432
G1 X129.052 Y124.75 E14.51154
G1 X129.042 Y125.453 E14.55831
G1 X128.994 Y125.987 E14.59398
G1 X128.868 Y126.509 E14.6297
G1 X128.665 Y127.005 E14.66535
G1 X128.391 Y127.466 E14.70102
G1 X128.052 Y127.881 E14.73667
G1 X127.655 Y128.242 E14.77236
G1 X127.301 Y128.485 E14.80093
G1 X127.238 Y128.523 E14.80582
G1 X126.76 Y128.765 E14.84146
G1 X126.251 Y128.933 E14.87711
G1 X125.722 Y129.024 E14.91282
G1 X125.437 Y129.04 E14.93181
G1 X124.57 Y129.053 E14.98949
G1 X95.235 Y129.052 E16.94086
G1 X94.55 Y129.042 E16.98643
G1 X94.016 Y128.994 E17.0221
G1 X93.495 Y128.867 E17.05777
G1 X92.999 Y128.665 E17.09339
G1 X92.538 Y128.391 E17.12907
G1 X92.123 Y128.051 E17.16475
G1 X91.762 Y127.654 E17.20045
G1 X91.594 Y127.419 E17.21966
G1 X91.548 Y127.349 E17.22524
G1 X91.288 Y126.88 E17.26091
G1 X91.1 Y126.378 E17.29657
G1 X90.989 Y125.853 E17.33226
G1 X90.957 Y125.422 E17.36101
G1 X90.947 Y124.648 E17.4125
G1 X90.948 Y95.197 E19.37159
G1 X90.958 Y94.548 E19.41477
G1 X91.007 Y94.013 E19.4505
G1 X91.134 Y93.492 E19.48618
G1 X91.337 Y92.996 E19.52183
G1 X91.611 Y92.535 E19.5575
G1 X91.951 Y92.12 E19.59319
G0 F7500 X92.007 Y92.671
G1 F1500 X92.343 Y92.294 E19.62678
G1 X92.801 Y91.929 E19.66574
G1 X92.871 Y91.883 E19.67131
G1 X93.314 Y91.639 E19.70495
G1 X93.79 Y91.469 E19.73858
G1 X94.287 Y91.375 E19.77222
G1 X94.582 Y91.357 E19.79188
G1 X95.317 Y91.347 E19.84078
G1 X124.77 Y91.35 E21.8
G1 X125.46 Y91.36 E21.8459
G1 X125.964 Y91.408 E21.87958
G1 X126.453 Y91.533 E21.91316
G1 X126.917 Y91.735 E21.94682
G1 X127.343 Y92.007 E21.98044
G1 X127.721 Y92.343 E22.01408
G1 X128.042 Y92.734 E22.04774
G1 X128.297 Y93.17 E22.08133
G1 X128.479 Y93.642 E22.11499
G1 X128.596 Y94.219 E22.15415
G1 X128.614 Y94.387 E22.16539
G1 X128.631 Y94.664 E22.18385
G1 X128.653 Y95.778 E22.25797
G1 X128.652 Y124.745 E24.18486
G1 X128.642 Y125.448 E24.23163
G1 X128.595 Y125.951 E24.26523
G1 X128.469 Y126.441 E24.29889
G1 X128.267 Y126.904 E24.33249
G1 X127.996 Y127.331 E24.36613
G1 X127.66 Y127.709 E24.39978
G1 X127.095 Y128.142 E24.44713
G1 X127.032 Y128.18 E24.45202
G1 X126.58 Y128.406 E24.48564
G1 X126.097 Y128.558 E24.51932
G1 X125.43 Y128.64 E24.56402
G1 X124.57 Y128.653 E24.62124
G1 X95.241 Y128.652 E26.57221
G1 X94.556 Y128.642 E26.61778
G1 X94.053 Y128.594 E26.65139
G1 X93.563 Y128.468 E26.68505
G1 X93.1 Y128.267 E26.71862
G1 X92.673 Y127.995 E26.7523
G1 X92.296 Y127.659 E26.78589
G1 X91.929 Y127.199 E26.82504
G1 X91.883 Y127.129 E26.83061
G1 X91.639 Y126.686 E26.86425
G1 X91.469 Y126.21 E26.89788
G1 X91.375 Y125.713 E26.93152
G1 X91.357 Y125.416 E26.95132
G1 X91.347 Y124.648 E27.00241
G1 X91.348 Y95.203 E28.9611
G1 X91.358 Y94.554 E29.00427
G1 X91.406 Y94.05 E29.03795
G1 X91.532 Y93.561 E29.07154
G1 X91.734 Y93.097 E29.10521
G1 X92.007 Y92.671 E29.13886
G1 F1500 E22.63886
;MESH:camera-cover.stl
G0 F7500 X95.162 Y95.161
G0 X122.15 Y95.303
G0 X124.093 Y95.457
G0 X124.527 Y95.736
G0 X124.464 Y95.812
;TYPE:WALL-INNER
G1 F1500 E29.13886
G1 X124.137 Y95.541 E29.16711
G1 X124.08 Y95.494 E29.17203
G1 X122.956 Y95.496 E29.2468
G1 X122.624 Y95.39 E29.26998
G1 X122.15 Y95.343 E29.30167
G1 X121.68 Y95.39 E29.33309
G1 X121.334 Y95.495 E29.35714
G1 X98.555 Y95.495 E30.8724
G1 X98.224 Y95.39 E30.8955
G1 X97.75 Y95.343 E30.92719
G1 X97.28 Y95.39 E30.95861
G1 X96.934 Y95.495 E30.98266
G1 X95.846 Y95.495 E31.05504
G1 X95.494 Y95.92 E31.09174
G1 X95.496 Y96.944 E31.15986
G1 X95.39 Y97.276 E31.18304
G1 X95.343 Y97.75 E31.21473
G1 X95.39 Y98.22 E31.24615
G1 X95.495 Y98.566 E31.2702
G1 X95.495 Y121.445 E32.79212
G1 X95.39 Y121.776 E32.81522
G1 X95.343 Y122.25 E32.8469
G1 X95.39 Y122.72 E32.87832
G1 X95.495 Y123.066 E32.90238
G1 X95.495 Y124.154 E32.97475
G1 X95.536 Y124.188 E32.97829
G1 X95.865 Y124.461 E33.00673
G1 X95.92 Y124.506 E33.01146
G1 X96.944 Y124.504 E33.07958
G1 X97.276 Y124.61 E33.10276
G1 X97.75 Y124.657 E33.13445
G1 X98.22 Y124.61 E33.16587
G1 X98.566 Y124.505 E33.18992
G1 X121.345 Y124.505 E34.70518
G1 X121.676 Y124.61 E34.72828
G1 X122.15 Y124.657 E34.75997
G1 X122.62 Y124.61 E34.79139
G1 X122.966 Y124.505 E34.81544
G1 X124.217 Y124.505 E34.89866
G1 X124.239 Y124.467 E34.90158
G1 X124.458 Y124.091 E34.93052
G1 X124.506 Y124.009 E34.93684
G1 X124.504 Y122.736 E35.02152
G1 X124.511 Y122.714 E35.02306
G1 X124.557 Y122.249 E35.05414
G1 X124.508 Y121.768 E35.08631
G1 X124.505 Y121.759 E35.08694
G1 X124.505 Y98.231 E36.65203
G1 X124.511 Y98.21 E36.65348
G1 X124.557 Y97.749 E36.6843
G1 X124.508 Y97.268 E36.71646
G1 X124.505 Y97.259 E36.71709
G1 X124.505 Y95.846 E36.81108
G1 X124.464 Y95.812 E36.81463
G0 F7500 X124.105 Y96.034
;TYPE:WALL-OUTER
G1 F1500 X123.936 Y95.894 E36.82922
G1 X122.895 Y95.896 E36.89847
G1 X122.543 Y95.784 E36.92304
G1 X122.15 Y95.745 E36.94931
G1 X121.759 Y95.784 E36.97545
G1 X121.394 Y95.895 E37.00083
G1 X98.494 Y95.895 E38.52414
G1 X98.143 Y95.784 E38.54863
G1 X97.75 Y95.745 E38.5749
G1 X97.359 Y95.784 E38.60104
G1 X96.994 Y95.895 E38.62642
G1 X96.034 Y95.895 E38.69028
G1 X95.894 Y96.064 E38.70488
G1 X95.896 Y97.005 E38.76747
G1 X95.784 Y97.357 E38.79205
G1 X95.745 Y97.75 E38.81832
G1 X95.784 Y98.141 E38.84445
G1 X95.895 Y98.506 E38.86983
G1 X95.895 Y121.506 E40.3998
G1 X95.784 Y121.857 E40.42429
G1 X95.745 Y122.25 E40.45056
G1 X95.784 Y122.641 E40.4767
G1 X95.895 Y123.006 E40.50207
G1 X95.895 Y123.966 E40.56593
G1 X96.064 Y124.106 E40.58053
G1 X97.005 Y124.104 E40.64313
G1 X97.357 Y124.216 E40.6677
G1 X97.75 Y124.255 E40.69397
G1 X98.141 Y124.216 E40.72011
G1 X98.506 Y124.105 E40.74549
G1 X121.406 Y124.105 E42.2688
G1 X121.757 Y124.216 E42.29329
G1 X122.15 Y124.255 E42.31956
G1 X122.541 Y124.216 E42.3457
G1 X122.906 Y124.105 E42.37108
G1 X123.987 Y124.105 E42.44298
G1 X124.106 Y123.901 E42.45869
G1 X124.104 Y122.676 E42.54018
G1 X124.117 Y122.634 E42.54311
G1 X124.155 Y122.25 E42.56878
G1 X124.114 Y121.85 E42.59552
G1 X124.105 Y121.822 E42.59748
G1 X124.105 Y98.174 E44.17055
G1 X124.117 Y98.133 E44.17339
G1 X124.155 Y97.75 E44.19899
G1 X124.114 Y97.35 E44.22574
G1 X124.105 Y97.322 E44.2277
G1 X124.105 Y96.034 E44.31338
G0 F7500 X123.951 Y95.907
G0 X124.233 Y95.568
G0 X124.271 Y95.523
G0 X122.52 Y95.333
G0 X95.218 Y95.217
G0 X95.148 Y95.147
;TYPE:WALL-INNER
G1 F1500 X95.846 Y95.147 E44.35981
G1 X96.934 Y95.147 E44.42293
G1 X97.28 Y95.147 E44.43992
G1 X97.75 Y95.147 E44.4571
G1 X98.224 Y95.147 E44.47443
G1 X98.555 Y95.147 E44.49067
G1 X121.334 Y95.148 E45.81036
G1 X121.68 Y95.149 E45.82725
G1 X122.15 Y95.149 E45.84428
G1 X122.624 Y95.149 E45.86145
G1 X122.956 Y95.149 E45.87766
G1 X124.08 Y95.149 E45.94249
G1 X124.155 Y95.149 E45.94717
G1 X124.853 Y95.15 E45.9936
G1 X124.853 Y95.792 E46.03631
G1 X124.853 Y95.846 E46.03969
G1 X124.853 Y97.268 E46.12223
G1 X124.853 Y97.749 E46.14793
G1 X124.853 Y98.21 E46.17244
G1 X124.853 Y98.231 E46.17364
G1 X124.853 Y121.768 E47.53924
G1 X124.853 Y122.249 E47.56494
G1 X124.853 Y122.714 E47.58966
G1 X124.853 Y122.736 E47.59093
G1 X124.853 Y124.009 E47.66479
G1 X124.853 Y124.105 E47.67077
G1 X124.852 Y124.853 E47.72053
G1 X124.261 Y124.853 E47.75984
G1 X124.217 Y124.853 E47.76261
G1 X122.966 Y124.853 E47.83519
G1 X122.62 Y124.853 E47.85218
G1 X122.15 Y124.853 E47.86936
G1 X121.676 Y124.853 E47.88669
G1 X121.345 Y124.853 E47.90293
G1 X98.566 Y124.853 E49.22451
G1 X98.22 Y124.853 E49.2415
G1 X97.75 Y124.853 E49.25868
G1 X97.276 Y124.853 E49.27601
G1 X96.944 Y124.853 E49.29233
G1 X95.92 Y124.853 E49.35174
G1 X95.848 Y124.853 E49.35624
G1 X95.147 Y124.852 E49.40287
G1 X95.147 Y124.208 E49.44571
G1 X95.147 Y124.154 E49.44909
G1 X95.147 Y123.066 E49.51222
G1 X95.147 Y122.72 E49.5292
G1 X95.147 Y122.25 E49.54639
G1 X95.147 Y121.776 E49.56372
G1 X95.147 Y121.445 E49.57996
G1 X95.147 Y98.566 E50.90734
G1 X95.147 Y98.22 E50.92433
G1 X95.147 Y97.75 E50.94151
G1 X95.147 Y97.276 E50.95884
G1 X95.147 Y96.944 E50.97516
G1 X95.147 Y95.92 E51.03457
G1 X95.148 Y95.147 E51.08599
G0 F7500 X94.748 Y94.747
;TYPE:WALL-OUTER
G1 F1500 X125.244 Y94.75 E53.11459
G1 X125.253 Y94.842 E53.12074
G1 X125.252 Y125.253 E55.14369
G1 X94.747 Y125.252 E57.17289
G1 X94.748 Y94.747 E59.20209
G0 F7500 X94.948 Y94.747
G0 X95.187 Y95.187
G0 X95.547 Y95.547
;MESH:NONMESH
G0 F300 X95.547 Y95.547 Z0.4
G0 F7500 X95.395 Y96.736
G0 X95.584 Y96.736
;TIME_ELAPSED:43.355390
;LAYER:1
M106 S85
;TYPE:WALL-INNER
;MESH:camera-cover.stl
G1 F1500 X95.508 Y96.893 E59.20789
G1 X95.39 Y97.28 E59.22135
G1 X95.343 Y97.75 E59.23706
G1 X95.39 Y98.22 E59.25277
G1 X95.527 Y98.672 E59.26848
G1 X95.584 Y98.777 E59.27245
G1 X95.584 Y121.235 E60.01941
G1 X95.507 Y121.394 E60.02528
G1 X95.39 Y121.78 E60.0387
G1 X95.343 Y122.25 E60.05441
G1 X95.39 Y122.72 E60.07012
G1 X95.527 Y123.172 E60.08583
G1 X95.584 Y123.277 E60.0898
G1 X95.583 Y123.842 E60.10859
G1 X95.636 Y123.941 E60.11233
G1 X95.864 Y124.363 E60.12828
G1 X95.866 Y124.368 E60.12846
G1 X96.495 Y124.417 E60.14944
G1 X96.742 Y124.416 E60.15766
G1 X96.932 Y124.503 E60.16461
G1 X97.279 Y124.61 E60.17669
G1 X97.75 Y124.657 E60.19243
G1 X98.22 Y124.61 E60.20814
G1 X98.672 Y124.473 E60.22385
G1 X98.777 Y124.416 E60.22782
G1 X121.141 Y124.416 E60.97165
G1 X121.334 Y124.504 E60.97871
G1 X121.678 Y124.61 E60.99068
G1 X122.15 Y124.657 E61.00646
G1 X122.62 Y124.61 E61.02217
G1 X123.072 Y124.473 E61.03788
G1 X123.177 Y124.416 E61.04185
G1 X123.842 Y124.417 E61.06397
G1 X123.941 Y124.364 E61.0677
G1 X124.334 Y124.152 E61.08256
G1 X124.361 Y124.007 E61.08746
G1 X124.417 Y123.693 E61.09807
G1 X124.415 Y123.029 E61.12015
G1 X124.51 Y122.721 E61.13087
G1 X124.557 Y122.25 E61.14662
G1 X124.51 Y121.78 E61.16233
G1 X124.416 Y121.47 E61.1731
G1 X124.415 Y98.53 E61.93609
G1 X124.51 Y98.221 E61.94684
G1 X124.557 Y97.75 E61.96259
G1 X124.51 Y97.28 E61.9783
G1 X124.416 Y96.971 E61.98904
G1 X124.417 Y96.157 E62.01611
G1 X124.364 Y96.059 E62.01982
G1 X124.17 Y95.702 E62.03333
G1 X123.968 Y95.64 E62.04036
G1 X123.779 Y95.583 E62.04692
G1 X123.166 Y95.585 E62.06731
G1 X123.007 Y95.507 E62.0732
G1 X122.62 Y95.39 E62.08665
G1 X122.15 Y95.343 E62.10236
G1 X121.68 Y95.39 E62.11807
G1 X121.228 Y95.527 E62.13378
G1 X121.123 Y95.584 E62.13775
G1 X98.765 Y95.584 E62.88138
G1 X98.606 Y95.507 E62.88726
G1 X98.22 Y95.39 E62.90068
G1 X97.75 Y95.343 E62.91639
G1 X97.28 Y95.39 E62.9321
G1 X96.828 Y95.527 E62.9478
G1 X96.723 Y95.584 E62.95178
G1 X96.158 Y95.583 E62.97057
G1 X95.632 Y95.866 E62.99044
G1 X95.583 Y96.495 E63.01142
G1 X95.584 Y96.736 E63.01944
G0 F8250 X95.985 Y96.827
;TYPE:WALL-OUTER
G1 F1500 X95.881 Y97.04 E63.02732
G1 X95.784 Y97.359 E63.03841
G1 X95.745 Y97.75 E63.05148
G1 X95.784 Y98.141 E63.06455
G1 X95.898 Y98.517 E63.07762
G1 X95.984 Y98.676 E63.08363
G1 X95.984 Y121.327 E63.837
G1 X95.881 Y121.54 E63.84487
G1 X95.784 Y121.859 E63.85596
G1 X95.745 Y122.25 E63.86903
G1 X95.784 Y122.641 E63.8821
G1 X95.898 Y123.017 E63.89517
G1 X95.984 Y123.176 E63.90118
G1 X95.983 Y123.741 E63.91997
G1 X96.115 Y123.986 E63.92923
G1 X96.509 Y124.017 E63.94237
G1 X96.828 Y124.015 E63.95298
G1 X97.075 Y124.129 E63.96203
G1 X97.358 Y124.216 E63.97188
G1 X97.75 Y124.255 E63.98498
G1 X98.141 Y124.216 E63.99805
G1 X98.517 Y124.102 E64.01112
G1 X98.676 Y124.016 E64.01713
G1 X121.228 Y124.016 E64.76721
G1 X121.476 Y124.129 E64.77628
G1 X121.758 Y124.216 E64.78609
G1 X122.15 Y124.255 E64.7992
G1 X122.541 Y124.216 E64.81227
G1 X122.917 Y124.102 E64.82533
G1 X123.076 Y124.016 E64.83135
G1 X123.741 Y124.017 E64.85346
G1 X123.975 Y123.891 E64.8623
G1 X124.017 Y123.658 E64.87018
G1 X124.015 Y122.97 E64.89306
G1 X124.116 Y122.642 E64.90448
G1 X124.155 Y122.25 E64.91758
G1 X124.116 Y121.859 E64.93065
G1 X124.016 Y121.531 E64.94205
G1 X124.015 Y98.471 E65.70903
G1 X124.116 Y98.142 E65.72048
G1 X124.155 Y97.75 E65.73358
G1 X124.116 Y97.359 E65.74665
G1 X124.016 Y97.032 E65.75802
G1 X124.017 Y96.258 E65.78377
G1 X123.897 Y96.037 E65.79213
G1 X123.72 Y95.983 E65.79829
G1 X123.074 Y95.985 E65.81977
G1 X122.86 Y95.881 E65.82769
G1 X122.541 Y95.784 E65.83878
G1 X122.15 Y95.745 E65.85184
G1 X121.759 Y95.784 E65.86491
G1 X121.383 Y95.898 E65.87798
G1 X121.224 Y95.984 E65.88399
G1 X98.673 Y95.984 E66.63404
G1 X98.46 Y95.881 E66.64191
G1 X98.141 Y95.784 E66.653
G1 X97.75 Y95.745 E66.66607
G1 X97.359 Y95.784 E66.67914
G1 X96.983 Y95.898 E66.69221
G1 X96.824 Y95.984 E66.69822
G1 X96.259 Y95.983 E66.71701
G1 X96.014 Y96.115 E66.72627
G1 X95.983 Y96.509 E66.73941
G1 X95.985 Y96.827 E66.74999
G0 F8250 X95.898 Y97.006
G0 X95.503 Y96.812
G1 F1500 E60.24999
G0 F8250 X95.449 Y96.786
G0 X95.303 Y97.75
G0 X95.303 Y122.25
G0 X95.545 Y123.851
G0 X95.845 Y124.401
G0 X97.559 Y124.667
G0 X124.688 Y124.689
G0 X124.758 Y124.759
;TYPE:WALL-INNER
G1 F1500 E66.74999
G1 X123.955 Y124.759 E66.7767
G1 X123.842 Y124.759 E66.7802
G1 X123.177 Y124.759 E66.79918
G1 X123.072 Y124.759 E66.80191
G1 X122.62 Y124.759 E66.81003
G1 X122.15 Y124.759 E66.81494
G1 X121.678 Y124.759 E66.81986
G1 X121.334 Y124.759 E66.82559
G1 X121.141 Y124.759 E66.83036
G1 X98.777 Y124.759 E67.4698
G1 X98.672 Y124.759 E67.47252
G1 X98.22 Y124.759 E67.48064
G1 X97.75 Y124.759 E67.48555
G1 X97.279 Y124.759 E67.49047
G1 X96.932 Y124.759 E67.49626
G1 X96.742 Y124.759 E67.50096
G1 X96.495 Y124.759 E67.50802
G1 X95.866 Y124.759 E67.52723
G1 X95.86 Y124.759 E67.52743
G1 X95.241 Y124.758 E67.54802
G1 X95.241 Y123.955 E67.57473
