;FLAVOR:Marlin
;TIME:3497
;Filament used: 2.92515m
;Layer height: 0.2
;MINX:40.679
;MINY:34.419
;MINZ:0.3
;MAXX:184.846
;MAXY:177.789
;MAXZ:9.9
;Generated with Cura_SteamEngine 4.8.0
M140 S80
M105
M190 S80
M104 S230
M105
M109 S230
M82 ;absolute extrusion mode
G28 ;Home
G1 Z15.0 F2000 ;Move the platform
G92 E0
G92 E0
G1 F1500 E-6.5
;LAYER_COUNT:49
;LAYER:0
M107
M204 S1000
G0 F7500 X45.108 Y49.03 Z0.3
;TYPE:SKIRT
G1 F1500 E0
G1 X55.741 Y38.396 E1.5005
G1 X56.221 Y37.928 E1.56739
G1 X56.652 Y37.563 E1.62375
G1 X57.131 Y37.262 E1.6802
G1 X57.647 Y37.032 E1.73657
G1 X58.191 Y36.877 E1.79301
G1 X58.751 Y36.801 E1.8494
G1 X59.317 Y36.804 E1.90587
G1 X59.876 Y36.886 E1.96225
G1 X60.418 Y37.047 E2.01866
G1 X60.932 Y37.282 E2.07506
G1 X61.407 Y37.588 E2.13144
G1 X61.758 Y37.882 E2.17712
G1 X61.987 Y38.098 E2.20853
G1 X181.607 Y157.717 E19.08814
G1 X182.075 Y158.198 E19.1551
G1 X182.44 Y158.63 E19.21153
G1 X182.74 Y159.109 E19.26793
G1 X182.969 Y159.625 E19.32425
G1 X183.124 Y160.169 E19.3807
G1 X183.2 Y160.729 E19.43708
G1 X183.196 Y161.295 E19.49356
G1 X183.113 Y161.854 E19.54995
G1 X182.952 Y162.396 E19.60637
G1 X182.716 Y162.909 E19.66271
G1 X182.41 Y163.385 E19.71917
G1 X182.12 Y163.729 E19.76407
G1 X181.91 Y163.952 E19.79463
G1 X171.276 Y174.588 E21.29535
G1 X170.785 Y175.066 E21.36372
G1 X170.353 Y175.431 E21.42015
G1 X169.874 Y175.731 E21.47655
G1 X169.358 Y175.961 E21.53292
G1 X168.814 Y176.115 E21.58933
G1 X168.254 Y176.192 E21.64573
G1 X167.688 Y176.188 E21.70221
G1 X167.134 Y176.106 E21.75809
G1 X166.87 Y176.048 E21.78506
G1 X164.148 Y175.484 E22.06243
G1 X161.471 Y175.007 E22.33375
G1 X158.82 Y174.612 E22.60119
G1 X156.074 Y174.283 E22.87715
G1 X153.41 Y174.038 E23.14408
G1 X151.948 Y173.945 E23.29026
G1 X151.247 Y173.89 E23.36042
G1 X150.688 Y173.806 E23.41682
G1 X150.146 Y173.644 E23.47327
G1 X149.633 Y173.407 E23.52965
G1 X149.158 Y173.101 E23.58603
G1 X148.818 Y172.814 E23.63043
G1 X148.579 Y172.589 E23.66318
G1 X141.923 Y165.936 E24.6022
G1 X141.453 Y165.453 E24.66945
G1 X141.089 Y165.021 E24.72581
G1 X140.695 Y164.355 E24.80302
G1 X140.551 Y164.008 E24.84051
G1 X140.129 Y162.841 E24.96433
G1 X139.167 Y160.294 E25.236
G1 X138.139 Y157.789 E25.50618
G1 X137.05 Y155.334 E25.77416
G1 X135.867 Y152.861 E26.04769
G1 X134.62 Y150.431 E26.32022
G1 X133.316 Y148.058 E26.5904
G1 X131.938 Y145.711 E26.86196
G1 X130.519 Y143.443 E27.12891
G1 X128.992 Y141.149 E27.40388
G1 X127.424 Y138.933 E27.67475
G1 X125.81 Y136.784 E27.94292
G1 X124.096 Y134.629 E28.21766
G1 X122.374 Y132.588 E28.48411
G1 X120.555 Y130.551 E28.75661
G1 X118.673 Y128.558 E29.03012
G1 X117.713 Y127.583 E29.16665
G1 X92.425 Y102.295 E32.73506
G1 X90.426 Y100.353 E33.01315
G1 X88.459 Y98.546 E33.27967
G1 X86.387 Y96.749 E33.55333
G1 X84.291 Y95.03 E33.82381
G1 X82.113 Y93.346 E34.09852
G1 X79.943 Y91.765 E34.36641
G1 X77.722 Y90.242 E34.63513
G1 X75.414 Y88.751 E34.90929
G1 X73.091 Y87.343 E35.18034
G1 X70.74 Y86.006 E35.4502
G1 X68.347 Y84.735 E35.72057
G1 X65.933 Y83.538 E35.98942
G1 X63.419 Y82.381 E36.26556
G1 X60.954 Y81.328 E36.53302
G1 X58.387 Y80.315 E36.80838
G1 X56.248 Y79.544 E37.03525
G1 X55.936 Y79.427 E37.0685
G1 X55.422 Y79.192 E37.12489
G1 X54.946 Y78.886 E37.18136
G1 X54.609 Y78.605 E37.22514
G1 X54.38 Y78.391 E37.25641
G1 X54.282 Y78.296 E37.27003
G1 X47.698 Y71.711 E38.19917
G1 X47.228 Y71.227 E38.26649
G1 X46.864 Y70.794 E38.32293
G1 X46.565 Y70.315 E38.37928
G1 X46.336 Y69.798 E38.4357
G1 X46.182 Y69.254 E38.49211
G1 X46.107 Y68.705 E38.5474
G1 X46.056 Y67.94 E38.6239
G1 X45.838 Y65.158 E38.90234
G1 X45.553 Y62.497 E39.16937
G1 X45.184 Y59.774 E39.44356
G1 X44.747 Y57.116 E39.71234
G1 X44.226 Y54.432 E39.98515
G1 X44.129 Y53.997 E40.02962
G1 X43.884 Y52.821 E40.14948
G1 X43.808 Y52.261 E40.20587
G1 X43.812 Y51.695 E40.26234
G1 X43.896 Y51.136 E40.31875
G1 X44.057 Y50.594 E40.37516
G1 X44.293 Y50.081 E40.43151
G1 X44.6 Y49.606 E40.48794
G1 X44.895 Y49.255 E40.53369
G1 X45.108 Y49.03 E40.56461
G0 F7500 X45.467 Y49.234
G1 F1500 X56.02 Y38.682 E42.05368
G1 X56.5 Y38.214 E42.12057
G1 X56.911 Y37.87 E42.17405
G1 X57.368 Y37.59 E42.22753
G1 X57.862 Y37.381 E42.28105
G1 X58.382 Y37.248 E42.3346
G1 X58.915 Y37.193 E42.38807
G1 X59.451 Y37.219 E42.44161
G1 X59.977 Y37.323 E42.49512
G1 X60.481 Y37.505 E42.54858
G1 X60.953 Y37.76 E42.60211
G1 X61.483 Y38.173 E42.66916
G1 X61.788 Y38.462 E42.71108
G1 X181.32 Y157.996 E59.57848
G1 X181.788 Y158.477 E59.64544
G1 X182.133 Y158.888 E59.69899
G1 X182.412 Y159.345 E59.75241
G1 X182.62 Y159.84 E59.80599
G1 X182.753 Y160.359 E59.85945
G1 X182.807 Y160.893 E59.913
G1 X182.781 Y161.428 E59.96645
G1 X182.676 Y161.954 E60.01997
G1 X182.493 Y162.459 E60.07356
G1 X182.238 Y162.93 E60.127
G1 X181.829 Y163.455 E60.19341
G1 X181.544 Y163.756 E60.23477
G1 X170.997 Y174.302 E61.72299
G1 X170.506 Y174.78 E61.79137
G1 X170.095 Y175.124 E61.84485
G1 X169.637 Y175.403 E61.89836
G1 X169.143 Y175.612 E61.95188
G1 X168.624 Y175.745 E62.00534
G1 X168.09 Y175.799 E62.05889
G1 X167.555 Y175.773 E62.11234
G1 X167.22 Y175.716 E62.14625
G1 X166.907 Y175.647 E62.17823
G1 X164.229 Y175.092 E62.45112
G1 X161.569 Y174.618 E62.72071
G1 X158.825 Y174.209 E62.99754
G1 X156.157 Y173.889 E63.26566
G1 X153.435 Y173.639 E63.5384
G1 X151.979 Y173.546 E63.68398
G1 X151.278 Y173.491 E63.75414
G1 X150.748 Y173.409 E63.80765
G1 X150.236 Y173.25 E63.86115
G1 X149.754 Y173.016 E63.91461
G1 X149.311 Y172.713 E63.96816
G1 X149.092 Y172.523 E63.99709
G1 X148.775 Y172.223 E64.04064
G1 X142.21 Y165.657 E64.96711
G1 X141.74 Y165.174 E65.03435
G1 X141.396 Y164.762 E65.08791
G1 X141.058 Y164.185 E65.15463
G1 X140.928 Y163.872 E65.18845
G1 X140.523 Y162.753 E65.30719
G1 X139.535 Y160.137 E65.58621
G1 X138.516 Y157.654 E65.85402
G1 X137.399 Y155.136 E66.12888
G1 X136.226 Y152.684 E66.40009
G1 X134.969 Y150.234 E66.67485
G1 X133.669 Y147.868 E66.94422
G1 X132.289 Y145.518 E67.21615
G1 X130.848 Y143.215 E67.48722
G1 X129.319 Y140.919 E67.76246
G1 X127.755 Y138.708 E68.03269
G1 X126.128 Y136.54 E68.30316
G1 X124.415 Y134.388 E68.57761
G1 X122.659 Y132.307 E68.8493
G1 X120.846 Y130.276 E69.12095
G1 X118.966 Y128.286 E69.39411
G1 X118.016 Y127.322 E69.52916
G1 X92.666 Y101.972 E73.10632
G1 X90.729 Y100.09 E73.37579
G1 X88.708 Y98.233 E73.64965
G1 X86.618 Y96.42 E73.92572
G1 X84.544 Y94.719 E74.19337
G1 X82.371 Y93.039 E74.46743
G1 X80.175 Y91.44 E74.73848
G1 X77.943 Y89.909 E75.00855
G1 X75.633 Y88.416 E75.283
G1 X73.301 Y87.003 E75.55507
G1 X70.92 Y85.649 E75.82837
G1 X68.548 Y84.389 E76.09637
G1 X66.058 Y83.154 E76.3737
G1 X63.608 Y82.027 E76.64279
G1 X61.109 Y80.959 E76.91396
G1 X58.543 Y79.947 E77.18919
G1 X56.34 Y79.152 E77.42288
G1 X56.076 Y79.053 E77.45101
G1 X55.589 Y78.828 E77.50454
G1 X55.141 Y78.533 E77.55806
G1 X54.882 Y78.312 E77.59204
G1 X54.653 Y78.098 E77.62331
G1 X54.565 Y78.013 E77.63552
G1 X47.985 Y71.432 E78.5641
G1 X47.515 Y70.948 E78.63141
G1 X47.171 Y70.536 E78.68497
G1 X46.892 Y70.078 E78.73848
G1 X46.685 Y69.584 E78.79192
G1 X46.553 Y69.064 E78.84546
G1 X46.506 Y68.679 E78.88416
G1 X46.452 Y67.866 E78.96546
G1 X46.239 Y65.155 E79.2368
G1 X45.945 Y62.401 E79.51315
G1 X45.582 Y59.726 E79.78251
G1 X45.141 Y57.047 E80.05342
G1 X44.621 Y54.367 E80.32582
G1 X44.521 Y53.915 E80.37201
G1 X44.276 Y52.739 E80.49187
G1 X44.206 Y52.208 E80.54531
G1 X44.215 Y51.671 E80.5989
G1 X44.305 Y51.143 E80.65235
G1 X44.472 Y50.633 E80.70589
G1 X44.712 Y50.154 E80.75935
G1 X45.186 Y49.53 E80.83754
G1 X45.467 Y49.234 E80.87827
G0 F7500 X45.75 Y49.517
G1 F1500 X56.299 Y38.969 E82.36677
G1 X56.779 Y38.501 E82.43366
G1 X57.168 Y38.178 E82.48412
G1 X57.603 Y37.92 E82.53458
G1 X58.073 Y37.733 E82.58505
G1 X58.566 Y37.623 E82.63545
G1 X59.071 Y37.593 E82.68593
G1 X59.574 Y37.642 E82.73636
G1 X60.063 Y37.769 E82.78677
G1 X60.526 Y37.972 E82.83721
G1 X60.951 Y38.246 E82.88767
G1 X61.209 Y38.464 E82.92137
G1 X61.505 Y38.745 E82.9621
G1 X181.034 Y158.274 E99.82893
G1 X181.502 Y158.755 E99.89589
G1 X181.824 Y159.145 E99.94636
G1 X182.082 Y159.58 E99.99682
G1 X182.268 Y160.05 E100.04726
G1 X182.377 Y160.543 E100.09764
G1 X182.407 Y161.048 E100.14811
G1 X182.358 Y161.551 E100.19854
G1 X182.23 Y162.04 E100.24898
G1 X182.026 Y162.503 E100.29946
G1 X181.752 Y162.928 E100.34992
G1 X181.538 Y163.181 E100.38298
G1 X181.261 Y163.473 E100.42314
G1 X170.718 Y174.015 E101.9108
G1 X170.227 Y174.493 E101.97918
G1 X169.838 Y174.816 E102.02963
G1 X169.403 Y175.073 E102.08004
G1 X168.933 Y175.259 E102.13048
G1 X168.44 Y175.369 E102.18088
G1 X167.935 Y175.399 E102.23136
G1 X167.306 Y175.325 E102.29455
G1 X166.993 Y175.256 E102.32653
G1 X164.308 Y174.699 E102.60015
G1 X161.627 Y174.222 E102.87186
G1 X158.895 Y173.815 E103.14747
G1 X156.205 Y173.492 E103.41781
G1 X153.462 Y173.24 E103.69266
G1 X152.011 Y173.147 E103.83773
G1 X151.31 Y173.092 E103.90789
G1 X150.81 Y173.013 E103.9584
G1 X150.33 Y172.856 E104.0088
G1 X149.88 Y172.625 E104.05927
G1 X149.367 Y172.232 E104.12375
G1 X149.058 Y171.94 E104.16617
G1 X142.497 Y165.378 E105.09207
G1 X142.027 Y164.895 E105.15931
G1 X141.704 Y164.506 E105.20976
G1 X141.42 Y164.016 E105.26628
G1 X141.304 Y163.736 E105.29652
G1 X140.897 Y162.611 E105.41589
G1 X139.908 Y159.992 E105.69523
G1 X138.875 Y157.476 E105.96661
G1 X137.774 Y154.993 E106.23763
G1 X136.579 Y152.493 E106.51411
G1 X135.34 Y150.08 E106.78477
G1 X134.006 Y147.653 E107.0611
G1 X132.63 Y145.309 E107.33231
G1 X131.177 Y142.987 E107.60562
G1 X129.662 Y140.712 E107.87835
G1 X128.068 Y138.459 E108.15373
G1 X126.445 Y136.297 E108.42348
G1 X124.719 Y134.127 E108.70014
G1 X122.964 Y132.048 E108.97162
G1 X121.134 Y129.998 E109.24581
G1 X119.275 Y128.03 E109.51594
G1 X118.282 Y127.022 E109.65712
G1 X92.949 Y101.689 E113.23188
G1 X90.977 Y99.774 E113.50616
G1 X88.978 Y97.937 E113.77705
G1 X86.889 Y96.125 E114.05298
G1 X84.798 Y94.41 E114.32282
G1 X82.622 Y92.728 E114.59725
G1 X80.398 Y91.108 E114.87179
G1 X78.141 Y89.559 E115.14493
G1 X75.867 Y88.091 E115.415
G1 X73.5 Y86.656 E115.6912
G1 X71.125 Y85.306 E115.96378
G1 X68.692 Y84.013 E116.2387
G1 X66.266 Y82.81 E116.5089
G1 X63.77 Y81.661 E116.78307
G1 X61.247 Y80.583 E117.05683
G1 X58.66 Y79.563 E117.3343
G1 X56.48 Y78.777 E117.56553
G1 X56.216 Y78.678 E117.59367
G1 X55.759 Y78.464 E117.64402
G1 X55.155 Y78.02 E117.71882
G1 X54.848 Y77.731 E117.76089
G1 X48.272 Y71.153 E118.68897
G1 X47.802 Y70.669 E118.75629
G1 X47.48 Y70.28 E118.80668
G1 X47.223 Y69.845 E118.85709
G1 X47.037 Y69.374 E118.90762
G1 X46.905 Y68.652 E118.98085
G1 X46.851 Y67.839 E119.06215
G1 X46.637 Y65.114 E119.33489
G1 X46.345 Y62.376 E119.60964
G1 X45.979 Y59.679 E119.88122
G1 X45.529 Y56.943 E120.15788
G1 X45.011 Y54.276 E120.42897
G1 X44.912 Y53.834 E120.47417
G1 X44.667 Y52.658 E120.59403
G1 X44.604 Y52.156 E120.64451
G1 X44.62 Y51.651 E120.69492
G1 X44.715 Y51.154 E120.74541
G1 X44.888 Y50.679 E120.79585
G1 X45.133 Y50.237 E120.84628
G1 X45.476 Y49.805 E120.90132
G1 X45.75 Y49.517 E120.94098
G1 F1500 E114.44098
;MESH:main-case-cover-left-right-connector.stl
G0 F7500 X48.167 Y51.935
G0 X56.358 Y46.146
G0 X57.003 Y45.773
G0 X57.639 Y45.506
G0 X58.892 Y45.297
G0 X58.87 Y45.394
;TYPE:WALL-OUTER
G1 F1500 E120.94098
G1 X58.801 Y45.38 E120.94801
G1 X58.253 Y45.398 E121.00272
G1 X57.651 Y45.544 E121.06453
G1 X57.02 Y45.808 E121.13278
G1 X56.379 Y46.179 E121.20668
G1 X55.751 Y46.642 E121.28453
G1 X55.157 Y47.179 E121.36443
G1 X54.619 Y47.773 E121.44439
G1 X54.151 Y48.41 E121.52326
G1 X53.787 Y49.041 E121.59595
G1 X53.523 Y49.671 E121.66411
G1 X53.377 Y50.274 E121.72601
G1 X53.359 Y50.828 E121.78132
G1 X53.478 Y51.315 E121.83134
G1 X53.704 Y51.65 E121.87167
G1 X53.735 Y51.704 E121.87788
G1 X54.133 Y51.971 E121.9257
G1 X54.621 Y52.09 E121.97582
G1 X55.175 Y52.072 E122.03113
G1 X55.777 Y51.926 E122.09294
G1 X56.407 Y51.662 E122.16109
G1 X57.048 Y51.292 E122.23494
G1 X57.676 Y50.829 E122.31279
G1 X58.27 Y50.291 E122.39276
G1 X58.808 Y49.697 E122.47273
G1 X59.27 Y49.07 E122.55044
G1 X59.64 Y48.429 E122.62429
G1 X59.905 Y47.798 E122.69258
G1 X60.05 Y47.197 E122.75427
G1 X60.068 Y46.644 E122.80947
G1 X59.967 Y46.221 E122.85287
G1 X59.946 Y46.151 E122.86016
G1 X59.728 Y45.823 E122.89946
G1 X59.683 Y45.761 E122.9071
G1 X59.352 Y45.537 E122.94698
G1 X59.289 Y45.499 E122.95432
G1 X58.87 Y45.394 E122.99742
G0 F7500 X58.801 Y45.38
G0 X58.671 Y45.384
G0 X58.658 Y44.944
G1 F1500 E116.49742
G0 F7500 X59.76 Y45.801
G0 X60.005 Y46.211
G0 X60.107 Y46.64
G0 X60.089 Y47.202
G0 X57.481 Y61.372
G0 X55.023 Y67.298
G0 X54.895 Y67.719
G0 X54.852 Y68.155
G0 X55.18 Y69.433
G0 X55.263 Y69.378
G1 F1500 E122.99742
G1 X55.537 Y69.711 E123.04045
G1 X55.87 Y69.985 E123.08348
G1 X56.25 Y70.189 E123.12651
G1 X56.664 Y70.313 E123.16964
G1 X57.093 Y70.356 E123.21266
G1 X57.522 Y70.313 E123.25568
G1 X57.935 Y70.189 E123.2987
G1 X58.316 Y69.985 E123.34183
G1 X58.649 Y69.711 E123.38486
G1 X58.923 Y69.378 E123.42789
G1 X59.127 Y68.997 E123.47101
G1 X59.251 Y68.584 E123.51403
G1 X59.294 Y68.155 E123.55705
G1 X59.251 Y67.726 E123.60008
G1 X59.127 Y67.313 E123.6431
G1 X58.923 Y66.932 E123.68622
G1 X58.649 Y66.599 E123.72925
G1 X58.316 Y66.325 E123.77228
G1 X57.935 Y66.121 E123.81541
G1 X57.522 Y65.996 E123.85846
G1 X57.093 Y65.954 E123.90147
G1 X56.664 Y65.996 E123.94448
G1 X56.25 Y66.121 E123.98763
G1 X55.87 Y66.325 E124.03067
G1 X55.537 Y66.599 E124.0737
G1 X55.263 Y66.932 E124.11673
G1 X55.059 Y67.313 E124.15985
G1 X54.934 Y67.726 E124.2029
G1 X54.892 Y68.155 E124.24591
G1 X54.934 Y68.584 E124.28892
G1 X55.059 Y68.997 E124.33198
G1 X55.263 Y69.378 E124.3751
G0 F7500 X55.39 Y69.532
G0 X55.05 Y69.811
G1 F1500 E117.8751
G0 F7500 X60.007 Y72.683
G0 X64.406 Y68.297
G0 X151.703 Y155.594
G0 X146.518 Y160.792
G0 X150.567 Y164.82
G0 X150.622 Y164.737
G1 F1500 E124.3751
G1 X151.003 Y164.941 E124.41823
G1 X151.416 Y165.066 E124.46128
G1 X151.845 Y165.108 E124.50429
G1 X152.274 Y165.066 E124.5473
G1 X152.687 Y164.941 E124.59036
G1 X153.068 Y164.737 E124.63348
G1 X153.401 Y164.463 E124.67651
G1 X153.675 Y164.13 E124.71954
G1 X153.879 Y163.75 E124.76257
G1 X154.004 Y163.336 E124.80572
G1 X154.046 Y162.907 E124.84873
G1 X154.004 Y162.478 E124.89174
G1 X153.879 Y162.065 E124.9348
G1 X153.675 Y161.684 E124.97792
G1 X153.401 Y161.351 E125.02095
G1 X153.068 Y161.077 E125.06398
G1 X152.687 Y160.873 E125.1071
G1 X152.274 Y160.749 E125.15013
G1 X151.845 Y160.706 E125.19315
G1 X151.416 Y160.749 E125.23617
G1 X151.003 Y160.873 E125.2792
G1 X150.622 Y161.077 E125.32232
G1 X150.289 Y161.351 E125.36535
G1 X150.015 Y161.684 E125.40838
G1 X149.811 Y162.065 E125.4515
G1 X149.686 Y162.478 E125.49456
G1 X149.644 Y162.907 E125.53757
G1 X149.686 Y163.336 E125.58058
G1 X149.811 Y163.75 E125.62373
G1 X150.015 Y164.13 E125.66676
G1 X150.289 Y164.463 E125.70979
G1 X150.622 Y164.737 E125.75282
G0 F7500 X150.798 Y164.831
G0 X150.59 Y165.219
G1 F1500 E119.25282
G0 F7500 X152.281 Y165.105
G0 X156.477 Y164.673
G0 X158.628 Y162.519
G0 X168.669 Y166.558
G0 X169.168 Y166.681
G0 X169.732 Y166.661
G0 X170.34 Y166.515
G0 X170.983 Y166.243
G0 X171.621 Y165.876
G0 X172.253 Y165.41
G0 X172.849 Y164.871
G0 X173.154 Y164.533
G0 X174.281 Y163.024
G0 X174.192 Y162.98
G1 F1500 E125.75282
G1 X174.456 Y162.349 E125.82107
G1 X174.601 Y161.748 E125.88276
G1 X174.621 Y161.193 E125.93817
G1 X174.518 Y160.772 E125.98142
G1 X174.497 Y160.703 E125.98862
G1 X174.279 Y160.374 E126.028
G1 X174.234 Y160.312 E126.03564
G1 X173.904 Y160.089 E126.07538
G1 X173.841 Y160.05 E126.08278
G1 X173.421 Y159.946 E126.12595
G1 X173.352 Y159.932 E126.13297
G1 X172.867 Y159.946 E126.18139
G1 X172.8 Y159.951 E126.18809
G1 X172.202 Y160.095 E126.24947
G1 X171.571 Y160.36 E126.31775
G1 X170.93 Y160.73 E126.3916
G1 X170.302 Y161.193 E126.46946
G1 X169.709 Y161.73 E126.54928
G1 X169.171 Y162.324 E126.62925
G1 X168.708 Y162.952 E126.7071
G1 X168.338 Y163.593 E126.78095
G1 X168.074 Y164.224 E126.8492
G1 X167.946 Y164.755 E126.9037
G1 X167.928 Y164.822 E126.91062
G1 X167.91 Y165.379 E126.96623
G1 X168.029 Y165.867 E127.01635
G1 X168.255 Y166.201 E127.05659
G1 X168.286 Y166.255 E127.0628
G1 X168.685 Y166.522 E127.1107
G1 X169.172 Y166.642 E127.16075
G1 X169.727 Y166.622 E127.21616
