;FLAVOR:Marlin
;TIME:1897
;Filament used: 1.72669m
;Layer height: 0.2
;MINX:80.2
;MINY:80.167
;MINZ:0.3
;MAXX:139.8
;MAXY:139.833
;MAXZ:7.5
;Generated with Cura_SteamEngine 4.8.0
M140 S80
M105
M190 S80
M104 S230
M105
M109 S230
M82 ;absolute extrusion mode
G28 ;Home
G1 Z15.0 F2000 ;Move the platform
G92 E0
G92 E0
G1 F1500 E-6.5
;LAYER_COUNT:37
;LAYER:0
M107
M204 S1000
G0 F7500 X95.752 Y83.484 Z0.3
;TYPE:SKIRT
G1 F1500 E0
G1 X96.367 Y82.847 E0.08835
G1 X97.037 Y82.269 E0.17664
G1 X97.756 Y81.753 E0.26495
G1 X98.519 Y81.304 E0.35328
G1 X99.32 Y80.926 E0.44166
G1 X100.151 Y80.622 E0.52995
G1 X101.006 Y80.394 E0.61824
G1 X101.879 Y80.244 E0.70663
G1 X103.101 Y80.167 E0.8288
G1 X118.063 Y80.167 E2.32172
G1 X118.947 Y80.207 E2.41001
G1 X119.824 Y80.327 E2.49834
G1 X120.687 Y80.525 E2.58668
G1 X121.528 Y80.8 E2.67497
G1 X122.341 Y81.15 E2.76329
G1 X123.12 Y81.572 E2.85169
G1 X123.856 Y82.063 E2.93997
G1 X124.546 Y82.618 E3.02833
G1 X125.183 Y83.233 E3.11668
G1 X125.761 Y83.903 E3.20497
G1 X126.277 Y84.622 E3.29328
G1 X126.726 Y85.385 E3.38161
G1 X127.104 Y86.186 E3.46999
G1 X127.408 Y87.017 E3.55828
G1 X127.636 Y87.872 E3.64657
G1 X127.786 Y88.745 E3.73496
G1 X127.863 Y89.967 E3.85713
G1 X127.863 Y99.085 E4.76693
G1 X130 Y99.085 E4.98016
G1 X130.884 Y99.125 E5.06846
G1 X131.761 Y99.245 E5.15678
G1 X132.624 Y99.443 E5.24513
G1 X133.465 Y99.718 E5.33341
G1 X134.278 Y100.068 E5.42173
G1 X135.057 Y100.49 E5.51014
G1 X135.793 Y100.981 E5.59842
G1 X136.483 Y101.536 E5.68677
G1 X137.12 Y102.151 E5.77512
G1 X137.698 Y102.821 E5.86341
G1 X138.214 Y103.54 E5.95172
G1 X138.663 Y104.303 E6.04006
G1 X139.041 Y105.104 E6.12843
G1 X139.345 Y105.935 E6.21672
G1 X139.573 Y106.79 E6.30502
G1 X139.723 Y107.663 E6.3934
G1 X139.8 Y108.885 E6.51558
G1 X139.8 Y128.894 E8.51208
G1 X139.76 Y129.778 E8.60038
G1 X139.64 Y130.655 E8.6887
G1 X139.442 Y131.518 E8.77705
G1 X139.167 Y132.359 E8.86534
G1 X138.817 Y133.172 E8.95366
G1 X138.395 Y133.951 E9.04206
G1 X137.904 Y134.687 E9.13034
G1 X137.349 Y135.377 E9.21869
G1 X136.734 Y136.014 E9.30704
G1 X136.064 Y136.592 E9.39533
G1 X135.345 Y137.108 E9.48364
G1 X134.582 Y137.557 E9.57198
G1 X133.781 Y137.935 E9.66035
G1 X132.95 Y138.239 E9.74864
G1 X132.095 Y138.467 E9.83694
G1 X131.222 Y138.617 E9.92532
G1 X130 Y138.694 E10.0475
G1 X122.691 Y138.694 E10.77679
G1 X121.887 Y139.074 E10.86552
G1 X121.056 Y139.378 E10.95382
G1 X120.201 Y139.606 E11.04211
G1 X119.328 Y139.756 E11.13049
G1 X118.106 Y139.833 E11.25267
G1 X103.04 Y139.833 E12.75596
G1 X102.156 Y139.793 E12.84425
G1 X101.279 Y139.673 E12.93258
G1 X100.416 Y139.475 E13.02093
G1 X99.575 Y139.2 E13.10921
G1 X98.762 Y138.85 E13.19753
G1 X98.474 Y138.694 E13.23021
G1 X90 Y138.694 E14.07575
G1 X89.116 Y138.654 E14.16405
G1 X88.239 Y138.534 E14.25237
G1 X87.376 Y138.336 E14.34072
G1 X86.535 Y138.061 E14.42901
G1 X85.722 Y137.711 E14.51733
G1 X84.943 Y137.289 E14.60573
G1 X84.207 Y136.798 E14.69401
G1 X83.517 Y136.243 E14.78237
G1 X82.88 Y135.628 E14.87071
G1 X82.302 Y134.958 E14.95901
G1 X81.786 Y134.239 E15.04731
G1 X81.337 Y133.476 E15.13565
G1 X80.959 Y132.675 E15.22402
G1 X80.655 Y131.844 E15.31232
G1 X80.427 Y130.989 E15.40061
G1 X80.277 Y130.116 E15.48899
G1 X80.2 Y128.894 E15.61117
G1 X80.2 Y108.885 E17.60767
G1 X80.24 Y108.001 E17.69597
G1 X80.36 Y107.124 E17.78429
G1 X80.558 Y106.261 E17.87264
G1 X80.833 Y105.42 E17.96093
G1 X81.183 Y104.607 E18.04925
G1 X81.605 Y103.828 E18.13765
G1 X82.096 Y103.092 E18.22593
G1 X82.651 Y102.402 E18.31429
G1 X83.266 Y101.765 E18.40264
G1 X83.936 Y101.187 E18.49093
G1 X84.655 Y100.671 E18.57923
G1 X85.418 Y100.222 E18.66757
G1 X86.219 Y99.844 E18.75595
G1 X87.05 Y99.54 E18.84424
G1 X87.905 Y99.312 E18.93253
G1 X88.778 Y99.162 E19.02092
G1 X90 Y99.085 E19.14309
G1 X93.301 Y99.085 E19.47246
G1 X93.301 Y89.967 E20.38226
G1 X93.341 Y89.083 E20.47056
G1 X93.461 Y88.206 E20.55888
G1 X93.659 Y87.343 E20.64723
G1 X93.934 Y86.502 E20.73552
G1 X94.284 Y85.689 E20.82384
G1 X94.706 Y84.91 E20.91224
G1 X95.197 Y84.174 E21.00052
G1 X95.752 Y83.484 E21.08887
G0 F7500 X96.147 Y83.642
G1 F1500 X96.76 Y83.028 E21.17545
G1 X97.426 Y82.473 E21.26195
G1 X98.14 Y81.983 E21.34836
G1 X98.897 Y81.559 E21.43493
G1 X99.69 Y81.208 E21.52146
G1 X100.511 Y80.931 E21.60792
G1 X101.355 Y80.731 E21.69446
G1 X102.213 Y80.609 E21.78094
G1 X103.101 Y80.567 E21.86964
G1 X118.063 Y80.567 E23.36256
G1 X118.929 Y80.607 E23.44906
G1 X119.788 Y80.727 E23.5356
G1 X120.632 Y80.925 E23.6221
G1 X121.454 Y81.2 E23.70859
G1 X122.247 Y81.55 E23.79508
G1 X123.005 Y81.971 E23.8816
G1 X123.72 Y82.46 E23.96803
G1 X124.388 Y83.013 E24.05456
G1 X125.002 Y83.626 E24.14113
G1 X125.557 Y84.292 E24.22763
G1 X126.047 Y85.006 E24.31404
G1 X126.471 Y85.763 E24.40061
G1 X126.822 Y86.556 E24.48714
G1 X127.099 Y87.377 E24.5736
G1 X127.299 Y88.221 E24.66015
G1 X127.421 Y89.079 E24.74662
G1 X127.463 Y89.967 E24.83532
G1 X127.463 Y99.485 E25.78503
G1 X130 Y99.485 E26.03818
G1 X130.866 Y99.525 E26.12468
G1 X131.725 Y99.645 E26.21122
G1 X132.569 Y99.843 E26.29772
G1 X133.391 Y100.118 E26.38421
G1 X134.184 Y100.468 E26.4707
G1 X134.942 Y100.889 E26.55722
G1 X135.657 Y101.378 E26.64365
G1 X136.325 Y101.931 E26.73018
G1 X136.939 Y102.544 E26.81675
G1 X137.494 Y103.21 E26.90325
G1 X137.984 Y103.924 E26.98966
G1 X138.408 Y104.681 E27.07624
G1 X138.759 Y105.474 E27.16277
G1 X139.036 Y106.295 E27.24922
G1 X139.236 Y107.139 E27.33577
G1 X139.358 Y107.997 E27.42224
G1 X139.4 Y108.885 E27.51095
G1 X139.4 Y128.894 E29.50745
G1 X139.36 Y129.76 E29.59395
G1 X139.24 Y130.619 E29.6805
G1 X139.042 Y131.463 E29.767
G1 X138.767 Y132.285 E29.85349
G1 X138.417 Y133.078 E29.93998
G1 X137.996 Y133.836 E30.02649
G1 X137.507 Y134.551 E30.11293
G1 X136.954 Y135.219 E30.19946
G1 X136.341 Y135.833 E30.28603
G1 X135.675 Y136.388 E30.37253
G1 X134.961 Y136.878 E30.45894
G1 X134.204 Y137.302 E30.54551
G1 X133.411 Y137.653 E30.63204
G1 X132.59 Y137.93 E30.7185
G1 X131.746 Y138.13 E30.80505
G1 X130.888 Y138.252 E30.89152
G1 X130 Y138.294 E30.98022
G1 X122.572 Y138.294 E31.72139
G1 X122.31 Y138.441 E31.75137
G1 X121.517 Y138.792 E31.8379
G1 X120.696 Y139.069 E31.92435
G1 X119.852 Y139.269 E32.0109
G1 X118.994 Y139.391 E32.09737
G1 X118.106 Y139.433 E32.18608
G1 X103.04 Y139.433 E33.68937
G1 X102.174 Y139.393 E33.77587
G1 X101.315 Y139.273 E33.86242
G1 X100.471 Y139.075 E33.94892
G1 X99.649 Y138.8 E34.0354
G1 X98.856 Y138.45 E34.12189
G1 X98.575 Y138.294 E34.15396
G1 X90 Y138.294 E35.00958
G1 X89.134 Y138.254 E35.09608
G1 X88.275 Y138.134 E35.18263
G1 X87.431 Y137.936 E35.26913
G1 X86.609 Y137.661 E35.35561
G1 X85.816 Y137.311 E35.4421
G1 X85.058 Y136.89 E35.52862
G1 X84.343 Y136.401 E35.61505
G1 X83.675 Y135.848 E35.70158
G1 X83.061 Y135.235 E35.78815
G1 X82.506 Y134.569 E35.87466
G1 X82.016 Y133.855 E35.96106
G1 X81.592 Y133.098 E36.04764
G1 X81.241 Y132.305 E36.13417
G1 X80.964 Y131.484 E36.22063
G1 X80.764 Y130.64 E36.30717
G1 X80.642 Y129.782 E36.39365
G1 X80.6 Y128.894 E36.48235
G1 X80.6 Y108.885 E38.47886
G1 X80.64 Y108.019 E38.56536
G1 X80.76 Y107.16 E38.6519
G1 X80.958 Y106.316 E38.7384
G1 X81.233 Y105.494 E38.82489
G1 X81.583 Y104.701 E38.91138
G1 X82.004 Y103.943 E38.9979
G1 X82.493 Y103.228 E39.08433
G1 X83.046 Y102.56 E39.17086
G1 X83.659 Y101.946 E39.25743
G1 X84.325 Y101.391 E39.34393
G1 X85.039 Y100.901 E39.43034
G1 X85.796 Y100.477 E39.51691
G1 X86.589 Y100.126 E39.60344
G1 X87.41 Y99.849 E39.6899
G1 X88.254 Y99.649 E39.77645
G1 X89.112 Y99.527 E39.86292
G1 X90 Y99.485 E39.95163
G1 X93.701 Y99.485 E40.32091
G1 X93.701 Y89.967 E41.27062
G1 X93.741 Y89.101 E41.35712
G1 X93.861 Y88.242 E41.44367
G1 X94.059 Y87.398 E41.53017
G1 X94.334 Y86.576 E41.61666
G1 X94.684 Y85.783 E41.70315
G1 X95.105 Y85.025 E41.78966
G1 X95.594 Y84.31 E41.8761
G1 X96.147 Y83.642 E41.96262
G0 F7500 X96.542 Y83.804
G1 F1500 X97.152 Y83.214 E42.0473
G1 X97.814 Y82.684 E42.13192
G1 X98.523 Y82.218 E42.21658
G1 X99.273 Y81.822 E42.3012
G1 X100.057 Y81.497 E42.38589
G1 X100.868 Y81.248 E42.47054
G1 X101.699 Y81.077 E42.55519
G1 X102.542 Y80.984 E42.63982
G1 X103.101 Y80.967 E42.69562
G1 X118.063 Y80.967 E44.18853
G1 X118.91 Y81.007 E44.27314
G1 X119.75 Y81.127 E44.35781
G1 X120.575 Y81.325 E44.44246
G1 X121.378 Y81.6 E44.52716
G1 X122.151 Y81.949 E44.61178
G1 X122.887 Y82.369 E44.69634
G1 X123.581 Y82.857 E44.78099
G1 X124.226 Y83.408 E44.86564
G1 X124.816 Y84.018 E44.95031
G1 X125.346 Y84.68 E45.03493
G1 X125.812 Y85.389 E45.11959
G1 X126.208 Y86.139 E45.20421
G1 X126.533 Y86.923 E45.2889
G1 X126.782 Y87.734 E45.37355
G1 X126.953 Y88.565 E45.4582
G1 X127.046 Y89.408 E45.54283
G1 X127.063 Y89.967 E45.59863
G1 X127.063 Y99.885 E46.58825
G1 X130 Y99.885 E46.88131
G1 X130.847 Y99.925 E46.96591
G1 X131.687 Y100.045 E47.05058
G1 X132.512 Y100.243 E47.13524
G1 X133.315 Y100.518 E47.21993
G1 X134.088 Y100.867 E47.30456
G1 X134.824 Y101.287 E47.38911
G1 X135.518 Y101.775 E47.47376
G1 X136.163 Y102.326 E47.55841
G1 X136.753 Y102.936 E47.64309
G1 X137.283 Y103.598 E47.7277
G1 X137.749 Y104.307 E47.81236
G1 X138.145 Y105.057 E47.89699
G1 X138.47 Y105.841 E47.98167
G1 X138.719 Y106.652 E48.06632
G1 X138.89 Y107.483 E48.15097
G1 X138.983 Y108.326 E48.2356
G1 X139 Y108.885 E48.2914
G1 X139 Y128.894 E50.28791
G1 X138.96 Y129.741 E50.37252
G1 X138.84 Y130.581 E50.45718
G1 X138.642 Y131.406 E50.54184
G1 X138.367 Y132.209 E50.62653
G1 X138.018 Y132.982 E50.71116
G1 X137.598 Y133.718 E50.79571
G1 X137.11 Y134.412 E50.88037
G1 X136.559 Y135.057 E50.96501
G1 X135.949 Y135.647 E51.04969
G1 X135.287 Y136.177 E51.13431
G1 X134.578 Y136.643 E51.21896
G1 X133.828 Y137.039 E51.30359
G1 X133.044 Y137.364 E51.38827
G1 X132.233 Y137.613 E51.47292
G1 X131.402 Y137.784 E51.55758
G1 X130.559 Y137.877 E51.6422
G1 X130 Y137.894 E51.69801
G1 X122.472 Y137.894 E52.44915
G1 X121.934 Y138.178 E52.50985
G1 X121.15 Y138.503 E52.59454
G1 X120.339 Y138.752 E52.67919
G1 X119.508 Y138.923 E52.76384
G1 X118.665 Y139.016 E52.84847
G1 X118.106 Y139.033 E52.90427
G1 X103.04 Y139.033 E54.40756
G1 X102.193 Y138.993 E54.49217
G1 X101.353 Y138.873 E54.57684
G1 X100.528 Y138.675 E54.66149
G1 X99.725 Y138.4 E54.74619
G1 X98.952 Y138.051 E54.83081
G1 X98.677 Y137.894 E54.86241
G1 X90 Y137.894 E55.7282
G1 X89.153 Y137.854 E55.81281
G1 X88.313 Y137.734 E55.89748
G1 X87.488 Y137.536 E55.98213
G1 X86.685 Y137.261 E56.06683
G1 X85.912 Y136.912 E56.15145
G1 X85.176 Y136.492 E56.23601
G1 X84.482 Y136.004 E56.32066
G1 X83.837 Y135.453 E56.40531
G1 X83.247 Y134.843 E56.48998
G1 X82.717 Y134.181 E56.5746
G1 X82.251 Y133.472 E56.65926
G1 X81.855 Y132.722 E56.74388
G1 X81.53 Y131.938 E56.82857
G1 X81.281 Y131.127 E56.91322
G1 X81.11 Y130.296 E56.99787
G1 X81.017 Y129.453 E57.0825
G1 X81 Y128.894 E57.1383
G1 X81 Y108.885 E59.13481
G1 X81.04 Y108.038 E59.21941
G1 X81.16 Y107.198 E59.30408
G1 X81.358 Y106.373 E59.38874
G1 X81.633 Y105.57 E59.47343
G1 X81.982 Y104.797 E59.55806
G1 X82.402 Y104.061 E59.64261
G1 X82.89 Y103.367 E59.72726
G1 X83.441 Y102.722 E59.81191
G1 X84.051 Y102.132 E59.89659
G1 X84.713 Y101.602 E59.9812
G1 X85.422 Y101.136 E60.06586
G1 X86.172 Y100.74 E60.15049
G1 X86.956 Y100.415 E60.23517
G1 X87.767 Y100.166 E60.31982
G1 X88.598 Y99.995 E60.40447
G1 X89.441 Y99.902 E60.4891
G1 X90 Y99.885 E60.5449
G1 X94.101 Y99.885 E60.9541
G1 X94.101 Y89.967 E61.94372
G1 X94.141 Y89.12 E62.02833
G1 X94.261 Y88.28 E62.113
G1 X94.459 Y87.455 E62.19765
G1 X94.734 Y86.652 E62.28235
G1 X95.083 Y85.879 E62.36697
G1 X95.503 Y85.143 E62.45153
G1 X95.991 Y84.449 E62.53618
G1 X96.542 Y83.804 E62.62083
G0 F7500 X96.388 Y84.592
G1 F1500 X96.937 Y83.97 E62.70361
G1 X97.543 Y83.404 E62.78635
G1 X98.201 Y82.899 E62.86911
G1 X98.904 Y82.46 E62.95181
G1 X99.647 Y82.091 E63.03458
G1 X100.422 Y81.795 E63.11736
G1 X101.221 Y81.575 E63.20005
G1 X102.038 Y81.433 E63.2828
G1 X103.101 Y81.367 E63.38907
G1 X118.063 Y81.367 E64.88198
G1 X118.891 Y81.407 E64.9647
G1 X119.712 Y81.527 E65.04749
G1 X120.517 Y81.725 E65.1302
G1 X121.299 Y81.999 E65.21288
G1 X122.052 Y82.348 E65.2957
G1 X122.767 Y82.768 E65.37844
G1 X123.438 Y83.254 E65.46111
G1 X124.06 Y83.803 E65.54389
G1 X124.626 Y84.409 E65.62663
G1 X125.131 Y85.067 E65.70939
G1 X125.57 Y85.77 E65.79209
G1 X125.939 Y86.513 E65.87486
G1 X126.235 Y87.288 E65.95764
G1 X126.455 Y88.087 E66.04033
G1 X126.597 Y88.904 E66.12308
G1 X126.663 Y89.967 E66.22935
G1 X126.663 Y100.285 E67.25888
G1 X130 Y100.285 E67.59185
G1 X130.828 Y100.325 E67.67456
G1 X131.649 Y100.445 E67.75735
G1 X132.454 Y100.643 E67.84007
G1 X133.236 Y100.917 E67.92275
G1 X133.989 Y101.266 E68.00556
G1 X134.704 Y101.686 E68.0883
G1 X135.375 Y102.172 E68.17097
G1 X135.997 Y102.721 E68.25375
G1 X136.563 Y103.327 E68.33649
G1 X137.068 Y103.985 E68.41926
G1 X137.507 Y104.688 E68.50196
G1 X137.876 Y105.431 E68.58473
G1 X138.172 Y106.206 E68.66751
G1 X138.392 Y107.005 E68.7502
G1 X138.534 Y107.822 E68.83294
G1 X138.6 Y108.885 E68.93922
G1 X138.6 Y128.894 E70.93572
G1 X138.56 Y129.722 E71.01844
G1 X138.44 Y130.543 E71.10123
G1 X138.242 Y131.348 E71.18394
G1 X137.968 Y132.13 E71.26662
G1 X137.619 Y132.883 E71.34943
G1 X137.199 Y133.598 E71.43218
G1 X136.713 Y134.269 E71.51485
G1 X136.164 Y134.891 E71.59763
G1 X135.558 Y135.457 E71.68037
G1 X134.9 Y135.962 E71.76313
G1 X134.197 Y136.401 E71.84583
G1 X133.454 Y136.77 E71.9286
G1 X132.679 Y137.066 E72.01138
G1 X131.88 Y137.286 E72.09407
G1 X131.063 Y137.428 E72.17682
G1 X130 Y137.494 E72.28309
G1 X122.377 Y137.494 E73.04371
G1 X122.303 Y137.54 E73.05241
G1 X121.56 Y137.909 E73.13518
G1 X120.785 Y138.205 E73.21796
G1 X119.986 Y138.425 E73.30065
G1 X119.169 Y138.567 E73.3834
G1 X118.106 Y138.633 E73.48967
G1 X103.04 Y138.633 E74.99296
G1 X102.212 Y138.593 E75.07567
G1 X101.391 Y138.473 E75.15846
G1 X100.586 Y138.275 E75.24118
G1 X99.804 Y138.001 E75.32386
G1 X99.051 Y137.652 E75.40667
G1 X98.782 Y137.494 E75.4378
G1 X90 Y137.494 E76.31407
G1 X89.172 Y137.454 E76.39679
G1 X88.351 Y137.334 E76.47958
G1 X87.546 Y137.136 E76.56229
G1 X86.764 Y136.862 E76.64497
G1 X86.011 Y136.513 E76.72779
G1 X85.296 Y136.093 E76.81053
G1 X84.625 Y135.607 E76.8932
G1 X84.003 Y135.058 E76.97598
G1 X83.437 Y134.452 E77.05872
G1 X82.932 Y133.794 E77.14148
G1 X82.493 Y133.091 E77.22418
G1 X82.124 Y132.348 E77.30695
G1 X81.828 Y131.573 E77.38973
G1 X81.608 Y130.774 E77.47242
G1 X81.466 Y129.957 E77.55517
G1 X81.4 Y128.894 E77.66144
G1 X81.4 Y108.885 E79.65794
G1 X81.44 Y108.057 E79.74066
G1 X81.56 Y107.236 E79.82345
G1 X81.758 Y106.431 E79.90617
G1 X82.032 Y105.649 E79.98884
G1 X82.381 Y104.896 E80.07166
G1 X82.801 Y104.181 E80.1544
G1 X83.287 Y103.51 E80.23707
G1 X83.836 Y102.888 E80.31985
G1 X84.442 Y102.322 E80.40259
G1 X85.1 Y101.817 E80.48535
G1 X85.803 Y101.378 E80.56805
G1 X86.546 Y101.009 E80.65083
G1 X87.321 Y100.713 E80.7336
G1 X88.12 Y100.493 E80.8163
G1 X88.937 Y100.351 E80.89904
G1 X90 Y100.285 E81.00531
G1 X94.501 Y100.285 E81.45442
G1 X94.501 Y89.967 E82.48395
G1 X94.541 Y89.139 E82.56667
G1 X94.661 Y88.318 E82.64946
G1 X94.859 Y87.513 E82.73218
G1 X95.133 Y86.731 E82.81486
G1 X95.482 Y85.978 E82.89767
G1 X95.902 Y85.263 E82.98041
G1 X96.388 Y84.592 E83.06308
G0 F7500 X96.785 Y84.738
G1 F1500 X97.331 Y84.141 E83.1438
G1 X97.934 Y83.6 E83.22464
G1 X98.587 Y83.121 E83.30544
G1 X99.284 Y82.71 E83.38618
G1 X100.018 Y82.368 E83.46698
G1 X100.783 Y82.102 E83.5478
G1 X101.57 Y81.911 E83.6286
G1 X102.372 Y81.799 E83.7094
G1 X103.101 Y81.767 E83.78221
G1 X118.063 Y81.767 E85.27513
G1 X118.872 Y81.807 E85.35595
G1 X119.673 Y81.927 E85.43676
G1 X120.458 Y82.124 E85.51752
G1 X121.219 Y82.399 E85.59826
G1 X121.95 Y82.747 E85.67904
G1 X122.644 Y83.166 E85.75993
G1 X123.292 Y83.651 E85.84069
G1 X123.889 Y84.197 E85.92142
G1 X124.43 Y84.8 E86.00225
G1 X124.909 Y85.453 E86.08306
G1 X125.32 Y86.15 E86.1638
G1 X125.662 Y86.884 E86.2446
G1 X125.928 Y87.649 E86.32541
G1 X126.119 Y88.436 E86.40622
G1 X126.231 Y89.238 E86.48702
G1 X126.263 Y89.967 E86.55983
G1 X126.263 Y100.685 E87.62927
G1 X130 Y100.685 E88.00215
G1 X130.809 Y100.725 E88.08298
G1 X131.61 Y100.845 E88.16379
G1 X132.395 Y101.042 E88.24455
G1 X133.156 Y101.317 E88.32529
G1 X133.887 Y101.665 E88.40607
